;FLAVOR:Marlin
;TIME:3221
;Filament used: 1.85034m
;Layer height: 0.15
;Generated with Cura_SteamEngine 4.0.0
M140 S60
M105
M190 S60
M104 S200
M105
M109 S200
M82 ;absolute extrusion mode
; Ender 3 Custom Start G-code
G28 ; Home all axes
G92 E0 ; Reset Extruder
G1 Z2.0 F3000 ; Move Z Axis up little to prevent scratching of Heat Bed
G1 X0.1 Y20 Z0.3 F5000.0 ; Move to start position
G1 X0.1 Y200.0 Z0.3 F1500.0 E15 ; Draw the first line
G1 X0.4 Y200.0 Z0.3 F5000.0 ; Move to side a little
G1 X0.4 Y20 Z0.3 F1500.0 E30 ; Draw the second line
G92 E0 ; Reset Extruder
G1 Z2.0 F3000 ; Move Z Axis up little to prevent scratching of Heat Bed
; End of custom start GCode
G92 E0
G1 F2400 E-5
;LAYER_COUNT:108
;LAYER:0
M107
M204 S5000
M205 X30 Y30
G0 F3600 X73.651 Y102.007 Z0.2
M204 S500
M205 X20 Y20
;TYPE:SKIRT
G1 F2400 E0
G1 F1800 X74.232 Y101.59 E0.02379
G1 X74.856 Y101.24 E0.04758
G1 X75.515 Y100.961 E0.07138
G1 X76.2 Y100.758 E0.09515
G1 X76.905 Y100.633 E0.11896
G1 X77.66 Y100.587 E0.14412
G1 X79.969 Y100.583 E0.22092
G1 X80.35 Y100.594 E0.23359
G1 X83.527 Y100.778 E0.33944
G1 X88.842 Y100.849 E0.51623
G1 X94.906 Y100.583 E0.71812
G1 X95.27 Y100.578 E0.73022
G1 X103.953 Y100.691 E1.01905
G1 X106.064 Y100.632 E1.08928
G1 X106.121 Y100.631 E1.09118
G1 X109.169 Y100.573 E1.19258
G1 X109.615 Y100.58 E1.20741
G1 X113.518 Y100.778 E1.33739
G1 X118.842 Y100.849 E1.51449
G1 X124.906 Y100.583 E1.71637
G1 X125.2 Y100.577 E1.72615
G1 X127.666 Y100.582 E1.80817
G1 X128.38 Y100.623 E1.83196
G1 X129.085 Y100.744 E1.85575
G1 X129.772 Y100.943 E1.87954
G1 X130.433 Y101.217 E1.90334
G1 X131.059 Y101.563 E1.92713
G1 X131.642 Y101.977 E1.95091
G1 X132.109 Y102.388 E1.9716
G1 X132.343 Y102.615 E1.98244
G1 X132.828 Y103.141 E2.00624
G1 X133.435 Y104.018 E2.04171
G1 X134.418 Y105.727 E2.10729
G1 X134.739 Y106.366 E2.13107
G1 X134.987 Y107.037 E2.15486
G1 X135.21 Y108.044 E2.18917
G1 X135.634 Y111.119 E2.29241
G1 X136.499 Y116.062 E2.45931
G1 X136.583 Y116.772 E2.48309
G1 X136.595 Y117.168 E2.49627
G1 X136.59 Y128.239 E2.86449
G1 X136.55 Y128.953 E2.88828
G1 X136.43 Y129.658 E2.91206
G1 X136.232 Y130.346 E2.93588
G1 X135.959 Y131.007 E2.95966
G1 X135.76 Y131.388 E2.97396
G1 X133.858 Y134.749 E3.1024
G1 X131.4 Y139.517 E3.28082
G1 X130.31 Y141.867 E3.36698
G1 X128.278 Y146.794 E3.54424
G1 X126.541 Y151.789 E3.72014
G1 X125.077 Y156.92 E3.89761
G1 X124.455 Y159.505 E3.98604
G1 X123.932 Y161.994 E4.07063
G1 X123.007 Y167.555 E4.25813
G1 X122.957 Y167.822 E4.26716
G1 X122.601 Y169.514 E4.32467
G1 X122.415 Y170.204 E4.34844
G1 X122.153 Y170.87 E4.37225
G1 X121.818 Y171.502 E4.39604
G1 X121.415 Y172.093 E4.41983
G1 X120.948 Y172.635 E4.44362
G1 X120.424 Y173.122 E4.46742
G1 X119.849 Y173.547 E4.4912
G1 X119.23 Y173.905 E4.51498
G1 X118.575 Y174.192 E4.53877
G1 X117.892 Y174.405 E4.56256
G1 X117.189 Y174.539 E4.58637
G1 X116.388 Y174.596 E4.61307
G1 X113.817 Y174.616 E4.69859
G1 X113.383 Y174.604 E4.71303
G1 X109.791 Y174.388 E4.83271
G1 X104.406 Y174.312 E5.01184
G1 X99.566 Y174.408 E5.17285
G1 X98.851 Y174.382 E5.19665
G1 X98.144 Y174.277 E5.22042
G1 X97.453 Y174.093 E5.2442
G1 X96.786 Y173.833 E5.26801
G1 X96.153 Y173.501 E5.29179
G1 X95.561 Y173.1 E5.31557
G1 X95.017 Y172.635 E5.33937
G1 X94.355 Y171.896 E5.37237
G1 X93.231 Y170.426 E5.43392
G1 X92.829 Y169.835 E5.45769
G1 X92.461 Y169.125 E5.48429
G1 X91.355 Y166.62 E5.57536
G1 X87.742 Y159.242 E5.8486
G1 X85.255 Y154.385 E6.03009
G1 X82.587 Y149.83 E6.20567
G1 X79.658 Y145.419 E6.38178
G1 X76.479 Y141.176 E6.55812
G1 X73.049 Y137.101 E6.73527
G1 X70.684 Y134.538 E6.85126
G1 X70.229 Y133.986 E6.87506
G1 X69.838 Y133.386 E6.89888
G1 X69.517 Y132.747 E6.92266
G1 X69.246 Y131.999 E6.94912
G1 X68.67 Y130.036 E7.01716
G1 X68.507 Y129.339 E7.04097
G1 X68.423 Y128.629 E7.06475
G1 X68.411 Y128.235 E7.07786
G1 X68.41 Y117.019 E7.45091
G1 X68.45 Y116.304 E7.47473
G1 X68.538 Y115.746 E7.49351
G1 X69.196 Y112.503 E7.60357
G1 X69.929 Y108.005 E7.75515
G1 X70.084 Y107.307 E7.77893
G1 X70.315 Y106.63 E7.80273
G1 X70.621 Y105.983 E7.82653
G1 X70.882 Y105.544 E7.84352
G1 X72.038 Y103.768 E7.914
G1 X72.461 Y103.191 E7.93779
G1 X72.851 Y102.759 E7.95715
G1 X73.12 Y102.487 E7.96987
G1 X73.651 Y102.007 E7.99368
M204 S5000
M205 X30 Y30
G0 F3600 X73.919 Y102.304
M204 S500
M205 X20 Y20
G1 F1800 X74.484 Y101.903 E8.01673
G1 X75.091 Y101.57 E8.03975
G1 X75.732 Y101.309 E8.06277
G1 X76.4 Y101.123 E8.08584
G1 X77.084 Y101.016 E8.10886
G1 X77.661 Y100.987 E8.12808
G1 X79.97 Y100.983 E8.20488
G1 X80.327 Y100.993 E8.21675
G1 X83.521 Y101.178 E8.32316
G1 X88.855 Y101.25 E8.50059
G1 X94.924 Y100.983 E8.70264
G1 X95.265 Y100.978 E8.71398
G1 X103.959 Y101.091 E9.00317
G1 X106.075 Y101.032 E9.07358
G1 X106.129 Y101.031 E9.07537
G1 X109.177 Y100.973 E9.17677
G1 X109.595 Y100.98 E9.19067
G1 X113.493 Y101.178 E9.32049
G1 X118.855 Y101.25 E9.49885
G1 X124.924 Y100.983 E9.7009
G1 X125.199 Y100.977 E9.71005
G1 X127.665 Y100.982 E9.79207
G1 X128.356 Y101.023 E9.81509
G1 X129.038 Y101.144 E9.83813
G1 X129.702 Y101.343 E9.86118
G1 X130.338 Y101.616 E9.8842
G1 X130.938 Y101.961 E9.90722
G1 X131.495 Y102.373 E9.93027
G1 X131.831 Y102.675 E9.94529
G1 X132.065 Y102.902 E9.95613
G1 X132.533 Y103.413 E9.97918
G1 X133.088 Y104.217 E10.01167
G1 X134.071 Y105.926 E10.07725
G1 X134.381 Y106.546 E10.1003
G1 X134.618 Y107.197 E10.12335
G1 X134.814 Y108.099 E10.15405
G1 X135.24 Y111.186 E10.25769
G1 X136.105 Y116.131 E10.42466
G1 X136.185 Y116.818 E10.44767
G1 X136.195 Y117.168 E10.45931
G1 X136.19 Y128.239 E10.82754
G1 X136.15 Y128.93 E10.85056
G1 X136.03 Y129.612 E10.87359
G1 X135.833 Y130.276 E10.89663
G1 X135.412 Y131.191 E10.93012
G1 X133.513 Y134.548 E11.05841
G1 X131.034 Y139.354 E11.23827
G1 X129.949 Y141.695 E11.32408
G1 X127.9 Y146.662 E11.50279
G1 X126.158 Y151.675 E11.67931
G1 X124.692 Y156.808 E11.85686
G1 X124.068 Y159.402 E11.94559
G1 X123.54 Y161.92 E12.03116
G1 X122.613 Y167.489 E12.21894
G1 X122.565 Y167.739 E12.22741
G1 X122.209 Y169.431 E12.28491
G1 X122.028 Y170.1 E12.30797
G1 X121.771 Y170.743 E12.331
G1 X121.441 Y171.352 E12.35403
G1 X121.043 Y171.919 E12.37708
G1 X120.583 Y172.436 E12.40009
G1 X120.066 Y172.897 E12.42313
G1 X119.5 Y173.295 E12.44614
G1 X118.891 Y173.626 E12.4692
G1 X118.248 Y173.884 E12.49224
G1 X117.58 Y174.066 E12.51527
G1 X116.896 Y174.17 E12.53828
G1 X116.385 Y174.196 E12.5553
G1 X113.814 Y174.216 E12.64081
G1 X113.407 Y174.205 E12.65435
G1 X109.799 Y173.988 E12.77457
G1 X104.404 Y173.912 E12.95403
G1 X99.558 Y174.008 E13.11524
G1 X98.866 Y173.982 E13.13827
G1 X98.182 Y173.876 E13.16129
G1 X97.514 Y173.692 E13.18434
G1 X96.872 Y173.432 E13.20738
G1 X96.264 Y173.1 E13.23042
G1 X95.699 Y172.701 E13.25342
G1 X95.183 Y172.238 E13.27648
G1 X94.673 Y171.653 E13.30229
G1 X93.549 Y170.183 E13.36384
G1 X93.16 Y169.61 E13.38688
G1 X92.826 Y168.963 E13.41109
G1 X91.712 Y166.441 E13.50279
G1 X88.088 Y159.04 E13.77688
G1 X85.61 Y154.2 E13.95773
G1 X82.92 Y149.608 E14.13474
G1 X79.99 Y145.195 E14.31092
G1 X76.789 Y140.924 E14.48844
G1 X73.346 Y136.832 E14.66631
G1 X70.978 Y134.266 E14.78244
G1 X70.538 Y133.731 E14.80548
G1 X70.163 Y133.149 E14.82851
G1 X69.858 Y132.527 E14.85155
G1 X69.63 Y131.886 E14.87418
G1 X69.054 Y129.923 E14.94222
G1 X68.897 Y129.249 E14.96524
G1 X68.811 Y128.235 E14.99909
G1 X68.81 Y117.019 E15.37213
G1 X68.85 Y116.327 E15.39519
G1 X68.93 Y115.826 E15.41206
G1 X69.59 Y112.573 E15.52246
G1 X70.324 Y108.069 E15.67424
G1 X70.475 Y107.394 E15.69725
G1 X70.702 Y106.739 E15.7203
G1 X71.004 Y106.116 E15.74333
G1 X71.217 Y105.762 E15.75707
G1 X72.373 Y103.986 E15.82755
G1 X72.784 Y103.428 E15.8506
G1 X73.136 Y103.04 E15.86803
G1 X73.405 Y102.768 E15.88075
G1 X73.919 Y102.304 E15.90378
M204 S5000
M205 X30 Y30
G0 F3600 X74.187 Y102.602
M204 S500
M205 X20 Y20
G1 F1800 X74.735 Y102.218 E15.92604
G1 X75.325 Y101.902 E15.9483
G1 X75.948 Y101.659 E15.97054
G1 X76.596 Y101.491 E15.99281
G1 X77.259 Y101.402 E16.01505
G1 X77.661 Y101.387 E16.02843
G1 X79.97 Y101.383 E16.10523
G1 X80.304 Y101.392 E16.11635
G1 X83.515 Y101.578 E16.22332
G1 X88.849 Y101.65 E16.40075
G1 X94.941 Y101.382 E16.60357
G1 X95.26 Y101.377 E16.61418
G1 X103.99 Y101.491 E16.90456
G1 X106.087 Y101.432 E16.97434
G1 X106.136 Y101.431 E16.97597
G1 X109.184 Y101.373 E17.07736
G1 X109.574 Y101.379 E17.09033
G1 X113.493 Y101.578 E17.22085
G1 X118.849 Y101.65 E17.39901
G1 X124.941 Y101.382 E17.60182
G1 X125.198 Y101.377 E17.61037
G1 X127.664 Y101.382 E17.69239
G1 X128.332 Y101.423 E17.71465
G1 X128.99 Y101.544 E17.7369
G1 X129.629 Y101.742 E17.75915
G1 X130.24 Y102.015 E17.78141
G1 X130.814 Y102.359 E17.80367
G1 X131.552 Y102.963 E17.83539
G1 X131.786 Y103.19 E17.84623
G1 X132.238 Y103.683 E17.86848
G1 X132.741 Y104.417 E17.89807
G1 X133.724 Y106.126 E17.96365
G1 X134.023 Y106.725 E17.98591
G1 X134.247 Y107.355 E18.00815
G1 X134.418 Y108.153 E18.0353
G1 X134.846 Y111.257 E18.13951
G1 X135.711 Y116.2 E18.30642
G1 X135.795 Y117.168 E18.33873
G1 X135.79 Y128.239 E18.70696
G1 X135.75 Y128.906 E18.72918
G1 X135.63 Y129.565 E18.75146
G1 X135.433 Y130.204 E18.7737
G1 X135.064 Y130.994 E18.8027
G1 X133.156 Y134.366 E18.93156
G1 X130.678 Y139.172 E19.11141
G1 X129.579 Y141.543 E19.19833
G1 X127.534 Y146.499 E19.37665
G1 X125.777 Y151.555 E19.55467
G1 X124.299 Y156.729 E19.73364
G1 X123.682 Y159.298 E19.82152
G1 X123.143 Y161.864 E19.90873
G1 X122.218 Y167.423 E20.09616
G1 X122.174 Y167.657 E20.10408
G1 X121.818 Y169.349 E20.16159
G1 X121.641 Y169.994 E20.18384
G1 X121.389 Y170.614 E20.2061
G1 X121.065 Y171.199 E20.22834
G1 X120.673 Y171.741 E20.25059
G1 X120.219 Y172.233 E20.27285
G1 X119.71 Y172.667 E20.2951
G1 X119.153 Y173.037 E20.31734
G1 X118.555 Y173.338 E20.33961
G1 X117.926 Y173.566 E20.36186
G1 X117.274 Y173.717 E20.38412
G1 X116.382 Y173.796 E20.4139
G1 X113.811 Y173.816 E20.49942
G1 X113.431 Y173.806 E20.51206
G1 X109.807 Y173.588 E20.63281
G1 X104.402 Y173.512 E20.8126
G1 X99.55 Y173.608 E20.97401
G1 X98.882 Y173.581 E20.99625
G1 X98.221 Y173.475 E21.01852
G1 X97.578 Y173.291 E21.04076
G1 X96.961 Y173.031 E21.06303
G1 X96.38 Y172.7 E21.08527
G1 X95.843 Y172.302 E21.1075
G1 X95.356 Y171.842 E21.12978
G1 X94.99 Y171.41 E21.14861
G1 X93.866 Y169.94 E21.21016
G1 X93.493 Y169.386 E21.23237
G1 X93.192 Y168.801 E21.25426
G1 X92.075 Y166.271 E21.34624
G1 X88.467 Y158.902 E21.61913
G1 X85.961 Y154.009 E21.80198
G1 X83.26 Y149.398 E21.97972
G1 X80.313 Y144.96 E22.1569
G1 X77.107 Y140.681 E22.33474
G1 X73.642 Y136.563 E22.51374
G1 X71.272 Y133.995 E22.62997
G1 X70.848 Y133.477 E22.65223
G1 X70.489 Y132.912 E22.6745
G1 X70.201 Y132.309 E22.69672
G1 X70.014 Y131.774 E22.71557
G1 X69.438 Y129.811 E22.78362
G1 X69.288 Y129.159 E22.80587
G1 X69.211 Y128.234 E22.83674
G1 X69.21 Y117.018 E23.20979
G1 X69.25 Y116.351 E23.23201
G1 X69.322 Y115.905 E23.24704
G1 X69.985 Y112.634 E23.35804
G1 X70.719 Y108.134 E23.50969
G1 X70.866 Y107.481 E23.53195
G1 X71.09 Y106.851 E23.55419
G1 X71.553 Y105.98 E23.587
G1 X72.709 Y104.204 E23.65748
G1 X73.106 Y103.666 E23.67972
G1 X73.42 Y103.321 E23.69524
G1 X73.689 Y103.049 E23.70796
G1 X74.187 Y102.602 E23.73022
M204 S5000
M205 X30 Y30
G0 F3600 X74.455 Y102.901
M204 S500
M205 X20 Y20
G1 F1800 X74.985 Y102.535 E23.75164
G1 X75.556 Y102.236 E23.77308
G1 X76.161 Y102.011 E23.79455
G1 X76.788 Y101.863 E23.81597
G1 X77.662 Y101.787 E23.84515
G1 X79.971 Y101.783 E23.92195
G1 X80.281 Y101.792 E23.93226
G1 X83.464 Y101.976 E24.03831
G1 X88.879 Y102.049 E24.21843
G1 X94.959 Y101.782 E24.42084
G1 X95.255 Y101.777 E24.43069
G1 X103.996 Y101.891 E24.72144
G1 X106.098 Y101.832 E24.79138
G1 X106.144 Y101.831 E24.79291
G1 X109.192 Y101.773 E24.89431
G1 X109.554 Y101.779 E24.90635
G1 X113.441 Y101.976 E25.0358
G1 X118.879 Y102.049 E25.21668
G1 X124.959 Y101.782 E25.4191
G1 X125.198 Y101.777 E25.42705
G1 X127.664 Y101.782 E25.50907
G1 X128.307 Y101.823 E25.5305
G1 X128.94 Y101.944 E25.55194
G1 X129.554 Y102.142 E25.57339
G1 X130.138 Y102.414 E25.59482
G1 X130.684 Y102.757 E25.61627
G1 X131.274 Y103.25 E25.64184
G1 X131.508 Y103.477 E25.65268
G1 X131.942 Y103.953 E25.67411
G1 X132.395 Y104.616 E25.70081
G1 X133.378 Y106.325 E25.76639
G1 X133.664 Y106.903 E25.78784
G1 X133.876 Y107.512 E25.80928
G1 X134.021 Y108.208 E25.83293
G1 X134.446 Y111.293 E25.93651
G1 X135.317 Y116.268 E26.10449
G1 X135.395 Y117.167 E26.13451
G1 X135.39 Y128.238 E26.50273
G1 X135.35 Y128.882 E26.52419
G1 X135.23 Y129.515 E26.54562
G1 X135.033 Y130.129 E26.56707
G1 X134.716 Y130.797 E26.59166
G1 X132.804 Y134.175 E26.72076
G1 X130.317 Y138.999 E26.90127
G1 X129.212 Y141.383 E26.98867
G1 X127.158 Y146.363 E27.16784
G1 X125.395 Y151.435 E27.34644
G1 X123.915 Y156.618 E27.52571
G1 X123.287 Y159.228 E27.615
G1 X122.75 Y161.786 E27.70193
G1 X121.823 Y167.358 E27.88981
G1 X121.783 Y167.575 E27.89715
G1 X121.427 Y169.267 E27.95465
G1 X121.255 Y169.888 E27.97609
G1 X121.008 Y170.483 E27.99751
G1 X120.689 Y171.044 E28.01898
G1 X120.303 Y171.56 E28.04041
G1 X119.856 Y172.025 E28.06186
G1 X119.356 Y172.431 E28.08329
G1 X118.808 Y172.772 E28.10475
G1 X118.223 Y173.042 E28.12618
G1 X117.609 Y173.238 E28.14762
G1 X116.975 Y173.357 E28.16908
G1 X116.378 Y173.396 E28.18897
G1 X113.807 Y173.416 E28.27449
G1 X113.455 Y173.407 E28.2862
G1 X109.815 Y173.188 E28.40749
G1 X104.399 Y173.111 E28.58764
G1 X99.542 Y173.208 E28.74922
G1 X98.898 Y173.181 E28.77066
G1 X98.262 Y173.074 E28.79211
G1 X97.645 Y172.89 E28.81352
G1 X97.055 Y172.63 E28.83497
G1 X96.501 Y172.3 E28.85641
G1 X95.993 Y171.903 E28.87786
G1 X95.537 Y171.447 E28.89931
G1 X95.308 Y171.168 E28.91131
G1 X94.184 Y169.698 E28.97286
G1 X93.825 Y169.162 E28.99431
G1 X93.558 Y168.64 E29.01382
G1 X92.437 Y166.103 E29.10607
G1 X88.823 Y158.72 E29.37947
G1 X86.313 Y153.817 E29.56267
G1 X83.601 Y149.188 E29.74111
G1 X80.629 Y144.712 E29.91981
G1 X77.427 Y140.439 E30.0974
G1 X73.948 Y136.305 E30.27711
G1 X71.566 Y133.724 E30.39393
G1 X71.159 Y133.224 E30.41537
G1 X70.817 Y132.677 E30.43683
G1 X70.545 Y132.093 E30.45826
G1 X70.397 Y131.661 E30.47344
G1 X69.821 Y129.698 E30.54149
G1 X69.679 Y129.069 E30.56293
G1 X69.611 Y128.234 E30.5908
G1 X69.61 Y117.018 E30.96384
G1 X69.65 Y116.375 E30.98527
G1 X69.714 Y115.985 E30.99842
G1 X70.379 Y112.704 E31.10976
G1 X71.114 Y108.198 E31.26161
G1 X71.257 Y107.57 E31.28303
G1 X71.476 Y106.964 E31.30446
G1 X71.888 Y106.198 E31.33339
G1 X73.044 Y104.422 E31.40387
G1 X73.428 Y103.905 E31.42529
G1 X73.705 Y103.602 E31.43895
G1 X73.974 Y103.33 E31.45167
G1 X74.455 Y102.901 E31.47311
M204 S5000
M205 X30 Y30
G0 F3600 X77.753 Y107.173
M204 S500
M205 X20 Y20
;TYPE:SUPPORT
G1 F1800 X79.884 Y107.172 E31.54399
G1 X80 Y107.288 E31.54944
G1 X80 Y109.097 E31.60961
G1 X81.819 Y110.936 E31.69564
G1 X82.26 Y111.12 E31.71154
G1 X84.849 Y111.12 E31.79765
G1 X84.356 Y111.528 E31.81893
G1 X84.202 Y111.528 E31.82405
G1 X83.765 Y111.787 E31.84095
G1 X83.428 Y112.4 E31.86421
G1 X83.366 Y112.4 E31.86628
G1 X82.958 Y112.774 E31.88469
G1 X82.804 Y114.562 E31.94437
G1 X82.805 Y114.634 E31.94677
G1 X82.715 Y115.789 E31.9853
G1 X83.782 Y117.672 E32.05729
G1 X84.219 Y117.928 E32.07413
G1 X84.364 Y117.928 E32.07895
G1 X85.043 Y118.5 E32.10848
G1 X85.408 Y118.628 E32.12135
G1 X89.592 Y118.628 E32.26051
G1 X89.954 Y118.5 E32.27328
G1 X90.644 Y117.928 E32.30309
G1 X90.791 Y117.928 E32.30798
G1 X91.228 Y117.672 E32.32482
G1 X92.093 Y116.126 E32.38374
G1 X92.165 Y115.18 E32.4153
G1 X92.182 Y115.051 E32.41963
G1 X92.195 Y114.843 E32.42656
G1 X92.192 Y114.557 E32.43607
G1 X92.099 Y113.329 E32.47703
G1 X91.685 Y112.609 E32.50466
G1 X91.15 Y111.769 E32.53778
G1 X90.71 Y111.528 E32.55447
