;FLAVOR:Marlin
;TIME:11134
;Filament used: 6.5347m
;Layer height: 0.2
;MINX:91.853
;MINY:102.44
;MINZ:0.2
;MAXX:140.174
;MAXY:127.442
;MAXZ:90
;POSTPROCESSED
;ChangeAtZ instances: 1
;Generated with Cura_SteamEngine 4.4.1
M140 S80
M105
M190 S80
M104 S240
M105
M109 S240
M82 ;absolute extrusion mode
M201 X500.00 Y500.00 Z100.00 E5000.00 ;Setup machine max acceleration
M203 X500.00 Y500.00 Z10.00 E50.00 ;Setup machine max feedrate
M204 P500.00 R1000.00 T500.00 ;Setup Print/Retract/Travel acceleration
M205 X8.00 Y8.00 Z0.40 E5.00 ;Setup Jerk
M220 S100 ;Reset Feedrate
M221 S100 ;Reset Flowrate
G28 ;Home
G92 E0 ;Reset Extruder
G1 Z2.0 F3000 ;Move Z Axis up
G1 X10.1 Y20 Z0.28 F5000.0 ;Move to start position
G1 X10.1 Y200.0 Z0.28 F1500.0 E15 ;Draw the first line
G1 X10.4 Y200.0 Z0.28 F5000.0 ;Move to side a little
G1 X10.4 Y20 Z0.28 F1500.0 E30 ;Draw the second line
G92 E0 ;Reset Extruder
G1 Z2.0 F3000 ;Move Z Axis up
G92 E0
G92 E0
G1 F2700 E-6.5
;LAYER_COUNT:450
;LAYER:0
M107
G0 F6000 X95.992 Y104.59 Z0.2
;TYPE:SKIRT
G1 F2700 E0
G1 F900 X96.591 Y104.075 E0.02627
G1 X97.239 Y103.624 E0.05253
G1 X97.93 Y103.24 E0.07883
G1 X98.655 Y102.928 E0.10508
G1 X99.408 Y102.691 E0.13133
G1 X100.182 Y102.532 E0.15761
G1 X100.967 Y102.451 E0.18386
G1 X101.369 Y102.441 E0.19724
G1 X131.681 Y102.44 E1.20542
G1 X132.101 Y102.451 E1.21939
G1 X132.49 Y102.472 E1.23235
G1 X132.989 Y102.515 E1.24901
G1 X133.284 Y102.55 E1.25889
G1 X134.062 Y102.683 E1.28514
G1 X134.824 Y102.894 E1.31144
G1 X135.559 Y103.18 E1.33767
G1 X136.263 Y103.54 E1.36397
G1 X136.926 Y103.968 E1.39022
G1 X137.542 Y104.462 E1.41648
G1 X138.105 Y105.015 E1.44273
G1 X138.61 Y105.623 E1.46901
G1 X139.051 Y106.278 E1.49528
G1 X139.423 Y106.975 E1.52155
G1 X139.722 Y107.705 E1.54779
G1 X139.946 Y108.462 E1.57405
G1 X140.093 Y109.238 E1.60032
G1 X140.165 Y110.288 E1.63532
G1 X140.174 Y119.577 E1.94428
G1 X140.135 Y120.366 E1.97055
G1 X140.016 Y121.147 E1.99683
G1 X139.819 Y121.912 E2.0231
G1 X139.546 Y122.652 E2.04934
G1 X139.199 Y123.362 E2.07562
G1 X138.782 Y124.032 E2.10187
G1 X138.299 Y124.658 E2.12817
G1 X137.756 Y125.231 E2.15442
G1 X137.158 Y125.746 E2.18067
G1 X136.51 Y126.198 E2.20695
G1 X135.82 Y126.582 E2.23321
G1 X135.095 Y126.895 E2.25948
G1 X134.342 Y127.133 E2.28574
G1 X133.261 Y127.334 E2.32231
G1 X132.903 Y127.375 E2.3343
G1 X132.388 Y127.417 E2.35148
G1 X132.053 Y127.433 E2.36264
G1 X131.681 Y127.442 E2.37502
G1 X101.369 Y127.442 E3.3832
G1 X100.58 Y127.402 E3.40947
G1 X99.8 Y127.283 E3.43572
G1 X99.035 Y127.085 E3.462
G1 X98.295 Y126.811 E3.48824
G1 X97.586 Y126.463 E3.51451
G1 X96.915 Y126.045 E3.54081
G1 X96.291 Y125.562 E3.56705
G1 X95.718 Y125.019 E3.59331
G1 X95.203 Y124.42 E3.61958
G1 X94.752 Y123.772 E3.64584
G1 X94.368 Y123.081 E3.67213
G1 X94.056 Y122.356 E3.69838
G1 X93.819 Y121.603 E3.72464
G1 X93.66 Y120.829 E3.75092
G1 X93.579 Y120.044 E3.77717
G1 X93.569 Y119.642 E3.79054
G1 X93.569 Y110.241 E4.10322
G1 X93.609 Y109.452 E4.1295
G1 X93.728 Y108.672 E4.15574
G1 X93.926 Y107.907 E4.18202
G1 X94.2 Y107.167 E4.20827
G1 X94.548 Y106.458 E4.23454
G1 X94.966 Y105.787 E4.26083
G1 X95.449 Y105.163 E4.28708
G1 X95.992 Y104.59 E4.31333
G0 F6000 X96.385 Y104.771
G1 F900 X96.98 Y104.283 E4.33893
G1 X97.622 Y103.86 E4.3645
G1 X98.305 Y103.505 E4.3901
G1 X99.02 Y103.224 E4.41565
G1 X99.762 Y103.018 E4.44127
G1 X100.52 Y102.89 E4.46683
G1 X101.369 Y102.841 E4.49512
G1 X131.681 Y102.84 E5.5033
G1 X132.08 Y102.851 E5.51658
G1 X132.469 Y102.872 E5.52953
G1 X132.942 Y102.913 E5.54532
G1 X133.237 Y102.948 E5.5552
G1 X133.995 Y103.078 E5.58078
G1 X134.735 Y103.286 E5.60635
G1 X135.45 Y103.57 E5.63194
G1 X136.132 Y103.926 E5.65753
G1 X136.773 Y104.352 E5.68312
G1 X137.366 Y104.841 E5.70869
G1 X137.905 Y105.39 E5.73428
G1 X138.384 Y105.991 E5.75984
G1 X138.799 Y106.64 E5.78546
G1 X139.143 Y107.327 E5.81102
G1 X139.415 Y108.047 E5.83661
G1 X139.61 Y108.791 E5.8622
G1 X139.727 Y109.551 E5.88777
G1 X139.765 Y110.289 E5.91235
G1 X139.774 Y119.578 E6.2213
G1 X139.735 Y120.346 E6.24688
G1 X139.616 Y121.106 E6.27247
G1 X139.419 Y121.849 E6.29803
G1 X139.146 Y122.568 E6.32361
G1 X138.8 Y123.255 E6.3492
G1 X138.384 Y123.902 E6.37478
G1 X137.903 Y124.503 E6.40038
G1 X137.363 Y125.05 E6.42595
G1 X136.769 Y125.539 E6.45154
G1 X136.127 Y125.963 E6.47713
G1 X135.445 Y126.318 E6.5027
G1 X134.729 Y126.6 E6.52829
G1 X133.988 Y126.807 E6.55388
G1 X133.216 Y126.937 E6.57992
G1 X132.858 Y126.978 E6.59191
G1 X132.369 Y127.018 E6.60823
G1 X132.034 Y127.034 E6.61938
G1 X131.681 Y127.042 E6.63112
G1 X101.369 Y127.042 E7.63931
G1 X100.601 Y127.002 E7.66488
G1 X99.841 Y126.883 E7.69047
G1 X99.098 Y126.685 E7.71604
G1 X98.379 Y126.411 E7.74164
G1 X97.693 Y126.064 E7.76721
G1 X97.046 Y125.648 E7.79279
G1 X96.446 Y125.167 E7.81837
G1 X95.899 Y124.626 E7.84395
G1 X95.411 Y124.031 E7.86955
G1 X94.988 Y123.389 E7.89512
G1 X94.633 Y122.706 E7.92072
G1 X94.352 Y121.991 E7.94627
G1 X94.146 Y121.249 E7.97189
G1 X94.018 Y120.491 E7.99745
G1 X93.969 Y119.642 E8.02574
G1 X93.969 Y110.241 E8.33842
G1 X94.009 Y109.473 E8.364
G1 X94.128 Y108.713 E8.38958
G1 X94.326 Y107.97 E8.41516
G1 X94.6 Y107.251 E8.44075
G1 X94.947 Y106.565 E8.46632
G1 X95.363 Y105.918 E8.4919
G1 X95.844 Y105.318 E8.51748
G1 X96.385 Y104.771 E8.54307
G0 F6000 X96.777 Y104.957
G1 F900 X97.367 Y104.498 E8.56793
G1 X98.003 Y104.103 E8.59283
G1 X98.677 Y103.779 E8.6177
G1 X99.382 Y103.529 E8.64258
G1 X100.11 Y103.355 E8.66748
G1 X100.852 Y103.26 E8.69236
G1 X101.369 Y103.241 E8.70957
G1 X131.681 Y103.24 E9.71775
G1 X132.058 Y103.25 E9.73029
G1 X132.447 Y103.271 E9.74325
G1 X132.895 Y103.31 E9.7582
G1 X133.19 Y103.345 E9.76808
G1 X133.927 Y103.472 E9.79296
G1 X134.646 Y103.678 E9.81783
G1 X135.339 Y103.959 E9.84271
G1 X135.998 Y104.313 E9.86759
G1 X136.616 Y104.735 E9.89248
G1 X137.185 Y105.22 E9.91734
G1 X137.7 Y105.764 E9.94226
G1 X138.153 Y106.359 E9.96713
G1 X138.54 Y106.999 E9.99201
G1 X138.856 Y107.677 E10.01689
G1 X139.099 Y108.384 E10.04175
G1 X139.264 Y109.114 E10.06664
G1 X139.351 Y109.857 E10.09153
G1 X139.365 Y110.289 E10.1059
G1 X139.374 Y119.578 E10.41486
G1 X139.335 Y120.325 E10.43973
G1 X139.216 Y121.064 E10.46463
G1 X139.019 Y121.786 E10.48952
G1 X138.746 Y122.482 E10.51439
G1 X138.401 Y123.146 E10.53928
G1 X137.986 Y123.768 E10.56415
G1 X137.508 Y124.343 E10.58902
G1 X136.971 Y124.864 E10.6139
G1 X136.381 Y125.324 E10.63878
G1 X135.746 Y125.719 E10.66366
G1 X135.072 Y126.044 E10.68854
G1 X134.367 Y126.295 E10.71343
G1 X133.64 Y126.47 E10.7383
G1 X133.17 Y126.54 E10.75411
G1 X132.812 Y126.581 E10.76609
G1 X132.35 Y126.618 E10.78151
G1 X132.015 Y126.634 E10.79266
G1 X131.681 Y126.642 E10.80378
G1 X101.369 Y126.642 E11.81196
G1 X100.622 Y126.602 E11.83684
G1 X99.884 Y126.483 E11.8617
G1 X99.162 Y126.285 E11.8866
G1 X98.466 Y126.012 E11.91147
G1 X97.803 Y125.665 E11.93636
G1 X97.18 Y125.25 E11.96126
G1 X96.606 Y124.771 E11.98612
G1 X96.085 Y124.234 E12.01101
G1 X95.626 Y123.644 E12.03587
G1 X95.231 Y123.008 E12.06077
G1 X94.907 Y122.334 E12.08564
G1 X94.657 Y121.629 E12.11052
G1 X94.483 Y120.901 E12.13542
G1 X94.388 Y120.159 E12.1603
G1 X94.369 Y119.642 E12.1775
G1 X94.369 Y110.241 E12.49018
G1 X94.409 Y109.494 E12.51506
G1 X94.528 Y108.756 E12.53993
G1 X94.726 Y108.034 E12.56483
G1 X94.999 Y107.338 E12.58969
G1 X95.346 Y106.675 E12.61458
G1 X95.761 Y106.052 E12.63948
G1 X96.24 Y105.478 E12.66435
G1 X96.777 Y104.957 E12.68923
G0 F6000 X96.634 Y105.643
G1 F900 X97.168 Y105.15 E12.7134
G1 X97.753 Y104.72 E12.73755
G1 X98.382 Y104.356 E12.76172
G1 X99.047 Y104.063 E12.78589
G1 X99.74 Y103.845 E12.81006
G1 X100.452 Y103.705 E12.83419
G1 X101.369 Y103.641 E12.86476
G1 X131.681 Y103.64 E13.87295
G1 X132.037 Y103.65 E13.88479
G1 X132.426 Y103.671 E13.89775
G1 X132.848 Y103.707 E13.91183
G1 X133.143 Y103.742 E13.92172
G1 X133.858 Y103.867 E13.94586
G1 X134.556 Y104.07 E13.97003
G1 X135.226 Y104.349 E13.99417
G1 X135.863 Y104.699 E14.01835
G1 X136.456 Y105.117 E14.04248
G1 X137.001 Y105.598 E14.06666
G1 X137.489 Y106.136 E14.09081
G1 X137.915 Y106.724 E14.11496
G1 X138.274 Y107.356 E14.13914
G1 X138.561 Y108.023 E14.16329
G1 X138.773 Y108.718 E14.18746
G1 X138.908 Y109.431 E14.21159
G1 X138.965 Y110.29 E14.24023
G1 X138.974 Y119.579 E14.54918
G1 X138.935 Y120.304 E14.57333
G1 X138.816 Y121.02 E14.59747
G1 X138.619 Y121.72 E14.62166
G1 X138.347 Y122.393 E14.6458
G1 X138.002 Y123.032 E14.66995
G1 X137.589 Y123.63 E14.69412
G1 X137.113 Y124.179 E14.71829
G1 X136.58 Y124.672 E14.74244
G1 X135.995 Y125.103 E14.76661
G1 X135.367 Y125.467 E14.79075
G1 X134.702 Y125.761 E14.81493
G1 X134.01 Y125.979 E14.83906
G1 X133.125 Y126.142 E14.86899
G1 X132.767 Y126.183 E14.88098
G1 X132.331 Y126.218 E14.89553
G1 X131.996 Y126.234 E14.90668
G1 X131.681 Y126.242 E14.91716
G1 X101.369 Y126.242 E15.92534
G1 X100.644 Y126.202 E15.94949
G1 X99.927 Y126.083 E15.97367
G1 X99.228 Y125.885 E15.99783
G1 X98.555 Y125.612 E16.02199
G1 X97.916 Y125.267 E16.04614
G1 X97.319 Y124.853 E16.0703
G1 X96.771 Y124.377 E16.09445
G1 X96.278 Y123.843 E16.11862
G1 X95.848 Y123.258 E16.14277
G1 X95.484 Y122.629 E16.16694
G1 X95.191 Y121.964 E16.19111
G1 X94.973 Y121.271 E16.21527
G1 X94.833 Y120.559 E16.2394
G1 X94.769 Y119.642 E16.26998
G1 X94.769 Y110.241 E16.58266
G1 X94.809 Y109.516 E16.60681
G1 X94.928 Y108.799 E16.63098
G1 X95.126 Y108.1 E16.65514
G1 X95.399 Y107.427 E16.6793
G1 X95.744 Y106.788 E16.70345
G1 X96.158 Y106.191 E16.72762
G1 X96.634 Y105.643 E16.75176
G0 F6000 X97.028 Y105.814
G1 F900 X97.558 Y105.35 E16.77519
G1 X98.137 Y104.95 E16.79859
G1 X98.758 Y104.618 E16.82202
G1 X99.412 Y104.358 E16.84542
G1 X100.092 Y104.174 E16.86885
G1 X100.788 Y104.068 E16.89227
G1 X101.369 Y104.041 E16.91161
G1 X131.681 Y104.04 E17.9198
G1 X132.015 Y104.049 E17.93091
G1 X132.404 Y104.07 E17.94387
G1 X132.8 Y104.104 E17.95709
G1 X133.095 Y104.139 E17.96697
G1 X133.789 Y104.262 E17.99041
G1 X134.464 Y104.462 E18.01382
G1 X135.111 Y104.737 E18.03721
G1 X135.724 Y105.085 E18.06065
G1 X136.293 Y105.499 E18.08405
G1 X136.811 Y105.975 E18.10745
G1 X137.273 Y106.507 E18.13089
G1 X137.671 Y107.088 E18.15431
G1 X138 Y107.71 E18.17772
G1 X138.257 Y108.366 E18.20115
G1 X138.438 Y109.046 E18.22455
G1 X138.54 Y109.742 E18.24795
G1 X138.565 Y110.29 E18.26619
G1 X138.574 Y119.579 E18.57515
G1 X138.535 Y120.282 E18.59857
G1 X138.416 Y120.976 E18.62199
G1 X138.219 Y121.652 E18.6454
G1 X137.947 Y122.301 E18.66881
G1 X137.604 Y122.915 E18.6922
G1 X137.192 Y123.487 E18.71565
G1 X136.719 Y124.008 E18.73905
G1 X136.19 Y124.472 E18.76246
G1 X135.611 Y124.873 E18.78588
G1 X134.991 Y125.206 E18.80929
G1 X134.337 Y125.466 E18.8327
G1 X133.657 Y125.651 E18.85614
G1 X133.079 Y125.745 E18.87561
G1 X132.721 Y125.786 E18.8876
G1 X132.312 Y125.819 E18.90125
G1 X131.977 Y125.835 E18.9124
G1 X131.681 Y125.842 E18.92225
G1 X101.369 Y125.842 E19.93043
G1 X100.666 Y125.802 E19.95385
G1 X99.972 Y125.683 E19.97727
G1 X99.297 Y125.485 E20.00066
G1 X98.648 Y125.213 E20.02407
G1 X98.034 Y124.868 E20.04749
G1 X97.463 Y124.457 E20.07089
G1 X96.942 Y123.983 E20.09432
G1 X96.478 Y123.453 E20.11775
G1 X96.078 Y122.874 E20.14116
G1 X95.746 Y122.253 E20.16458
G1 X95.486 Y121.599 E20.18799
G1 X95.302 Y120.919 E20.21142
G1 X95.196 Y120.223 E20.23483
G1 X95.169 Y119.642 E20.25418
G1 X95.169 Y110.241 E20.56686
G1 X95.209 Y109.538 E20.59027
G1 X95.328 Y108.844 E20.61369
G1 X95.526 Y108.169 E20.63709
G1 X95.798 Y107.52 E20.6605
G1 X96.143 Y106.906 E20.68392
G1 X96.554 Y106.335 E20.70732
G1 X97.028 Y105.814 E20.73075
G0 F6000 X97.422 Y105.992
G1 F900 X97.947 Y105.558 E20.7534
G1 X98.519 Y105.189 E20.77604
G1 X99.131 Y104.89 E20.7987
G1 X99.773 Y104.665 E20.82132
G1 X100.438 Y104.516 E20.84399
G1 X101.369 Y104.441 E20.87506
G1 X131.681 Y104.44 E21.88324
G1 X131.994 Y104.448 E21.89365
G1 X132.383 Y104.469 E21.90661
G1 X132.753 Y104.501 E21.91896
G1 X133.048 Y104.536 E21.92884
G1 X133.719 Y104.656 E21.95151
G1 X134.37 Y104.854 E21.97414
G1 X134.994 Y105.126 E21.99678
G1 X135.582 Y105.47 E22.01944
G1 X136.125 Y105.88 E22.04207
G1 X136.617 Y106.351 E22.06473
G1 X137.05 Y106.877 E22.08739
G1 X137.418 Y107.449 E22.11001
G1 X137.717 Y108.061 E22.13266
G1 X137.942 Y108.704 E22.15532
G1 X138.09 Y109.368 E22.17795
G1 X138.165 Y110.29 E22.20871
G1 X138.174 Y119.579 E22.51767
G1 X138.135 Y120.259 E22.54032
G1 X138.016 Y120.93 E22.56299
G1 X137.82 Y121.582 E22.58563
G1 X137.548 Y122.206 E22.60827
G1 X137.205 Y122.794 E22.63091
G1 X136.796 Y123.338 E22.65355
G1 X136.326 Y123.831 E22.67621
G1 X135.801 Y124.264 E22.69884
G1 X135.229 Y124.634 E22.7215
G1 X134.617 Y124.934 E22.74417
G1 X133.975 Y125.16 E22.7668
G1 X133.034 Y125.347 E22.79871
G1 X132.676 Y125.388 E22.8107
G1 X132.293 Y125.419 E22.82348
G1 X131.958 Y125.435 E22.83463
G1 X131.681 Y125.442 E22.84385
G1 X101.369 Y125.442 E23.85203
G1 X100.689 Y125.402 E23.87469
G1 X100.019 Y125.283 E23.89732
G1 X99.367 Y125.086 E23.91997
G1 X98.743 Y124.814 E23.94261
G1 X98.155 Y124.47 E23.96527
G1 X97.611 Y124.06 E23.98793
G1 X97.12 Y123.589 E24.01056
G1 X96.686 Y123.064 E24.03321
G1 X96.317 Y122.492 E24.05585
G1 X96.018 Y121.88 E24.07851
G1 X95.793 Y121.238 E24.10114
G1 X95.644 Y120.573 E24.1238
G1 X95.569 Y119.642 E24.15487
G1 X95.569 Y110.241 E24.46755
G1 X95.609 Y109.561 E24.4902
G1 X95.728 Y108.891 E24.51283
G1 X95.925 Y108.239 E24.53549
G1 X96.197 Y107.615 E24.55813
G1 X96.541 Y107.027 E24.58079
G1 X96.951 Y106.483 E24.60344
G1 X97.422 Y105.992 E24.62607
G0 F6000 X97.814 Y106.176
G1 F900 X98.334 Y105.775 E24.64791
G1 X98.898 Y105.439 E24.66975
G1 X99.5 Y105.175 E24.69161
G1 X100.129 Y104.985 E24.71347
G1 X100.776 Y104.874 E24.7353
G1 X101.369 Y104.841 E24.75505
G1 X131.681 Y104.84 E25.76324
G1 X131.972 Y104.848 E25.77292
G1 X132.361 Y104.869 E25.78588
G1 X132.706 Y104.899 E25.79739
G1 X133.001 Y104.934 E25.80727
G1 X133.648 Y105.051 E25.82914
G1 X134.275 Y105.245 E25.85097
G1 X134.874 Y105.514 E25.87281
G1 X135.436 Y105.855 E25.89468
G1 X135.953 Y106.26 E25.91652
G1 X136.417 Y106.726 E25.93839
G1 X136.82 Y107.244 E25.96022
G1 X137.158 Y107.808 E25.98209
G1 X137.424 Y108.408 E26.00392
G1 X137.616 Y109.037 E26.02579
G1 X137.73 Y109.684 E26.04764
G1 X137.765 Y110.291 E26.06786
G1 X137.774 Y119.58 E26.37682
G1 X137.735 Y120.236 E26.39868
G1 X137.616 Y120.882 E26.42052
G1 X137.42 Y121.509 E26.44237
G1 X137.149 Y122.107 E26.46421
G1 X136.807 Y122.668 E26.48606
G1 X136.4 Y123.184 E26.50792
G1 X135.933 Y123.646 E26.52977
G1 X135.414 Y124.048 E26.5516
G1 X134.849 Y124.384 E26.57347
G1 X134.248 Y124.649 E26.59531
G1 X133.619 Y124.839 E26.61717
G1 X132.988 Y124.95 E26.63848
G1 X132.63 Y124.991 E26.65046
G1 X132.274 Y125.02 E26.66234
G1 X131.939 Y125.036 E26.6735
G1 X131.681 Y125.042 E26.68208
G1 X101.369 Y125.042 E27.69026
G1 X100.713 Y125.002 E27.71212
G1 X100.067 Y124.883 E27.73397
G1 X99.44 Y124.686 E27.75583
G1 X98.842 Y124.414 E27.77768
G1 X98.281 Y124.072 E27.79953
G1 X97.766 Y123.664 E27.82138
G1 X97.304 Y123.197 E27.84323
G1 X96.903 Y122.677 E27.86507
G1 X96.567 Y122.113 E27.88691
G1 X96.303 Y121.511 E27.90877
G1 X96.113 Y120.882 E27.93063
G1 X96.002 Y120.235 E27.95246
G1 X95.969 Y119.642 E27.97221
G1 X95.969 Y110.241 E28.28489
G1 X96.009 Y109.585 E28.30675
G1 X96.128 Y108.939 E28.3286
G1 X96.325 Y108.312 E28.35046
G1 X96.597 Y107.714 E28.37231
G1 X96.939 Y107.153 E28.39416
G1 X97.347 Y106.638 E28.41601
G1 X97.814 Y106.176 E28.43786
G0 F6000 X97.742 Y106.8
G1 F900 X98.205 Y106.37 E28.45888
G1 X98.719 Y106.001 E28.47992
G1 X99.275 Y105.701 E28.50094
G1 X99.864 Y105.473 E28.52194
G1 X100.478 Y105.321 E28.54298
G1 X101.369 Y105.241 E28.57274
G1 X131.681 Y105.24 E29.58092
