; generated by PrusaSlicer 2.4.0+x64 on 2022-03-19 at 22:29:22 UTC


;
;

;
;
; 

; external perimeters extrusion width = 0.45mm
; perimeters extrusion width = 0.45mm
; infill extrusion width = 0.45mm
; solid infill extrusion width = 0.45mm
; top infill extrusion width = 0.40mm
; first layer extrusion width = 0.42mm

M73 P0 R232
M201 X2500 Y2500 Z400 E5000 ; sets maximum accelerations, mm/sec^2
M203 X180 Y180 Z12 E80 ; sets maximum feedrates, mm/sec
M204 P1250 R1250 T2500 ; sets acceleration (P, T) and retract acceleration (R), mm/sec^2
M205 X8.00 Y8.00 Z2.00 E10.00 ; sets the jerk limits, mm/sec
M205 S0 T0 ; sets the minimum extruding and travel feed rate, mm/sec
M107
;TYPE:Custom
G90 ; use absolute coordinates
M83 ; extruder relative mode
M104 S170 ; set extruder temp for bed leveling
M140 S85 ; set bed temp
M109 R170 ; wait for bed leveling temp
M190 S85 ; wait for bed temp
M204 T1250 ; set travel acceleration
G28 ; home all without mesh bed level
G29 ; mesh bed leveling 
M204 T2500 ; restore travel acceleration
M104 S230 ; set extruder temp
G92 E0
G1 Y-2 X179 F2400
G1 Z3 F720
M109 S230 ; wait for extruder temp

; intro line
G1 X170 F1000
G1 Z0.2 F720
G1 X110 E8 F900
G1 X40 E10 F700
G92 E0

M221 S95 ; set flow
G21 ; set units to millimeters
G90 ; use absolute coordinates
M83 ; use relative distances for extrusion
M900 K0.2 ; Filament gcode
M107
;LAYER_CHANGE
;Z:0.2
;HEIGHT:0.2
;BEFORE_LAYER_CHANGE
G92 E0.0
;0.2


G1 E-3.2 F2400
G1 Z.2 F720
;AFTER_LAYER_CHANGE
;0.2
G1 Z.4
G1 X12.107 Y10.966 F9000
G1 Z.2 F720
G1 E3.2 F1500
M204 P800
;TYPE:Skirt/Brim
;WIDTH:0.42
G1 F1200
G1 X12.611 Y10.462 E.02235
G1 X24.411 Y3.649 E.42722
G1 X25.1 Y3.464 E.02235
G1 X166.7 Y3.464 E4.43977
G1 X167.389 Y3.649 E.02235
G1 X179.189 Y10.462 E.42722
G1 X179.877 Y11.654 E.04318
G1 X179.877 Y147.908 E4.27213
G1 X179.693 Y148.596 E.02235
G1 X167.893 Y169.034 E.73996
G1 X167.389 Y169.538 E.02235
G1 X155.589 Y176.351 E.42722
G1 X154.9 Y176.536 E.02235
G1 X13.3 Y176.536 E4.43977
G1 X12.611 Y176.351 E.02235
G1 X.811 Y169.538 E.42722
G1 X.123 Y168.346 E.04318
G1 X.123 Y32.092 E4.27213
G1 X.307 Y31.404 E.02235
M73 P0 R231
G1 X12.077 Y11.018 E.73808
M204 P1000
; printing object wall-honeycomb-part.stl id:0 copy 0
G1 E-2.24 F2400
;WIPE_START
G1 F7200
G1 X12.611 Y10.462 E-.24413
G1 X14.438 Y9.407 E-.66787
;WIPE_END
G1 E-.048 F2400
G1 Z.4 F720
G1 X84.1 Y149.143 F9000
G1 Z.2 F720
G1 E3.2 F1500
M204 P800
;TYPE:External perimeter
G1 F1200
G1 X94.83 Y155.338 E.38848
G1 X94.83 Y167.728 E.38848
G1 X84.1 Y173.923 E.38848
G1 X73.37 Y167.728 E.38848
G1 X73.37 Y155.338 E.38848
G1 X84.048 Y149.173 E.3866
M204 P1000
G1 X84.3 Y148.797 F9000
G1 E-2.24 F2400
;WIPE_START
G1 F7200
G1 X86.548 Y150.603 E-.912
;WIPE_END
G1 E-.048 F2400
G1 Z.4 F720
G1 X96.97 Y155.338 F9000
G1 Z.2 F720
G1 E3.2 F1500
M204 P800
G1 F1200
G1 X107.7 Y149.143 E.38848
G1 X118.43 Y155.338 E.38848
G1 X118.43 Y167.728 E.38848
G1 X107.7 Y173.923 E.38848
G1 X96.97 Y167.728 E.38848
G1 X96.97 Y155.398 E.3866
M204 P1000
G1 X96.77 Y154.992 F9000
G1 E-2.24 F2400
;WIPE_START
G1 F7200
G1 X99.458 Y153.948 E-.912
;WIPE_END
G1 E-.048 F2400
G1 Z.4 F720
G1 X120.57 Y155.398 F9000
G1 Z.2 F720
G1 E3.2 F1500
M204 P800
G1 F1200
G1 X120.57 Y155.338 E.00188
G1 X131.3 Y149.143 E.38848
G1 X142.03 Y155.338 E.38848
G1 X142.03 Y167.728 E.38848
G1 X131.3 Y173.923 E.38848
G1 X120.57 Y167.728 E.38848
G1 X120.57 Y155.458 E.38472
M204 P1000
G1 X120.514 Y155.378 F9000
G1 E-2.24 F2400
;WIPE_START
G1 F7200
G1 X120.57 Y155.338 E-.038
G1 X122.96 Y153.958 E-.874
;WIPE_END
G1 E-.048 F2400
G1 Z.4 F720
G1 X144.17 Y155.458 F9000
G1 Z.2 F720
G1 E3.2 F1500
M204 P800
G1 F1200
G1 X144.17 Y155.338 E.00376
G1 X154.9 Y149.143 E.38848
G1 X165.63 Y155.338 E.38848
G1 X165.63 Y167.728 E.38848
G1 X154.9 Y173.923 E.38848
G1 X144.17 Y167.728 E.38848
G1 X144.17 Y155.518 E.38283
M204 P1000
G1 X144.057 Y155.417 F9000
G1 E-2.24 F2400
;WIPE_START
G1 F7200
G1 X144.17 Y155.338 E-.057
G1 X146.508 Y153.988 E-.855
;WIPE_END
G1 E-.048 F2400
G1 Z.4 F720
G1 X155.97 Y147.29 F9000
G1 Z.2 F720
G1 E3.2 F1500
M204 P800
G1 F1200
G1 X155.97 Y134.9 E.38848
G1 X166.079 Y129.063 E.36599
G1 X166.7 Y128.705 E.02248
G1 X177.43 Y134.9 E.38848
G1 X177.43 Y147.29 E.38848
G1 X166.7 Y153.485 E.38848
G1 X156.022 Y147.32 E.3866
M204 P1000
G1 X155.57 Y147.29 F9000
G1 E-2.24 F2400
;WIPE_START
G1 F7200
G1 X156.01 Y144.44 E-.912
;WIPE_END
G1 E-.048 F2400
G1 Z.4 F720
G1 X154.9 Y133.047 F9000
G1 Z.2 F720
G1 E3.2 F1500
M204 P800
G1 F1200
G1 X144.17 Y126.852 E.38848
G1 X144.17 Y114.462 E.38848
G1 X154.9 Y108.267 E.38848
G1 X165.63 Y114.462 E.38848
G1 X165.63 Y126.852 E.38848
G1 X154.952 Y133.017 E.3866
M204 P1000
G1 X154.7 Y133.393 F9000
G1 E-2.24 F2400
;WIPE_START
G1 F7200
G1 X152.452 Y131.587 E-.912
;WIPE_END
G1 E-.048 F2400
G1 Z.4 F720
G1 X166.7 Y112.609 F9000
G1 Z.2 F720
G1 E3.2 F1500
M204 P800
G1 F1200
G1 X155.97 Y106.414 E.38848
G1 X155.97 Y94.024 E.38848
G1 X166.7 Y87.829 E.38848
G1 X177.43 Y94.024 E.38848
G1 X177.43 Y106.414 E.38848
G1 X166.752 Y112.579 E.3866
M204 P1000
G1 X166.5 Y112.955 F9000
G1 E-2.24 F2400
;WIPE_START
G1 F7200
G1 X164.252 Y111.149 E-.912
;WIPE_END
G1 E-.048 F2400
G1 Z.4 F720
G1 X154.952 Y92.141 F9000
G1 Z.2 F720
G1 E3.2 F1500
M204 P800
G1 F1200
G1 X154.9 Y92.171 E.00189
G1 X144.17 Y85.976 E.38848
G1 X144.17 Y73.586 E.38848
G1 X154.9 Y67.391 E.38848
G1 X165.63 Y73.586 E.38848
G1 X165.63 Y85.976 E.38848
G1 X155.004 Y92.111 E.38471
M204 P1000
G1 X154.963 Y92.2 F9000
G1 E-2.24 F2400
;WIPE_START
G1 F7200
G1 X154.9 Y92.171 E-.03806
G1 X152.51 Y90.791 E-.87394
;WIPE_END
G1 E-.048 F2400
G1 Z.4 F720
G1 X166.7 Y71.733 F9000
G1 Z.2 F720
G1 E3.2 F1500
M204 P800
G1 F1200
G1 X155.97 Y65.538 E.38848
G1 X155.97 Y53.148 E.38848
G1 X166.7 Y46.953 E.38848
G1 X177.43 Y53.148 E.38848
G1 X177.43 Y65.538 E.38848
G1 X166.752 Y71.703 E.3866
M204 P1000
G1 X166.5 Y72.079 F9000
G1 E-2.24 F2400
;WIPE_START
G1 F7200
G1 X164.252 Y70.273 E-.912
;WIPE_END
G1 E-.048 F2400
G1 Z.4 F720
G1 X154.952 Y51.265 F9000
G1 Z.2 F720
G1 E3.2 F1500
M204 P800
G1 F1200
G1 X154.9 Y51.295 E.00189
G1 X144.17 Y45.1 E.38848
G1 X144.17 Y32.71 E.38848
G1 X154.9 Y26.515 E.38848
G1 X165.63 Y32.71 E.38848
G1 X165.63 Y45.1 E.38848
G1 X155.004 Y51.235 E.38471
M204 P1000
G1 X154.963 Y51.324 F9000
G1 E-2.24 F2400
;WIPE_START
G1 F7200
G1 X154.9 Y51.295 E-.03806
G1 X152.51 Y49.915 E-.87394
;WIPE_END
G1 E-.048 F2400
G1 Z.4 F720
G1 X166.7 Y30.857 F9000
G1 Z.2 F720
G1 E3.2 F1500
M204 P800
G1 F1200
G1 X155.97 Y24.662 E.38848
G1 X155.97 Y12.272 E.38848
G1 X166.7 Y6.077 E.38848
G1 X177.43 Y12.272 E.38848
G1 X177.43 Y24.662 E.38848
G1 X166.752 Y30.827 E.3866
M204 P1000
G1 X166.5 Y31.203 F9000
G1 E-2.24 F2400
;WIPE_START
G1 F7200
G1 X164.252 Y29.397 E-.912
;WIPE_END
G1 E-.048 F2400
G1 Z.4 F720
G1 X107.384 Y94.824 F9000
G1 Z.2 F720
G1 E3.2 F1500
M204 P800
;TYPE:Perimeter
G1 F1200
G1 X107.384 Y106.849 E.37705
G1 X95.9 Y113.48 E.41578
G1 X84.416 Y106.849 E.41578
G1 X84.416 Y93.589 E.41578
G1 X95.9 Y86.958 E.41578
G1 X107.384 Y93.589 E.41578
G1 X107.384 Y94.764 E.03685
M204 P1000
G1 X107.007 Y94.424 F9000
M204 P800
G1 F1200
G1 X107.007 Y106.632 E.38276
G1 X95.9 Y113.044 E.40213
G1 X84.793 Y106.632 E.40213
G1 X84.793 Y93.806 E.40213
M73 P0 R230
G1 X95.9 Y87.394 E.40213
G1 X107.007 Y93.806 E.40213
G1 X107.007 Y94.364 E.01749
M204 P1000
G1 X106.63 Y94.024 F9000
M204 P800
;TYPE:External perimeter
G1 F1200
G1 X106.63 Y106.414 E.38848
G1 X95.9 Y112.609 E.38848
G1 X85.17 Y106.414 E.38848
G1 X85.17 Y94.024 E.38848
G1 X95.9 Y87.829 E.38848
G1 X106.578 Y93.994 E.3866
M204 P1000
G1 X107.03 Y94.024 F9000
G1 E-2.24 F2400
;WIPE_START
G1 F7200
G1 X106.59 Y96.874 E-.912
;WIPE_END
G1 E-.048 F2400
G1 Z.4 F720
G1 X95.268 Y86.594 F9000
G1 Z.2 F720
G1 E3.2 F1500
M204 P800
;TYPE:Perimeter
G1 F1200
G1 X84.1 Y93.042 E.40435
G1 X72.616 Y86.411 E.41578
G1 X72.616 Y73.151 E.41578
G1 X84.1 Y66.52 E.41578
G1 X95.584 Y73.151 E.41578
G1 X95.584 Y86.411 E.41578
G1 X95.32 Y86.564 E.00955
M204 P1000
G1 X95.049 Y86.285 F9000
M204 P800
G1 F1200
G1 X84.1 Y92.606 E.39641
G1 X72.993 Y86.194 E.40213
G1 X72.993 Y73.368 E.40213
G1 X84.1 Y66.956 E.40213
G1 X95.207 Y73.368 E.40213
G1 X95.207 Y86.194 E.40213
G1 X95.101 Y86.255 E.00383
M204 P1000
G1 X94.83 Y85.976 F9000
M204 P800
;TYPE:External perimeter
G1 F1200
G1 X84.1 Y92.171 E.38848
G1 X73.37 Y85.976 E.38848
G1 X73.37 Y73.586 E.38848
G1 X84.1 Y67.391 E.38848
G1 X94.83 Y73.586 E.38848
G1 X94.83 Y85.916 E.3866
M204 P1000
G1 X95.03 Y86.322 F9000
G1 E-2.24 F2400
;WIPE_START
G1 F7200
G1 X92.342 Y87.366 E-.912
;WIPE_END
G1 E-.048 F2400
G1 Z.4 F720
G1 X83.784 Y94.824 F9000
G1 Z.2 F720
G1 E3.2 F1500
M204 P800
;TYPE:Perimeter
G1 F1200
G1 X83.784 Y106.849 E.37705
G1 X72.3 Y113.48 E.41578
G1 X60.816 Y106.849 E.41578
G1 X60.816 Y93.589 E.41578
G1 X72.3 Y86.958 E.41578
G1 X83.784 Y93.589 E.41578
G1 X83.784 Y94.764 E.03685
M204 P1000
G1 X83.407 Y94.424 F9000
M204 P800
G1 F1200
G1 X83.407 Y106.632 E.38276
G1 X72.3 Y113.044 E.40213
G1 X61.193 Y106.632 E.40213
G1 X61.193 Y93.806 E.40213
G1 X72.3 Y87.394 E.40213
G1 X83.407 Y93.806 E.40213
G1 X83.407 Y94.364 E.01749
M204 P1000
G1 X83.03 Y94.024 F9000
M204 P800
;TYPE:External perimeter
G1 F1200
G1 X83.03 Y106.414 E.38848
G1 X72.3 Y112.609 E.38848
G1 X61.57 Y106.414 E.38848
G1 X61.57 Y94.024 E.38848
G1 X72.3 Y87.829 E.38848
G1 X82.978 Y93.994 E.3866
M204 P1000
G1 X83.43 Y94.024 F9000
G1 E-2.24 F2400
;WIPE_START
G1 F7200
G1 X82.99 Y96.874 E-.912
;WIPE_END
G1 E-.048 F2400
G1 Z.4 F720
G1 X71.668 Y86.594 F9000
G1 Z.2 F720
G1 E3.2 F1500
M204 P800
;TYPE:Perimeter
G1 F1200
G1 X60.5 Y93.042 E.40435
G1 X49.016 Y86.411 E.41578
G1 X49.016 Y73.151 E.41578
G1 X60.5 Y66.52 E.41578
G1 X71.984 Y73.151 E.41578
G1 X71.984 Y86.411 E.41578
G1 X71.72 Y86.564 E.00955
M204 P1000
G1 X71.449 Y86.285 F9000
M204 P800
G1 F1200
G1 X60.5 Y92.606 E.39641
G1 X49.393 Y86.194 E.40213
M73 P1 R230
G1 X49.393 Y73.368 E.40213
G1 X60.5 Y66.956 E.40213
G1 X71.607 Y73.368 E.40213
G1 X71.607 Y86.194 E.40213
G1 X71.501 Y86.255 E.00383
M204 P1000
G1 X71.23 Y85.976 F9000
M204 P800
;TYPE:External perimeter
G1 F1200
G1 X60.5 Y92.171 E.38848
G1 X49.77 Y85.976 E.38848
G1 X49.77 Y73.586 E.38848
G1 X60.5 Y67.391 E.38848
G1 X71.23 Y73.586 E.38848
G1 X71.23 Y85.916 E.3866
M204 P1000
G1 X71.43 Y86.322 F9000
G1 E-2.24 F2400
;WIPE_START
G1 F7200
G1 X68.742 Y87.366 E-.912
;WIPE_END
G1 E-.048 F2400
G1 Z.4 F720
G1 X60.184 Y94.824 F9000
G1 Z.2 F720
G1 E3.2 F1500
M204 P800
;TYPE:Perimeter
G1 F1200
G1 X60.184 Y106.849 E.37705
G1 X48.7 Y113.48 E.41578
G1 X37.216 Y106.849 E.41578
G1 X37.216 Y93.589 E.41578
G1 X48.7 Y86.958 E.41578
G1 X60.184 Y93.589 E.41578
G1 X60.184 Y94.764 E.03685
M204 P1000
G1 X59.807 Y94.424 F9000
M204 P800
G1 F1200
G1 X59.807 Y106.632 E.38276
G1 X48.7 Y113.044 E.40213
G1 X37.593 Y106.632 E.40213
G1 X37.593 Y93.806 E.40213
G1 X48.7 Y87.394 E.40213
G1 X59.807 Y93.806 E.40213
G1 X59.807 Y94.364 E.01749
M204 P1000
G1 X59.43 Y94.024 F9000
M204 P800
;TYPE:External perimeter
G1 F1200
G1 X59.43 Y106.414 E.38848
G1 X48.7 Y112.609 E.38848
G1 X37.97 Y106.414 E.38848
G1 X37.97 Y94.024 E.38848
G1 X48.7 Y87.829 E.38848
G1 X59.378 Y93.994 E.3866
M204 P1000
G1 X59.83 Y94.024 F9000
G1 E-2.24 F2400
;WIPE_START
G1 F7200
G1 X59.39 Y96.874 E-.912
;WIPE_END
G1 E-.048 F2400
G1 Z.4 F720
G1 X48.068 Y86.594 F9000
G1 Z.2 F720
G1 E3.2 F1500
M204 P800
;TYPE:Perimeter
G1 F1200
G1 X36.9 Y93.042 E.40435
G1 X25.416 Y86.411 E.41578
G1 X25.416 Y73.151 E.41578
G1 X36.9 Y66.52 E.41578
G1 X48.384 Y73.151 E.41578
G1 X48.384 Y86.411 E.41578
G1 X48.12 Y86.564 E.00955
M204 P1000
G1 X47.849 Y86.285 F9000
M204 P800
G1 F1200
G1 X36.9 Y92.606 E.39641
G1 X25.793 Y86.194 E.40213
M73 P1 R229
G1 X25.793 Y73.368 E.40213
G1 X36.9 Y66.956 E.40213
G1 X48.007 Y73.368 E.40213
G1 X48.007 Y86.194 E.40213
G1 X47.901 Y86.255 E.00383
M204 P1000
G1 X47.63 Y85.976 F9000
M204 P800
;TYPE:External perimeter
G1 F1200
G1 X36.9 Y92.171 E.38848
G1 X26.17 Y85.976 E.38848
G1 X26.17 Y73.586 E.38848
G1 X36.9 Y67.391 E.38848
G1 X47.63 Y73.586 E.38848
G1 X47.63 Y85.916 E.3866
M204 P1000
G1 X47.83 Y86.322 F9000
G1 E-2.24 F2400
;WIPE_START
G1 F7200
G1 X45.142 Y87.366 E-.912
;WIPE_END
G1 E-.048 F2400
G1 Z.4 F720
G1 X37.97 Y108.014 F9000
G1 Z.2 F720
G1 E3.2 F1500
M204 P800
;TYPE:Perimeter
G1 F1200
G1 X48.384 Y114.027 E.37705
G1 X48.384 Y127.287 E.41578
G1 X36.9 Y133.918 E.41578
G1 X25.416 Y127.287 E.41578
G1 X25.416 Y114.027 E.41578
G1 X36.9 Y107.396 E.41578
G1 X37.918 Y107.984 E.03685
M204 P1000
G1 X37.435 Y108.141 F9000
M204 P800
G1 F1200
G1 X48.007 Y114.244 E.38276
G1 X48.007 Y127.07 E.40213
G1 X36.9 Y133.482 E.40213
G1 X25.793 Y127.07 E.40213
G1 X25.793 Y114.244 E.40213
G1 X36.9 Y107.832 E.40213
G1 X37.383 Y108.111 E.01749
M204 P1000
G1 X36.9 Y108.267 F9000
M204 P800
;TYPE:External perimeter
G1 F1200
G1 X47.63 Y114.462 E.38848
G1 X47.63 Y126.852 E.38848
G1 X36.9 Y133.047 E.38848
G1 X26.17 Y126.852 E.38848
G1 X26.17 Y114.462 E.38848
G1 X36.848 Y108.297 E.3866
M204 P1000
G1 X37.1 Y107.921 F9000
G1 E-2.24 F2400
;WIPE_START
G1 F7200
G1 X39.348 Y109.727 E-.912
;WIPE_END
G1 E-.048 F2400
G1 Z.4 F720
G1 X49.016 Y128.016 F9000
G1 Z.2 F720
G1 E3.2 F1500
M204 P800
;TYPE:Perimeter
G1 F1200
G1 X60.184 Y134.465 E.40436
G1 X60.184 Y147.725 E.41578
G1 X48.7 Y154.356 E.41578
G1 X37.216 Y147.725 E.41578
G1 X37.216 Y134.465 E.41578
G1 X48.7 Y127.834 E.41578
G1 X48.964 Y127.986 E.00954
M204 P1000
G1 X48.858 Y128.361 F9000
M204 P800
G1 F1200
G1 X59.807 Y134.682 E.39642
G1 X59.807 Y147.508 E.40213
G1 X48.7 Y153.92 E.40213
G1 X37.593 Y147.508 E.40213
G1 X37.593 Y134.682 E.40213
G1 X48.7 Y128.27 E.40213
G1 X48.806 Y128.331 E.00383
M204 P1000
G1 X48.7 Y128.705 F9000
M204 P800
;TYPE:External perimeter
G1 F1200
G1 X59.43 Y134.9 E.38848
G1 X59.43 Y147.29 E.38848
G1 X48.7 Y153.485 E.38848
G1 X37.97 Y147.29 E.38848
G1 X37.97 Y134.9 E.38848
G1 X48.648 Y128.735 E.38659
M204 P1000
G1 X48.9 Y128.359 F9000
G1 E-2.24 F2400
;WIPE_START
G1 F7200
G1 X51.148 Y130.165 E-.912
;WIPE_END
G1 E-.048 F2400
G1 Z.4 F720
G1 X49.016 Y126.052 F9000
G1 Z.2 F720
G1 E3.2 F1500
M204 P800
;TYPE:Perimeter
G1 F1200
G1 X49.016 Y114.027 E.37705
G1 X60.5 Y107.396 E.41578
G1 X71.984 Y114.027 E.41578
G1 X71.984 Y127.287 E.41578
G1 X60.5 Y133.918 E.41578
G1 X49.016 Y127.287 E.41578
G1 X49.016 Y126.112 E.03685
M204 P1000
G1 X49.393 Y126.452 F9000
M204 P800
G1 F1200
G1 X49.393 Y114.244 E.38276
G1 X60.5 Y107.832 E.40213
G1 X71.607 Y114.244 E.40213
G1 X71.607 Y127.07 E.40213
G1 X60.5 Y133.482 E.40213
G1 X49.393 Y127.07 E.40213
G1 X49.393 Y126.512 E.01749
M204 P1000
G1 X49.77 Y126.852 F9000
M204 P800
;TYPE:External perimeter
G1 F1200
G1 X49.77 Y114.462 E.38848
G1 X59.879 Y108.626 E.36599
G1 X60.5 Y108.267 E.02248
G1 X71.23 Y114.462 E.38848
G1 X71.23 Y126.852 E.38848
G1 X60.5 Y133.047 E.38848
G1 X49.822 Y126.882 E.3866
M204 P1000
G1 X49.37 Y126.852 F9000
G1 E-2.24 F2400
;WIPE_START
G1 F7200
G1 X49.81 Y124.002 E-.912
;WIPE_END
G1 E-.048 F2400
G1 Z.4 F720
G1 X61.132 Y134.282 F9000
G1 Z.2 F720
G1 E3.2 F1500
M204 P800
;TYPE:Perimeter
G1 F1200
G1 X72.3 Y127.834 E.40435
G1 X83.784 Y134.465 E.41578
G1 X83.784 Y147.725 E.41578
G1 X72.3 Y154.356 E.41578
G1 X60.816 Y147.725 E.41578
G1 X60.816 Y134.465 E.41578
G1 X61.08 Y134.312 E.00955
M204 P1000
G1 X61.351 Y134.591 F9000
M204 P800
G1 F1200
G1 X72.3 Y128.27 E.39641
G1 X83.407 Y134.682 E.40213
G1 X83.407 Y147.508 E.40213
G1 X72.3 Y153.92 E.40213
G1 X61.193 Y147.508 E.40213
G1 X61.193 Y134.682 E.40213
G1 X61.299 Y134.621 E.00383
M204 P1000
G1 X61.57 Y134.9 F9000
M204 P800
;TYPE:External perimeter
G1 F1200
G1 X72.3 Y128.705 E.38848
G1 X83.03 Y134.9 E.38848
G1 X83.03 Y147.29 E.38848
G1 X72.3 Y153.485 E.38848
G1 X61.57 Y147.29 E.38848
G1 X61.57 Y134.96 E.3866
M204 P1000
G1 X61.37 Y134.554 F9000
G1 E-2.24 F2400
;WIPE_START
G1 F7200
G1 X64.058 Y133.51 E-.912
;WIPE_END
G1 E-.048 F2400
G1 Z.4 F720
G1 X72.616 Y126.052 F9000
G1 Z.2 F720
G1 E3.2 F1500
M204 P800
;TYPE:Perimeter
G1 F1200
G1 X72.616 Y114.027 E.37705
G1 X84.1 Y107.396 E.41578
G1 X95.584 Y114.027 E.41578
G1 X95.584 Y127.287 E.41578
G1 X84.1 Y133.918 E.41578
G1 X72.616 Y127.287 E.41578
M73 P1 R228
G1 X72.616 Y126.112 E.03685
M204 P1000
G1 X72.993 Y126.452 F9000
M204 P800
