; generated by PrusaSlicer 2.5.0+win64 on 2023-01-03 at 20:51:19 UTC

; 

; external perimeters extrusion width = 0.45mm
; perimeters extrusion width = 0.45mm
; infill extrusion width = 0.45mm
; solid infill extrusion width = 0.45mm
; top infill extrusion width = 0.40mm
; first layer extrusion width = 0.42mm

M73 P0 R47
M73 Q0 S47
M201 X1000 Y1000 Z200 E5000 ; sets maximum accelerations, mm/sec^2
M203 X200 Y200 Z12 E120 ; sets maximum feedrates, mm / sec
M204 P1250 R1250 T1250 ; sets acceleration (P, T) and retract acceleration (R), mm/sec^2
M205 X8.00 Y8.00 Z0.40 E4.50 ; sets the jerk limits, mm/sec
M205 S0 T0 ; sets the minimum extruding and travel feed rate, mm/sec
M107
;TYPE:Custom
M862.3 P "MK3S" ; printer model check
M862.1 P0.4 ; nozzle diameter check
M115 U3.10.1 ; tell printer latest fw version
G90 ; use absolute coordinates
M83 ; extruder relative mode
M104 S215 ; set extruder temp
M140 S60 ; set bed temp
M190 S60 ; wait for bed temp
M109 S215 ; wait for extruder temp
G28 W ; home all without mesh bed level
G80 ; mesh bed leveling
G1 Z0.2 F720
G1 Y-3 F1000 ; go outside print area
G92 E0
G1 X60 E9 F1000 ; intro line
G1 X100 E12.5 F1000 ; intro line
G92 E0
M221 S95

; Don't change E values below. Excessive value can damage the printer.
M907 E430 ; set extruder motor current
G21 ; set units to millimeters
G90 ; use absolute coordinates
M83 ; use relative distances for extrusion
M900 K0.05 ; Filament gcode LA 1.5
M900 K30 ; Filament gcode LA 1.0
M107
;LAYER_CHANGE
;Z:0.2
;HEIGHT:0.2
;BEFORE_LAYER_CHANGE
G92 E0.0
;0.2


G1 E-.8 F2100
G1 Z.4 F720
;AFTER_LAYER_CHANGE
;0.2
G1 X56.136 Y33.902 F10800
G1 Z.2 F720
G1 E.8 F2100
M204 S800
;TYPE:Skirt/Brim
;WIDTH:0.42
G1 F1200
G1 X57.551 Y31.974 E.07498
G1 X59.149 Y30.195 E.07498
G1 X60.913 Y28.58 E.07498
G1 X62.827 Y27.147 E.07498
G1 X64.872 Y25.907 E.07498
G1 X67.029 Y24.875 E.07498
G1 X69.276 Y24.058 E.07498
G1 X71.593 Y23.466 E.07498
G1 X73.957 Y23.104 E.07498
G1 X76.345 Y22.975 E.07498
G1 X78.734 Y23.081 E.07498
G1 X81.101 Y23.421 E.07498
G1 X83.423 Y23.991 E.07498
G1 X85.678 Y24.785 E.07498
G1 X87.845 Y25.797 E.07498
G1 X89.902 Y27.017 E.07498
G1 X91.829 Y28.432 E.07498
G1 X93.609 Y30.03 E.07498
G1 X95.223 Y31.794 E.07498
G1 X96.657 Y33.708 E.07498
G1 X97.896 Y35.753 E.07498
G1 X98.929 Y37.909 E.07498
G1 X99.745 Y40.157 E.07498
G1 X100.337 Y42.474 E.07498
G1 X100.699 Y44.838 E.07498
G1 X100.828 Y47.225 E.07498
G1 X100.722 Y49.614 E.07498
G1 X100.383 Y51.981 E.07498
G1 X99.813 Y54.304 E.07498
G1 X99.018 Y56.559 E.07498
G1 X98.006 Y58.726 E.07498
G1 X96.786 Y60.782 E.07498
G1 X95.371 Y62.71 E.07498
G1 X93.774 Y64.489 E.07498
G1 X92.01 Y66.104 E.07498
G1 X90.096 Y67.537 E.07498
G1 X88.051 Y68.777 E.07498
G1 X85.894 Y69.809 E.07498
G1 X83.646 Y70.626 E.07498
G1 X81.329 Y71.218 E.07498
G1 X78.966 Y71.58 E.07498
G1 X76.578 Y71.709 E.07498
G1 X74.189 Y71.603 E.07498
G1 X71.822 Y71.263 E.07498
G1 X69.5 Y70.693 E.07498
G1 X67.244 Y69.899 E.07498
G1 X65.078 Y68.887 E.07498
G1 X63.021 Y67.667 E.07498
G1 X61.093 Y66.252 E.07498
G1 X59.314 Y64.654 E.07498
G1 X57.699 Y62.89 E.07498
G1 X56.266 Y60.976 E.07498
G1 X55.027 Y58.931 E.07498
G1 X53.994 Y56.775 E.07498
G1 X53.178 Y54.527 E.07498
G1 X52.585 Y52.21 E.07498
G1 X52.223 Y49.846 E.07498
G1 X52.094 Y47.459 E.07498
G1 X52.2 Y45.07 E.07498
G1 X52.54 Y42.703 E.07498
G1 X53.11 Y40.38 E.07498
G1 X53.905 Y38.125 E.07498
G1 X54.917 Y35.958 E.07498
G1 X56.106 Y33.953 E.0731
M204 S1000
; printing object 360scraper_v2.stl id:0 copy 0
;WIPE_START
G1 F8640
G1 X57.551 Y31.974 E-.56594
G1 X58.113 Y31.349 E-.19406
;WIPE_END
G1 E-.04 F2100
G1 Z.6 F720
G1 X58.83 Y35.561 F10800
G1 Z.2 F720
G1 E.8 F2100
M204 S800
;TYPE:Perimeter
;WIDTH:0.419999
G1 F1200
G1 X60.07 Y33.89 E.06524
G1 X61.467 Y32.348 E.06525
G1 X63.009 Y30.951 E.06525
G1 X64.681 Y29.711 E.06524
G1 X66.466 Y28.641 E.06525
G1 X68.347 Y27.752 E.06524
G1 X70.306 Y27.051 E.06525
G1 X72.324 Y26.545 E.06524
G1 X74.383 Y26.24 E.06525
G1 X76.461 Y26.137 E.06525
G1 X78.54 Y26.24 E.06525
G1 X80.598 Y26.545 E.06525
G1 X82.617 Y27.051 E.06524
G1 X84.576 Y27.752 E.06525
G1 X86.457 Y28.641 E.06524
G1 X88.242 Y29.711 E.06525
G1 X89.913 Y30.951 E.06524
G1 X91.455 Y32.348 E.06525
G1 X92.853 Y33.89 E.06525
G1 X94.092 Y35.561 E.06525
G1 X95.162 Y37.346 E.06525
G1 X96.052 Y39.227 E.06525
G1 X96.753 Y41.187 E.06525
G1 X97.258 Y43.205 E.06524
G1 X97.5 Y44.837 E.05171
G1 X97.574 Y45.465 E.01985
G1 X97.666 Y47.342 E.05891
G1 X97.564 Y49.42 E.06524
G1 X97.258 Y51.479 E.06525
G1 X96.753 Y53.497 E.06524
G1 X96.052 Y55.457 E.06525
G1 X95.162 Y57.338 E.06524
G1 X94.092 Y59.123 E.06525
G1 X92.853 Y60.794 E.06524
G1 X91.455 Y62.336 E.06525
G1 X89.913 Y63.733 E.06525
G1 X88.242 Y64.973 E.06525
G1 X86.457 Y66.043 E.06525
G1 X84.576 Y66.932 E.06524
G1 X82.617 Y67.634 E.06525
G1 X80.598 Y68.139 E.06524
G1 X78.54 Y68.444 E.06525
G1 X76.461 Y68.547 E.06525
G1 X74.383 Y68.444 E.06525
G1 X72.324 Y68.139 E.06525
G1 X70.306 Y67.634 E.06524
G1 X68.347 Y66.932 E.06525
G1 X66.466 Y66.043 E.06524
G1 X64.681 Y64.973 E.06525
G1 X63.009 Y63.733 E.06525
G1 X61.467 Y62.336 E.06525
G1 X60.07 Y60.794 E.06525
G1 X58.83 Y59.123 E.06524
G1 X57.761 Y57.338 E.06525
G1 X56.871 Y55.457 E.06524
G1 X56.17 Y53.497 E.06525
G1 X55.664 Y51.479 E.06524
G1 X55.359 Y49.42 E.06525
G1 X55.257 Y47.342 E.06525
G1 X55.359 Y45.264 E.06524
G1 X55.664 Y43.205 E.06525
G1 X56.17 Y41.187 E.06524
G1 X56.871 Y39.227 E.06525
G1 X57.761 Y37.346 E.06524
M73 P0 R46
G1 X58.799 Y35.613 E.06337
M204 S1000
G1 X58.516 Y35.352 F10800
M204 S800
;TYPE:External perimeter
G1 F1200
G1 X59.778 Y33.65 E.06641
G1 X61.2 Y32.081 E.06641
G1 X62.77 Y30.659 E.06641
G1 X64.471 Y29.397 E.06641
G1 X66.288 Y28.308 E.06641
G1 X68.202 Y27.403 E.06641
G1 X70.196 Y26.689 E.06641
G1 X72.251 Y26.175 E.06641
G1 X74.346 Y25.864 E.06641
G1 X76.461 Y25.76 E.06641
G1 X78.577 Y25.864 E.06641
G1 X80.672 Y26.175 E.06641
G1 X82.726 Y26.689 E.06641
G1 X84.72 Y27.403 E.06641
G1 X86.635 Y28.308 E.06641
G1 X88.452 Y29.397 E.06641
G1 X90.153 Y30.659 E.06641
G1 X91.722 Y32.081 E.06641
G1 X93.144 Y33.65 E.06641
G1 X94.406 Y35.352 E.06641
G1 X95.495 Y37.168 E.06641
G1 X96.401 Y39.083 E.06641
G1 X97.114 Y41.077 E.06641
G1 X97.629 Y43.132 E.06641
G1 X97.873 Y44.781 E.05229
G1 X97.95 Y45.447 E.02101
G1 X98.043 Y47.342 E.05949
G1 X97.939 Y49.457 E.06641
G1 X97.629 Y51.552 E.06641
G1 X97.114 Y53.607 E.06641
G1 X96.401 Y55.601 E.06641
G1 X95.495 Y57.516 E.06641
G1 X94.406 Y59.332 E.06641
G1 X93.144 Y61.034 E.06641
G1 X91.722 Y62.603 E.06641
G1 X90.153 Y64.025 E.06641
G1 X88.452 Y65.287 E.06641
G1 X86.635 Y66.376 E.06641
G1 X84.72 Y67.281 E.06641
G1 X82.726 Y67.995 E.06641
G1 X80.672 Y68.509 E.06641
G1 X78.577 Y68.82 E.06641
G1 X76.461 Y68.924 E.06641
G1 X74.346 Y68.82 E.06641
G1 X72.251 Y68.509 E.06641
G1 X70.196 Y67.995 E.06641
G1 X68.202 Y67.281 E.06641
G1 X66.288 Y66.376 E.06641
G1 X64.471 Y65.287 E.06641
G1 X62.77 Y64.025 E.06641
G1 X61.2 Y62.603 E.06641
G1 X59.778 Y61.034 E.06641
G1 X58.516 Y59.332 E.06641
G1 X57.428 Y57.516 E.06641
G1 X56.522 Y55.601 E.06641
G1 X55.808 Y53.607 E.06641
G1 X55.294 Y51.552 E.06641
G1 X54.983 Y49.457 E.06641
G1 X54.879 Y47.342 E.06641
G1 X54.983 Y45.227 E.06641
G1 X55.294 Y43.132 E.06641
G1 X55.808 Y41.077 E.06641
M73 Q0 S46
G1 X56.522 Y39.083 E.06641
G1 X57.428 Y37.168 E.06641
G1 X58.486 Y35.403 E.06453
M204 S1000
G1 X58.916 Y35.378 F10800
;WIPE_START
M73 P1 R46
M73 Q1 S46
G1 F8640
G1 X59.778 Y33.65 E-.50283
G1 X60.526 Y32.825 E-.25717
;WIPE_END
G1 E-.04 F2100
G1 Z.6 F720
G1 X65.679 Y40.126 F10800
G1 Z.2 F720
G1 E.8 F2100
M204 S800
;TYPE:Perimeter
G1 F1200
G1 X66.415 Y39.133 E.03875
G1 X67.268 Y38.188 E.03992
G1 X68.209 Y37.331 E.03992
G1 X69.23 Y36.57 E.03992
G1 X70.321 Y35.913 E.03992
G1 X71.471 Y35.367 E.03992
G1 X72.669 Y34.935 E.03992
G1 X73.903 Y34.623 E.03992
G1 X75.162 Y34.434 E.03992
G1 X76.434 Y34.368 E.03992
G1 X77.705 Y34.428 E.03992
G1 X78.965 Y34.612 E.03992
G1 X80.201 Y34.919 E.03992
G1 X81.4 Y35.345 E.03992
G1 X82.553 Y35.887 E.03992
G1 X83.646 Y36.539 E.03992
G1 X84.67 Y37.296 E.03992
G1 X85.615 Y38.149 E.03992
G1 X86.472 Y39.09 E.03992
G1 X87.233 Y40.111 E.03992
G1 X87.89 Y41.202 E.03992
G1 X88.437 Y42.352 E.03992
G1 X88.868 Y43.549 E.03992
G1 X89.18 Y44.784 E.03992
G1 X89.37 Y46.043 E.03992
G1 X89.435 Y47.314 E.03992
G1 X89.375 Y48.586 E.03992
G1 X89.191 Y49.846 E.03992
G1 X88.884 Y51.082 E.03992
G1 X88.458 Y52.281 E.03992
G1 X87.916 Y53.433 E.03992
G1 X87.264 Y54.527 E.03992
G1 X86.508 Y55.551 E.03992
G1 X85.655 Y56.496 E.03992
G1 X84.713 Y57.353 E.03992
G1 X83.692 Y58.114 E.03992
G1 X82.602 Y58.771 E.03992
G1 X81.452 Y59.318 E.03992
G1 X80.254 Y59.749 E.03992
G1 X79.02 Y60.061 E.03992
G1 X77.761 Y60.251 E.03992
G1 X76.489 Y60.316 E.03992
G1 X75.217 Y60.256 E.03992
G1 X73.957 Y60.072 E.03992
G1 X72.722 Y59.765 E.03992
G1 X71.522 Y59.339 E.03992
G1 X70.37 Y58.797 E.03992
G1 X69.277 Y58.145 E.03992
G1 X68.252 Y57.388 E.03992
G1 X67.307 Y56.535 E.03992
G1 X66.45 Y55.594 E.03992
G1 X65.689 Y54.573 E.03992
G1 X65.033 Y53.482 E.03992
G1 X64.486 Y52.332 E.03992
G1 X64.054 Y51.135 E.03992
G1 X63.742 Y49.9 E.03992
G1 X63.553 Y48.641 E.03992
G1 X63.488 Y47.37 E.03992
G1 X63.547 Y46.098 E.03992
G1 X63.731 Y44.838 E.03992
G1 X64.038 Y43.603 E.03992
G1 X64.465 Y42.403 E.03992
G1 X65.006 Y41.251 E.03992
G1 X65.647 Y40.177 E.03921
M204 S1000
G1 X65.992 Y40.336 F10800
M204 S800
;TYPE:External perimeter
G1 F1200
G1 X66.729 Y39.343 E.03876
G1 X67.56 Y38.428 E.03876
G1 X68.477 Y37.598 E.03876
G1 X69.47 Y36.863 E.03876
G1 X70.531 Y36.228 E.03876
G1 X71.649 Y35.7 E.03876
G1 X72.813 Y35.285 E.03876
G1 X74.013 Y34.985 E.03876
G1 X75.217 Y34.807 E.03818
G1 X76.452 Y34.745 E.03876
G1 X77.687 Y34.805 E.03876
G1 X78.91 Y34.985 E.03876
G1 X80.109 Y35.285 E.03876
G1 X81.273 Y35.7 E.03876
G1 X82.391 Y36.228 E.03876
G1 X83.452 Y36.863 E.03876
G1 X84.446 Y37.598 E.03876
G1 X85.362 Y38.428 E.03876
G1 X86.193 Y39.343 E.03876
G1 X86.93 Y40.336 E.03876
G1 X87.567 Y41.396 E.03876
G1 X88.096 Y42.513 E.03876
G1 X88.513 Y43.676 E.03876
G1 X88.814 Y44.875 E.03876
G1 X88.997 Y46.098 E.03876
G1 X89.058 Y47.333 E.03876
G1 X88.999 Y48.568 E.03876
G1 X88.818 Y49.791 E.03876
G1 X88.519 Y50.99 E.03876
G1 X88.103 Y52.154 E.03876
G1 X87.575 Y53.272 E.03876
G1 X86.94 Y54.333 E.03876
G1 X86.205 Y55.326 E.03876
G1 X85.375 Y56.243 E.03876
G1 X84.46 Y57.074 E.03876
G1 X83.468 Y57.811 E.03876
G1 X82.408 Y58.447 E.03876
G1 X81.291 Y58.977 E.03876
G1 X80.127 Y59.394 E.03876
G1 X78.928 Y59.695 E.03876
G1 X77.705 Y59.878 E.03876
G1 X76.471 Y59.939 E.03876
G1 X75.236 Y59.879 E.03876
G1 X74.013 Y59.699 E.03876
G1 X72.813 Y59.399 E.03876
G1 X71.649 Y58.984 E.03876
G1 X70.531 Y58.456 E.03876
G1 X69.47 Y57.821 E.03876
G1 X68.477 Y57.086 E.03876
G1 X67.56 Y56.256 E.03876
G1 X66.729 Y55.341 E.03876
G1 X65.992 Y54.348 E.03876
G1 X65.356 Y53.288 E.03876
G1 X64.827 Y52.171 E.03876
G1 X64.409 Y51.008 E.03876
G1 X64.108 Y49.809 E.03876
G1 X63.926 Y48.586 E.03876
G1 X63.864 Y47.351 E.03876
G1 X63.924 Y46.116 E.03876
G1 X64.104 Y44.894 E.03876
G1 X64.404 Y43.694 E.03876
G1 X64.82 Y42.53 E.03876
G1 X65.347 Y41.412 E.03876
G1 X65.961 Y40.387 E.03746
M204 S1000
G1 X65.816 Y39.977 F10800
;WIPE_START
G1 F8640
G1 X66.729 Y39.343 E-.29925
G1 X67.56 Y38.428 E-.28545
G1 X68.123 Y37.919 E-.1753
;WIPE_END
G1 E-.04 F2100
G1 Z.6 F720
G1 X93.048 Y34.344 F10800
G1 Z.2 F720
G1 E.8 F2100
M204 S800
;TYPE:Solid infill
;WIDTH:0.423283
G1 F1200
G1 X91.233 Y32.528 E.08121
G1 X89.734 Y31.17 E.06399
G1 X88.195 Y30.028 E.06059
G1 X93.775 Y35.608 E.24958
G1 X94.619 Y36.99 E.05121
G1 X86.813 Y29.184 E.34914
G1 X86.324 Y28.891 E.01805
G1 X85.675 Y28.584 E.02269
G1 X95.219 Y38.128 E.42688
G1 X95.702 Y39.149 E.03571
G1 X84.654 Y28.102 E.49412
G1 X84.468 Y28.013 E.00654
G1 X83.783 Y27.768 E.02299
G1 X96.035 Y40.02 E.54799
G1 X96.335 Y40.858 E.02814
G1 X82.946 Y27.469 E.59886
G1 X82.534 Y27.321 E.01381
G1 X82.169 Y27.23 E.01191
G1 X96.573 Y41.634 E.64427
G1 X96.753 Y42.352 E.0234
G1 X81.451 Y27.05 E.68441
G1 X80.734 Y26.87 E.0234
G1 X96.933 Y43.07 E.72455
G1 X96.981 Y43.26 E.00622
G1 X97.049 Y43.724 E.01482
G1 X80.079 Y26.754 E.75904
G1 X79.448 Y26.66 E.02019
G1 X97.143 Y44.356 E.79148
G1 X97.237 Y44.987 E.02019
G1 X78.816 Y26.566 E.82392
G1 X78.512 Y26.521 E.00972
G1 X78.219 Y26.507 E.00929
G1 X97.296 Y45.585 E.85331
G1 X97.324 Y46.15 E.01791
G1 X77.653 Y26.479 E.87985
G1 X77.087 Y26.451 E.01791
G1 X97.352 Y46.716 E.9064
G1 X97.38 Y47.282 E.01791
G1 X76.521 Y26.424 E.93294
G1 X76.003 Y26.443 E.01641
G1 X97.36 Y47.8 E.95525
G1 X97.335 Y48.313 E.01624
M73 P2 R46
M73 Q2 S46
G1 X75.49 Y26.468 E.97706
G1 X74.978 Y26.493 E.01624
G1 X97.31 Y48.826 E.99887
G1 X97.285 Y49.338 E.01624
G1 X74.465 Y26.519 E1.02067
G1 X73.992 Y26.583 E.0151
G1 X83.579 Y36.17 E.4288
G1 X83.827 Y36.319 E.00914
G1 X84.872 Y37.094 E.04115
G1 X85.836 Y37.968 E.04115
G1 X86.709 Y38.932 E.04115
G1 X87.484 Y39.977 E.04115
G1 X87.633 Y40.225 E.00914
G1 X97.22 Y49.811 E.4288
G1 X97.15 Y50.28 E.01498
G1 X88.324 Y41.453 E.39479
G1 X88.709 Y42.269 E.02852
G1 X88.77 Y42.437 E.00566
G1 X97.081 Y50.748 E.37174
G1 X97.011 Y51.217 E.01498
G1 X89.069 Y43.275 E.35522
G1 X89.148 Y43.494 E.00735
G1 X89.281 Y44.024 E.01729
G1 X96.92 Y51.664 E.34172
G1 X96.813 Y52.094 E.01403
G1 X89.46 Y44.742 E.32886
G1 X89.556 Y45.375 E.02026
G1 X96.705 Y52.524 E.31977
G1 X96.597 Y52.954 E.01403
G1 X89.649 Y46.006 E.31076
G1 X89.681 Y46.576 E.01804
G1 X96.489 Y53.384 E.30453
G1 X96.482 Y53.415 E.001
G1 X96.35 Y53.783 E.01236
G1 X89.709 Y47.142 E.29706
G1 X89.702 Y47.673 E.01681
G1 X96.208 Y54.179 E.291
G1 X96.067 Y54.575 E.01331
G1 X89.677 Y48.186 E.28579
G1 X89.647 Y48.694 E.01609
G1 X95.925 Y54.972 E.2808
G1 X95.782 Y55.366 E.01328
G1 X89.577 Y49.162 E.2775
G1 X89.508 Y49.63 E.01498
G1 X95.609 Y55.731 E.27288
G1 X95.436 Y56.097 E.01278
G1 X89.425 Y50.085 E.26889
G1 X89.317 Y50.515 E.01403
G1 X95.263 Y56.462 E.26598
G1 X95.091 Y56.827 E.01278
G1 X89.209 Y50.945 E.26307
G1 X89.087 Y51.361 E.0137
G1 X94.918 Y57.192 E.26082
G1 X94.717 Y57.529 E.01241
G1 X88.945 Y51.757 E.25819
G1 X88.803 Y52.153 E.01331
G1 X94.516 Y57.866 E.25551
G1 X94.314 Y58.202 E.0124
G1 X88.651 Y52.539 E.2533
G1 X88.478 Y52.904 E.01278
G1 X94.113 Y58.538 E.25201
G1 X93.911 Y58.875 E.0124
G1 X88.306 Y53.269 E.25072
G1 X88.129 Y53.631 E.01273
G1 X93.689 Y59.191 E.24869
G1 X93.46 Y59.5 E.01216
G1 X87.928 Y53.967 E.24746
G1 X87.726 Y54.304 E.0124
G1 X93.231 Y59.809 E.24623
G1 X93.002 Y60.118 E.01216
G1 X87.525 Y54.64 E.245
G1 X87.301 Y54.954 E.0122
G1 X92.773 Y60.426 E.24475
G1 X92.534 Y60.725 E.0121
G1 X87.072 Y55.263 E.24429
G1 X86.843 Y55.572 E.01216
G1 X92.278 Y61.007 E.24309
G1 X92.022 Y61.289 E.01204
G1 X86.603 Y55.87 E.2424
G1 X86.347 Y56.152 E.01204
G1 X91.766 Y61.571 E.2424
G1 X91.511 Y61.854 E.01204
G1 X86.091 Y56.434 E.2424
G1 X85.836 Y56.716 E.01204
G1 X91.255 Y62.136 E.2424
G1 X90.973 Y62.391 E.01204
G1 X85.553 Y56.972 E.2424
G1 X85.271 Y57.228 E.01204
G1 X90.691 Y62.647 E.2424
G1 X90.408 Y62.903 E.01204
G1 X84.989 Y57.484 E.2424
G1 X84.691 Y57.724 E.0121
G1 X90.126 Y63.159 E.24309
G1 X89.844 Y63.414 E.01204
M73 P2 R45
G1 X84.382 Y57.953 E.24429
G1 X84.074 Y58.182 E.01216
G1 X89.546 Y63.654 E.24475
G1 X89.237 Y63.883 E.01216
G1 X83.759 Y58.405 E.245
G1 X83.423 Y58.607 E.0124
G1 X88.928 Y64.112 E.24623
G1 X88.619 Y64.341 E.01216
G1 X83.087 Y58.809 E.24746
G1 X82.75 Y59.01 E.0124
G1 X88.31 Y64.57 E.24869
G1 X87.994 Y64.792 E.01221
G1 X82.388 Y59.186 E.25072
G1 X82.023 Y59.359 E.01278
G1 X87.658 Y64.993 E.25201
G1 X87.321 Y65.195 E.0124
G1 X81.658 Y59.532 E.2533
G1 X81.272 Y59.684 E.01311
M73 P3 R45
G1 X86.985 Y65.397 E.25551
G1 X86.649 Y65.598 E.0124
M73 Q3 S46
G1 X80.876 Y59.826 E.25819
G1 X80.48 Y59.967 E.01331
G1 X86.311 Y65.799 E.26082
G1 X85.946 Y65.972 E.01278
G1 X80.065 Y60.09 E.26307
G1 X79.634 Y60.198 E.01403
G1 X85.581 Y66.144 E.26598
G1 X85.216 Y66.317 E.01278
G1 X79.204 Y60.305 E.26889
G1 X78.75 Y60.389 E.01461
G1 X84.851 Y66.49 E.27288
M73 Q3 S45
G1 X84.485 Y66.662 E.01278
G1 X78.281 Y60.458 E.2775
G1 X77.813 Y60.528 E.01498
G1 X84.091 Y66.806 E.2808
G1 X83.695 Y66.947 E.01331
G1 X77.305 Y60.558 E.28579
