; generated by PrusaSlicer 2.4.1+win64 on 2022-06-11 at 15:10:54 UTC

; 

; external perimeters extrusion width = 0.60mm
; perimeters extrusion width = 0.50mm
; infill extrusion width = 0.50mm
; solid infill extrusion width = 0.50mm
; top infill extrusion width = 0.45mm
; first layer extrusion width = 0.42mm

M73 P0 R223
M73 Q0 S226
M107
;TYPE:Custom
M862.3 P "MK3S" ; printer model check
M862.1 P0.4 ; nozzle diameter check
M115 U3.10.0 ; tell printer latest fw version
G90 ; use absolute coordinates
M83 ; extruder relative mode
M104 S240 ; set extruder temp
M140 S85 ; set bed temp
M190 S85 ; wait for bed temp
M109 S240 ; wait for extruder temp
G28 W ; home all without mesh bed level
G80 ; mesh bed leveling
G1 Y-3.0 F1000.0 ; go outside print area
G92 E0.0
G1 X60.0 E9.0 F1000.0 ; intro line
G1 X100.0 E12.5 F1000.0 ; intro line
G92 E0.0
M221 S95

; Don't change E values below. Excessive value can damage the printer.

M907 E538 ; set extruder motor current
G21 ; set units to millimeters
G90 ; use absolute coordinates
M83 ; use relative distances for extrusion
M900 K0.08 ; Filament gcode LA 1.5
M900 K45 ; Filament gcode LA 1.0
M107
;LAYER_CHANGE
;Z:0.2
;HEIGHT:0.2
;BEFORE_LAYER_CHANGE
G92 E0.0
;0.2


M73 Q0 S225
G1 E-1 F2100
M73 P0 R222
G1 Z.2 F10800
;AFTER_LAYER_CHANGE
;0.2
G1 Z.4
G1 X4.495 Y75.123
G1 Z.2
G1 E1 F2100
M204 S1000
;TYPE:Skirt/Brim
;WIDTH:0.42
G1 F1200
G1 X245.707 Y75.132 E7.56302
G1 X246.463 Y75.234 E.0239
G1 X247.189 Y75.466 E.0239
G1 X247.863 Y75.821 E.0239
G1 X248.713 Y76.534 E.03477
G1 X249.179 Y77.137 E.0239
G1 X249.534 Y77.811 E.0239
G1 X249.766 Y78.537 E.0239
G1 X249.877 Y79.494 E.03021
G1 X249.868 Y130.707 E1.60574
G1 X249.766 Y131.463 E.02391
G1 X249.534 Y132.189 E.0239
G1 X249.179 Y132.863 E.0239
G1 X248.713 Y133.466 E.0239
G1 X248.149 Y133.979 E.0239
G1 X247.505 Y134.386 E.0239
G1 X246.463 Y134.766 E.03477
G1 X245.5 Y134.877 E.03038
G1 X4.5 Y134.877 E7.55639
G1 X3.201 Y134.675 E.04122
G1 X2.495 Y134.386 E.0239
G1 X1.851 Y133.979 E.0239
G1 X1.287 Y133.466 E.0239
G1 X.821 Y132.863 E.0239
G1 X.466 Y132.189 E.0239
G1 X.234 Y131.463 E.0239
G1 X.123 Y130.502 E.03031
G1 X.132 Y79.293 E1.60564
G1 X.234 Y78.537 E.0239
G1 X.466 Y77.811 E.0239
G1 X.821 Y77.137 E.0239
G1 X1.287 Y76.534 E.0239
G1 X1.851 Y76.021 E.0239
G1 X2.495 Y75.614 E.0239
G1 X3.537 Y75.234 E.03477
G1 X4.436 Y75.13 E.02836
; printing object wrench-holder id:0 copy 0
;WIPE_START
G1 F8640
G1 X8.55 Y75.13 E-.95
;WIPE_END
G1 E-.05 F2100
G1 Z.4 F10800
G1 X81.713 Y81.713
G1 Z.2
G1 E1 F2100
;TYPE:Perimeter
G1 F1200
G1 X168.287 Y81.713 E2.71447
G1 X168.287 Y128.287 E1.4603
G1 X81.713 Y128.287 E2.71447
G1 X81.713 Y81.773 E1.45842
G1 X82.09 Y82.09 F10800
;TYPE:External perimeter
G1 F1200
G1 X167.91 Y82.09 E2.69083
G1 X167.91 Y127.91 E1.43665
G1 X82.09 Y127.91 E2.69083
G1 X82.09 Y82.15 E1.43477
M73 Q0 S224
G1 X81.949 Y81.716 F10800
;WIPE_START
G1 F8640
G1 X86.204 Y82.147 E-.95
;WIPE_END
G1 E-.05 F2100
G1 Z.4 F10800
G1 X78.287 Y81.713
G1 Z.2
G1 E1 F2100
;TYPE:Perimeter
G1 F1200
G1 X78.287 Y128.287 E1.4603
G1 X6.713 Y128.287 E2.24416
M73 P0 R221
G1 X6.713 Y81.713 E1.4603
G1 X78.227 Y81.713 E2.24228
G1 X77.91 Y82.09 F10800
;TYPE:External perimeter
G1 F1200
G1 X77.91 Y127.91 E1.43665
G1 X7.09 Y127.91 E2.22051
G1 X7.09 Y82.09 E1.43665
G1 X77.85 Y82.09 E2.21863
G1 X78.303 Y82.014 F10800
;WIPE_START
G1 F8640
G1 X77.855 Y86.204 E-.95
;WIPE_END
G1 E-.05 F2100
G1 Z.4 F10800
G1 X171.713 Y81.713
G1 Z.2
G1 E1 F2100
;TYPE:Perimeter
G1 F1200
G1 X243.287 Y81.713 E2.24416
G1 X243.287 Y128.287 E1.4603
G1 X171.713 Y128.287 E2.24416
G1 X171.713 Y81.773 E1.45842
G1 X172.09 Y82.09 F10800
;TYPE:External perimeter
G1 F1200
G1 X242.91 Y82.09 E2.22051
G1 X242.91 Y127.91 E1.43665
G1 X172.09 Y127.91 E2.22051
G1 X172.09 Y82.15 E1.43477
G1 X171.96 Y81.712 F10800
;WIPE_START
G1 F8640
G1 X176.204 Y82.147 E-.95
;WIPE_END
G1 E-.05 F2100
G1 Z.4 F10800
G1 X172.09 Y78.287
G1 Z.2
G1 E1 F2100
;TYPE:Perimeter
G1 F1200
G1 X245.466 Y78.287 E2.30064
G1 X245.71 Y78.308 E.00769
G1 X245.914 Y78.363 E.00661
G1 X246.105 Y78.452 E.00661
G1 X246.278 Y78.573 E.00661
G1 X246.427 Y78.722 E.00661
G1 X246.548 Y78.895 E.00661
G1 X246.637 Y79.086 E.00661
G1 X246.692 Y79.29 E.00661
G1 X246.713 Y79.534 E.00769
G1 X246.713 Y130.466 E1.59691
G1 X246.692 Y130.71 E.00769
G1 X246.637 Y130.914 E.00661
G1 X246.548 Y131.105 E.00661
G1 X246.427 Y131.278 E.00661
G1 X246.278 Y131.427 E.00661
G1 X246.105 Y131.548 E.00661
G1 X245.914 Y131.637 E.00661
G1 X245.71 Y131.692 E.00661
G1 X245.466 Y131.713 E.00769
G1 X4.534 Y131.713 E7.55423
G1 X4.29 Y131.692 E.00769
M73 P0 R220
M73 Q0 S223
G1 X4.086 Y131.637 E.00661
G1 X3.895 Y131.548 E.00661
G1 X3.722 Y131.427 E.00661
G1 X3.573 Y131.278 E.00661
G1 X3.452 Y131.105 E.00661
G1 X3.363 Y130.914 E.00661
G1 X3.308 Y130.71 E.00661
G1 X3.287 Y130.466 E.00769
G1 X3.287 Y79.534 E1.59691
G1 X3.308 Y79.29 E.00769
M73 P1 R220
M73 Q1 S223
G1 X3.363 Y79.086 E.00661
G1 X3.452 Y78.895 E.00661
G1 X3.573 Y78.722 E.00661
G1 X3.722 Y78.573 E.00661
G1 X3.895 Y78.452 E.00661
G1 X4.086 Y78.363 E.00661
G1 X4.29 Y78.308 E.00661
G1 X4.534 Y78.287 E.00769
G1 X172.03 Y78.287 E5.25171
G1 X172.09 Y77.91 F10800
;TYPE:External perimeter
G1 F1200
G1 X245.482 Y77.91 E2.30116
G1 X245.776 Y77.936 E.00924
G1 X246.043 Y78.007 E.00868
G1 X246.294 Y78.124 E.00868
G1 X246.521 Y78.283 E.00868
G1 X246.717 Y78.479 E.00868
G1 X246.876 Y78.706 E.00868
G1 X246.993 Y78.957 E.00868
G1 X247.064 Y79.224 E.00868
G1 X247.09 Y79.518 E.00924
G1 X247.09 Y130.482 E1.59795
G1 X247.064 Y130.776 E.00924
G1 X246.993 Y131.043 E.00868
G1 X246.876 Y131.294 E.00868
G1 X246.717 Y131.521 E.00868
G1 X246.521 Y131.717 E.00868
G1 X246.294 Y131.876 E.00868
G1 X246.043 Y131.993 E.00868
G1 X245.776 Y132.064 E.00868
G1 X245.482 Y132.09 E.00924
G1 X4.518 Y132.09 E7.55526
G1 X4.224 Y132.064 E.00925
G1 X3.957 Y131.993 E.00868
G1 X3.706 Y131.876 E.00868
G1 X3.479 Y131.717 E.00868
G1 X3.283 Y131.521 E.00868
G1 X3.124 Y131.294 E.00868
G1 X3.007 Y131.043 E.00868
G1 X2.936 Y130.776 E.00868
G1 X2.91 Y130.482 E.00924
G1 X2.91 Y79.518 E1.59795
G1 X2.936 Y79.224 E.00924
G1 X3.007 Y78.957 E.00868
G1 X3.124 Y78.706 E.00868
G1 X3.283 Y78.479 E.00868
G1 X3.479 Y78.283 E.00868
G1 X3.706 Y78.124 E.00868
G1 X3.957 Y78.007 E.00868
G1 X4.224 Y77.936 E.00868
G1 X4.518 Y77.91 E.00925
G1 X172.03 Y77.91 E5.25222
G1 X172.29 Y78.256 F10800
;WIPE_START
G1 F8640
G1 X176.144 Y77.91 E-.95
;WIPE_END
G1 E-.05 F2100
G1 Z.4 F10800
G1 X245.737 Y78.433
G1 Z.2
G1 E1 F2100
;TYPE:Solid infill
;WIDTH:0.420311
G1 F1200
G1 X246.21 Y78.906 E.02099
G1 X246.302 Y79.037 E.00503
G1 X246.37 Y79.183 E.00507
G1 X246.412 Y79.339 E.00507
G1 X246.43 Y79.659 E.01007
G1 X245.341 Y78.57 E.04836
G1 X244.807 Y78.57 E.01675
G1 X246.43 Y80.193 E.07204
G1 X246.43 Y80.727 E.01675
G1 X244.273 Y78.57 E.09573
G1 X243.739 Y78.57 E.01675
G1 X246.43 Y81.261 E.11941
G1 X246.43 Y81.794 E.01675
G1 X243.206 Y78.57 E.1431
G1 X242.672 Y78.57 E.01675
G1 X246.43 Y82.328 E.16678
G1 X246.43 Y82.862 E.01675
G1 X242.138 Y78.57 E.19047
G1 X241.605 Y78.57 E.01675
G1 X246.43 Y83.395 E.21415
G1 X246.43 Y83.929 E.01675
G1 X241.071 Y78.57 E.23784
G1 X240.537 Y78.57 E.01675
G1 X246.43 Y84.463 E.26152
G1 X246.43 Y84.997 E.01675
G1 X243.57 Y82.136 E.12693
G1 X243.57 Y82.67 E.01675
G1 X246.43 Y85.53 E.12693
G1 X246.43 Y86.064 E.01675
G1 X243.57 Y83.204 E.12693
G1 X243.57 Y83.738 E.01675
G1 X246.43 Y86.598 E.12693
G1 X246.43 Y87.131 E.01675
G1 X243.57 Y84.271 E.12693
G1 X243.57 Y84.805 E.01675
G1 X246.43 Y87.665 E.12693
G1 X246.43 Y88.199 E.01675
G1 X243.57 Y85.339 E.12693
G1 X243.57 Y85.872 E.01675
G1 X246.43 Y88.733 E.12693
G1 X246.43 Y89.266 E.01675
G1 X243.57 Y86.406 E.12693
G1 X243.57 Y86.94 E.01675
G1 X246.43 Y89.8 E.12693
G1 X246.43 Y90.334 E.01675
G1 X243.57 Y87.473 E.12693
G1 X243.57 Y88.007 E.01675
G1 X246.43 Y90.867 E.12693
G1 X246.43 Y91.401 E.01675
G1 X243.57 Y88.541 E.12693
G1 X243.57 Y89.075 E.01675
G1 X246.43 Y91.935 E.12693
G1 X246.43 Y92.469 E.01675
G1 X243.57 Y89.608 E.12693
G1 X243.57 Y90.142 E.01675
M73 Q1 S222
G1 X246.43 Y93.002 E.12693
G1 X246.43 Y93.536 E.01675
G1 X243.57 Y90.676 E.12693
G1 X243.57 Y91.209 E.01675
G1 X246.43 Y94.07 E.12693
G1 X246.43 Y94.603 E.01675
G1 X243.57 Y91.743 E.12693
G1 X243.57 Y92.277 E.01675
G1 X246.43 Y95.137 E.12693
G1 X246.43 Y95.671 E.01675
G1 X243.57 Y92.811 E.12693
G1 X243.57 Y93.344 E.01675
G1 X246.43 Y96.205 E.12693
G1 X246.43 Y96.738 E.01675
G1 X243.57 Y93.878 E.12693
G1 X243.57 Y94.412 E.01675
G1 X246.43 Y97.272 E.12693
G1 X246.43 Y97.806 E.01675
G1 X243.57 Y94.945 E.12693
G1 X243.57 Y95.479 E.01675
G1 X246.43 Y98.339 E.12693
G1 X246.43 Y98.873 E.01675
G1 X243.57 Y96.013 E.12693
G1 X243.57 Y96.547 E.01675
G1 X246.43 Y99.407 E.12693
G1 X246.43 Y99.941 E.01675
G1 X243.57 Y97.08 E.12693
G1 X243.57 Y97.614 E.01675
G1 X246.43 Y100.474 E.12693
G1 X246.43 Y101.008 E.01675
G1 X243.57 Y98.148 E.12693
G1 X243.57 Y98.681 E.01675
G1 X246.43 Y101.542 E.12693
G1 X246.43 Y102.075 E.01675
G1 X243.57 Y99.215 E.12693
G1 X243.57 Y99.749 E.01675
G1 X246.43 Y102.609 E.12693
G1 X246.43 Y103.143 E.01675
G1 X243.57 Y100.283 E.12693
G1 X243.57 Y100.816 E.01675
G1 X246.43 Y103.677 E.12693
G1 X246.43 Y104.21 E.01675
M73 P1 R219
G1 X243.57 Y101.35 E.12693
G1 X243.57 Y101.884 E.01675
G1 X246.43 Y104.744 E.12693
G1 X246.43 Y105.278 E.01675
G1 X243.57 Y102.417 E.12693
G1 X243.57 Y102.951 E.01675
G1 X246.43 Y105.811 E.12693
G1 X246.43 Y106.345 E.01675
G1 X243.57 Y103.485 E.12693
G1 X243.57 Y104.019 E.01675
G1 X246.43 Y106.879 E.12693
G1 X246.43 Y107.412 E.01675
G1 X243.57 Y104.552 E.12693
G1 X243.57 Y105.086 E.01675
G1 X246.43 Y107.946 E.12693
G1 X246.43 Y108.48 E.01675
G1 X243.57 Y105.62 E.12693
G1 X243.57 Y106.153 E.01675
G1 X246.43 Y109.014 E.12693
G1 X246.43 Y109.547 E.01675
G1 X243.57 Y106.687 E.12693
G1 X243.57 Y107.221 E.01675
G1 X246.43 Y110.081 E.12693
G1 X246.43 Y110.615 E.01675
G1 X243.57 Y107.755 E.12693
G1 X243.57 Y108.288 E.01675
G1 X246.43 Y111.148 E.12693
G1 X246.43 Y111.682 E.01675
G1 X243.57 Y108.822 E.12693
G1 X243.57 Y109.356 E.01675
G1 X246.43 Y112.216 E.12693
G1 X246.43 Y112.75 E.01675
G1 X243.57 Y109.889 E.12693
G1 X243.57 Y110.423 E.01675
G1 X246.43 Y113.283 E.12693
G1 X246.43 Y113.817 E.01675
G1 X243.57 Y110.957 E.12693
G1 X243.57 Y111.49 E.01675
G1 X246.43 Y114.351 E.12693
G1 X246.43 Y114.884 E.01675
G1 X243.57 Y112.024 E.12693
G1 X243.57 Y112.558 E.01675
G1 X246.43 Y115.418 E.12693
G1 X246.43 Y115.952 E.01675
G1 X243.57 Y113.092 E.12693
G1 X243.57 Y113.625 E.01675
G1 X246.43 Y116.486 E.12693
G1 X246.43 Y117.019 E.01675
G1 X243.57 Y114.159 E.12693
G1 X243.57 Y114.693 E.01675
G1 X246.43 Y117.553 E.12693
G1 X246.43 Y118.087 E.01675
G1 X243.57 Y115.226 E.12693
G1 X243.57 Y115.76 E.01675
G1 X246.43 Y118.62 E.12693
G1 X246.43 Y119.154 E.01675
G1 X243.57 Y116.294 E.12693
G1 X243.57 Y116.828 E.01675
G1 X246.43 Y119.688 E.12693
G1 X246.43 Y120.222 E.01675
G1 X243.57 Y117.361 E.12693
G1 X243.57 Y117.895 E.01675
G1 X246.43 Y120.755 E.12693
G1 X246.43 Y121.289 E.01675
G1 X243.57 Y118.429 E.12693
G1 X243.57 Y118.962 E.01675
G1 X246.43 Y121.823 E.12693
G1 X246.43 Y122.356 E.01675
G1 X243.57 Y119.496 E.12693
G1 X243.57 Y120.03 E.01675
G1 X246.43 Y122.89 E.12693
G1 X246.43 Y123.424 E.01675
G1 X243.57 Y120.564 E.12693
G1 X243.57 Y121.097 E.01675
G1 X246.43 Y123.958 E.12693
G1 X246.43 Y124.491 E.01675
G1 X243.57 Y121.631 E.12693
G1 X243.57 Y122.165 E.01675
G1 X246.43 Y125.025 E.12693
G1 X246.43 Y125.559 E.01675
G1 X243.57 Y122.698 E.12693
G1 X243.57 Y123.232 E.01675
G1 X246.43 Y126.092 E.12693
G1 X246.43 Y126.626 E.01675
G1 X243.57 Y123.766 E.12693
G1 X243.57 Y124.3 E.01675
G1 X246.43 Y127.16 E.12693
G1 X246.43 Y127.694 E.01675
G1 X243.57 Y124.833 E.12693
G1 X243.57 Y125.367 E.01675
G1 X246.43 Y128.227 E.12693
G1 X246.43 Y128.761 E.01675
G1 X243.57 Y125.901 E.12693
G1 X243.57 Y126.434 E.01675
G1 X246.43 Y129.295 E.12693
G1 X246.43 Y129.828 E.01675
G1 X243.57 Y126.968 E.12693
G1 X243.57 Y127.502 E.01675
G1 X246.43 Y130.362 E.12693
G1 X246.412 Y130.661 E.00939
G1 X246.364 Y130.83 E.00551
G1 X243.57 Y128.036 E.124
G1 X243.57 Y128.569 E.01675
G1 X246.153 Y131.152 E.11462
G1 X246.095 Y131.209 E.00255
G1 X245.963 Y131.302 E.00507
G1 X245.831 Y131.364 E.00458
G1 X243.037 Y128.57 E.12399
G1 X242.503 Y128.57 E.01675
G1 X245.363 Y131.43 E.12693
G1 X244.83 Y131.43 E.01675
G1 X241.969 Y128.57 E.12693
G1 X241.436 Y128.57 E.01675
G1 X244.296 Y131.43 E.12693
G1 X243.762 Y131.43 E.01675
G1 X240.902 Y128.57 E.12693
G1 X240.368 Y128.57 E.01675
G1 X243.228 Y131.43 E.12693
G1 X242.695 Y131.43 E.01675
G1 X239.835 Y128.57 E.12693
G1 X239.301 Y128.57 E.01675
G1 X242.161 Y131.43 E.12693
G1 X241.627 Y131.43 E.01675
G1 X238.767 Y128.57 E.12693
G1 X238.233 Y128.57 E.01675
G1 X241.094 Y131.43 E.12693
G1 X240.56 Y131.43 E.01675
G1 X237.7 Y128.57 E.12693
G1 X237.166 Y128.57 E.01675
G1 X240.026 Y131.43 E.12693
G1 X239.492 Y131.43 E.01675
G1 X236.632 Y128.57 E.12693
G1 X236.099 Y128.57 E.01675
G1 X238.959 Y131.43 E.12693
G1 X238.425 Y131.43 E.01675
G1 X235.565 Y128.57 E.12693
G1 X235.031 Y128.57 E.01675
G1 X237.891 Y131.43 E.12693
G1 X237.358 Y131.43 E.01675
G1 X234.497 Y128.57 E.12693
G1 X233.964 Y128.57 E.01675
G1 X236.824 Y131.43 E.12693
G1 X236.29 Y131.43 E.01675
G1 X233.43 Y128.57 E.12693
G1 X232.896 Y128.57 E.01675
G1 X235.757 Y131.43 E.12693
G1 X235.223 Y131.43 E.01675
G1 X232.363 Y128.57 E.12693
G1 X231.829 Y128.57 E.01675
G1 X234.689 Y131.43 E.12693
G1 X234.155 Y131.43 E.01675
G1 X231.295 Y128.57 E.12693
G1 X230.761 Y128.57 E.01675
G1 X233.622 Y131.43 E.12693
G1 X233.088 Y131.43 E.01675
G1 X230.228 Y128.57 E.12693
G1 X229.694 Y128.57 E.01675
G1 X232.554 Y131.43 E.12693
G1 X232.021 Y131.43 E.01675
G1 X229.16 Y128.57 E.12693
G1 X228.627 Y128.57 E.01675
G1 X231.487 Y131.43 E.12693
G1 X230.953 Y131.43 E.01675
G1 X228.093 Y128.57 E.12693
G1 X227.559 Y128.57 E.01675
G1 X230.419 Y131.43 E.12693
G1 X229.886 Y131.43 E.01675
G1 X227.025 Y128.57 E.12693
G1 X226.492 Y128.57 E.01675
G1 X229.352 Y131.43 E.12693
G1 X228.818 Y131.43 E.01675
G1 X225.958 Y128.57 E.12693
G1 X225.424 Y128.57 E.01675
G1 X228.285 Y131.43 E.12693
G1 X227.751 Y131.43 E.01675
G1 X224.891 Y128.57 E.12693
G1 X224.357 Y128.57 E.01675
G1 X227.217 Y131.43 E.12693
G1 X226.683 Y131.43 E.01675
G1 X223.823 Y128.57 E.12693
G1 X223.289 Y128.57 E.01675
G1 X226.15 Y131.43 E.12693
G1 X225.616 Y131.43 E.01675
G1 X222.756 Y128.57 E.12693
G1 X222.222 Y128.57 E.01675
G1 X225.082 Y131.43 E.12693
G1 X224.549 Y131.43 E.01675
G1 X221.688 Y128.57 E.12693
G1 X221.155 Y128.57 E.01675
G1 X224.015 Y131.43 E.12693
G1 X223.481 Y131.43 E.01675
G1 X220.621 Y128.57 E.12693
G1 X220.087 Y128.57 E.01675
G1 X222.947 Y131.43 E.12693
G1 X222.414 Y131.43 E.01675
G1 X219.553 Y128.57 E.12693
G1 X219.02 Y128.57 E.01675
G1 X221.88 Y131.43 E.12693
G1 X221.346 Y131.43 E.01675
G1 X218.486 Y128.57 E.12693
G1 X217.952 Y128.57 E.01675
G1 X220.813 Y131.43 E.12693
G1 X220.279 Y131.43 E.01675
G1 X217.419 Y128.57 E.12693
G1 X216.885 Y128.57 E.01675
G1 X219.745 Y131.43 E.12693
G1 X219.211 Y131.43 E.01675
G1 X216.351 Y128.57 E.12693
G1 X215.817 Y128.57 E.01675
G1 X218.678 Y131.43 E.12693
G1 X218.144 Y131.43 E.01675
G1 X215.284 Y128.57 E.12693
G1 X214.75 Y128.57 E.01675
G1 X217.61 Y131.43 E.12693
G1 X217.077 Y131.43 E.01675
G1 X214.216 Y128.57 E.12693
G1 X213.683 Y128.57 E.01675
G1 X216.543 Y131.43 E.12693
G1 X216.009 Y131.43 E.01675
G1 X213.149 Y128.57 E.12693
G1 X212.615 Y128.57 E.01675
G1 X215.475 Y131.43 E.12693
G1 X214.942 Y131.43 E.01675
G1 X212.082 Y128.57 E.12693
G1 X211.548 Y128.57 E.01675
G1 X214.408 Y131.43 E.12693
G1 X213.874 Y131.43 E.01675
G1 X211.014 Y128.57 E.12693
G1 X210.48 Y128.57 E.01675
G1 X213.341 Y131.43 E.12693
G1 X212.807 Y131.43 E.01675
G1 X209.947 Y128.57 E.12693
G1 X209.413 Y128.57 E.01675
G1 X212.273 Y131.43 E.12693
G1 X211.739 Y131.43 E.01675
G1 X208.879 Y128.57 E.12693
G1 X208.346 Y128.57 E.01675
G1 X211.206 Y131.43 E.12693
G1 X210.672 Y131.43 E.01675
G1 X207.812 Y128.57 E.12693
G1 X207.278 Y128.57 E.01675
G1 X210.138 Y131.43 E.12693
G1 X209.605 Y131.43 E.01675
G1 X206.744 Y128.57 E.12693
G1 X206.211 Y128.57 E.01675
G1 X209.071 Y131.43 E.12693
