; generated by PrusaSlicer 2.3.1+win64 on 2021-08-02 at 15:34:00 UTC

; 

; external perimeters extrusion width = 0.45mm
; perimeters extrusion width = 0.45mm
; infill extrusion width = 0.45mm
; solid infill extrusion width = 0.45mm
; top infill extrusion width = 0.40mm
; first layer extrusion width = 0.42mm

M73 P0 R30
M73 Q0 S30
M201 X1000 Y1000 Z200 E5000 ; sets maximum accelerations, mm/sec^2
M203 X200 Y200 Z12 E120 ; sets maximum feedrates, mm/sec
M204 P1250 R1250 T1250 ; sets acceleration (P, T) and retract acceleration (R), mm/sec^2
M205 X8.00 Y8.00 Z0.40 E4.50 ; sets the jerk limits, mm/sec
M205 S0 T0 ; sets the minimum extruding and travel feed rate, mm/sec
M107
;TYPE:Custom
M862.3 P "MK3" ; printer model check
M862.1 P0.4 ; nozzle diameter check
M115 U3.9.3 ; tell printer latest fw version
G90 ; use absolute coordinates
M83 ; extruder relative mode
M104 S230 ; set extruder temp
M140 S85 ; set bed temp
M190 S85 ; wait for bed temp
M109 S230 ; wait for extruder temp
G28 W ; home all without mesh bed level
G80 ; mesh bed leveling
G1 Y-3.0 F1000.0 ; go outside print area
G92 E0.0
G1 X60.0 E9.0 F1000.0 ; intro line
G1 X100.0 E12.5 F1000.0 ; intro line
G92 E0.0
M221 S95

; Don't change E values below. Excessive value can damage the printer.
M907 E430 ; set extruder motor current
G21 ; set units to millimeters
G90 ; use absolute coordinates
M83 ; use relative distances for extrusion
M900 K0.08 ; Filament gcode LA 1.5
M900 K45 ; Filament gcode LA 1.0
;LAYER_CHANGE
;Z:0.2
;HEIGHT:0.2
;BEFORE_LAYER_CHANGE
G92 E0.0
;0.2


G1 E-1.40000 F2100.000
G1 Z0.200 F10800.000
;AFTER_LAYER_CHANGE
;0.2
G1 Z0.400
G1 X103.876 Y67.537
G1 Z0.200
G1 E1.40000 F2100.000
M204 S1000
;TYPE:Skirt
;WIDTH:0.42
G1 F1200.000
G1 X104.786 Y67.120 E0.03137
G1 X105.706 Y66.959 E0.02929
G1 X144.346 Y66.961 E1.21152
M73 P0 R29
G1 X145.035 Y67.070 E0.02190
G1 X145.733 Y67.322 E0.02326
G1 X146.396 Y67.727 E0.02435
G1 X147.030 Y68.336 E0.02759
G1 X147.454 Y68.970 E0.02389
G1 X147.748 Y69.698 E0.02462
G1 X147.887 Y70.480 E0.02491
G1 X147.897 Y137.263 E2.09393
G1 X147.791 Y138.143 E0.02779
G1 X147.470 Y138.999 E0.02866
G1 X147.017 Y139.681 E0.02570
G1 X146.411 Y140.263 E0.02631
G1 X145.684 Y140.701 E0.02662
G1 X144.929 Y140.955 E0.02499
G1 X139.865 Y141.876 E0.16139
G1 X136.565 Y142.340 E0.10447
G1 X133.252 Y142.688 E0.10446
G1 X128.318 Y142.989 E0.15499
G1 X125.002 Y143.047 E0.10400
G1 X121.689 Y142.989 E0.10388
G1 X118.380 Y142.816 E0.10388
G1 X115.095 Y142.529 E0.10340
G1 X111.792 Y142.124 E0.10435
G1 X108.524 Y141.606 E0.10375
G1 X105.031 Y140.946 E0.11145
G1 X104.162 Y140.626 E0.02902
G1 X103.295 Y140.013 E0.03331
G1 X102.638 Y139.192 E0.03295
G1 X102.259 Y138.325 E0.02968
G1 X102.104 Y137.301 E0.03247
G1 X102.103 Y70.734 E2.08718
M73 P1 R29
M73 Q1 S29
G1 X102.222 Y69.807 E0.02928
G1 X102.577 Y68.915 E0.03009
G1 X103.101 Y68.185 E0.02821
G1 X103.830 Y67.576 E0.02977
; printing object Holder Tray #3 (12xTF).stl id:0 copy 0
;WIPE_START
G1 F8640.000
G1 X104.786 Y67.120 E-0.24444
G1 X105.706 Y66.959 E-0.21573
G1 X109.473 Y66.959 E-0.86983
;WIPE_END
G1 E-0.07000 F2100.000
G1 Z0.400 F10800.000
G1 X123.336 Y106.562
G1 Z0.200
G1 E1.40000 F2100.000
;TYPE:Perimeter
G1 F1200.000
G1 X123.812 Y106.398 E0.01579
G1 X124.301 Y106.298 E0.01566
G1 X124.757 Y106.266 E0.01432
G1 X125.295 Y106.297 E0.01690
G1 X125.788 Y106.398 E0.01577
G1 X126.264 Y106.562 E0.01579
G1 X126.720 Y106.786 E0.01594
G1 X127.152 Y107.067 E0.01614
G1 X127.555 Y107.399 E0.01638
G1 X127.927 Y107.778 E0.01665
G1 X128.265 Y108.200 E0.01695
G1 X128.568 Y108.660 E0.01726
G1 X128.834 Y109.153 E0.01756
G1 X129.062 Y109.675 E0.01785
G1 X129.250 Y110.221 E0.01811
G1 X129.397 Y110.786 E0.01833
G1 X129.503 Y111.367 E0.01850
G1 X129.566 Y111.957 E0.01862
G1 X129.588 Y112.553 E0.01868
G1 X129.566 Y113.148 E0.01868
G1 X129.503 Y113.739 E0.01862
G1 X129.397 Y114.319 E0.01850
G1 X129.250 Y114.885 E0.01833
G1 X129.062 Y115.431 E0.01811
G1 X128.834 Y115.953 E0.01785
G1 X128.568 Y116.446 E0.01756
G1 X128.265 Y116.906 E0.01726
G1 X127.927 Y117.327 E0.01695
G1 X127.555 Y117.707 E0.01665
G1 X127.152 Y118.039 E0.01638
G1 X126.720 Y118.319 E0.01614
G1 X126.264 Y118.544 E0.01594
G1 X125.788 Y118.708 E0.01579
G1 X125.298 Y118.808 E0.01569
G1 X124.800 Y118.841 E0.01564
G1 X124.302 Y118.808 E0.01564
G1 X123.812 Y118.708 E0.01569
G1 X123.336 Y118.544 E0.01579
G1 X122.880 Y118.319 E0.01594
G1 X122.448 Y118.039 E0.01614
G1 X122.045 Y117.707 E0.01638
G1 X121.673 Y117.327 E0.01665
G1 X121.335 Y116.906 E0.01695
G1 X121.032 Y116.446 E0.01726
G1 X120.766 Y115.953 E0.01756
G1 X120.538 Y115.431 E0.01785
G1 X120.350 Y114.885 E0.01811
G1 X120.203 Y114.319 E0.01833
G1 X120.098 Y113.739 E0.01850
G1 X120.034 Y113.148 E0.01862
G1 X120.013 Y112.553 E0.01868
G1 X120.034 Y111.957 E0.01868
G1 X120.098 Y111.367 E0.01862
G1 X120.203 Y110.786 E0.01850
G1 X120.350 Y110.221 E0.01833
G1 X120.538 Y109.675 E0.01811
G1 X120.766 Y109.153 E0.01785
G1 X121.032 Y108.660 E0.01756
G1 X121.335 Y108.200 E0.01726
G1 X121.673 Y107.778 E0.01695
G1 X122.045 Y107.399 E0.01665
G1 X122.448 Y107.067 E0.01638
G1 X122.880 Y106.786 E0.01614
G1 X123.282 Y106.588 E0.01406
G1 X123.448 Y106.927 F10800.000
;TYPE:External perimeter
G1 F1200.000
G1 X123.911 Y106.762 E0.01540
G1 X124.353 Y106.672 E0.01411
G1 X124.759 Y106.644 E0.01278
G1 X125.246 Y106.672 E0.01529
G1 X125.689 Y106.762 E0.01415
G1 X126.119 Y106.911 E0.01427
G1 X126.534 Y107.115 E0.01449
G1 X126.928 Y107.371 E0.01476
G1 X127.300 Y107.677 E0.01509
G1 X127.645 Y108.029 E0.01544
G1 X127.960 Y108.422 E0.01581
G1 X128.244 Y108.853 E0.01619
G1 X128.495 Y109.318 E0.01655
G1 X128.710 Y109.811 E0.01688
G1 X128.888 Y110.330 E0.01718
G1 X129.028 Y110.868 E0.01744
G1 X129.129 Y111.421 E0.01763
G1 X129.190 Y111.984 E0.01777
G1 X129.210 Y112.553 E0.01783
G1 X129.190 Y113.121 E0.01783
G1 X129.129 Y113.685 E0.01777
G1 X129.028 Y114.238 E0.01763
G1 X128.888 Y114.776 E0.01744
G1 X128.710 Y115.294 E0.01718
G1 X128.495 Y115.788 E0.01688
G1 X128.244 Y116.252 E0.01655
G1 X127.960 Y116.683 E0.01619
G1 X127.645 Y117.077 E0.01581
G1 X127.300 Y117.428 E0.01544
G1 X126.928 Y117.734 E0.01509
G1 X126.534 Y117.991 E0.01476
G1 X126.119 Y118.195 E0.01449
G1 X125.689 Y118.343 E0.01427
G1 X125.247 Y118.433 E0.01413
G1 X124.800 Y118.463 E0.01405
G1 X124.353 Y118.433 E0.01405
G1 X123.911 Y118.343 E0.01413
G1 X123.481 Y118.195 E0.01427
G1 X123.066 Y117.991 E0.01449
G1 X122.672 Y117.734 E0.01476
G1 X122.300 Y117.428 E0.01509
G1 X121.955 Y117.077 E0.01544
G1 X121.640 Y116.683 E0.01581
G1 X121.356 Y116.252 E0.01619
G1 X121.105 Y115.788 E0.01655
G1 X120.890 Y115.294 E0.01688
G1 X120.712 Y114.776 E0.01718
G1 X120.572 Y114.238 E0.01744
G1 X120.471 Y113.685 E0.01763
G1 X120.410 Y113.121 E0.01777
G1 X120.390 Y112.553 E0.01783
G1 X120.410 Y111.984 E0.01783
G1 X120.471 Y111.421 E0.01777
G1 X120.572 Y110.868 E0.01763
G1 X120.712 Y110.330 E0.01744
G1 X120.890 Y109.811 E0.01718
G1 X121.105 Y109.318 E0.01688
G1 X121.356 Y108.853 E0.01655
G1 X121.640 Y108.422 E0.01619
G1 X121.955 Y108.029 E0.01581
G1 X122.300 Y107.677 E0.01544
G1 X122.672 Y107.371 E0.01509
G1 X123.066 Y107.115 E0.01476
G1 X123.395 Y106.953 E0.01147
G1 X123.498 Y106.530 F10800.000
;WIPE_START
G1 F8640.000
G1 X123.911 Y106.762 E-0.12721
G1 X124.353 Y106.672 E-0.10394
G1 X124.759 Y106.644 E-0.09415
G1 X125.246 Y106.672 E-0.11263
G1 X125.689 Y106.762 E-0.10424
G1 X126.119 Y106.911 E-0.10512
G1 X126.534 Y107.115 E-0.10671
G1 X126.928 Y107.371 E-0.10873
G1 X127.300 Y107.677 E-0.11109
G1 X127.645 Y108.029 E-0.11370
G1 X127.960 Y108.422 E-0.11644
G1 X128.244 Y108.853 E-0.11919
G1 X128.258 Y108.879 E-0.00683
;WIPE_END
G1 E-0.07000 F2100.000
G1 Z0.400 F10800.000
G1 X116.462 Y109.672
G1 Z0.200
G1 E1.40000 F2100.000
;TYPE:Perimeter
G1 F1200.000
G1 X116.650 Y110.218 E0.01811
G1 X116.797 Y110.784 E0.01833
G1 X116.903 Y111.364 E0.01850
G1 X116.966 Y111.955 E0.01862
G1 X116.987 Y112.550 E0.01868
G1 X116.966 Y113.145 E0.01868
G1 X116.903 Y113.736 E0.01862
G1 X116.797 Y114.316 E0.01850
G1 X116.650 Y114.882 E0.01833
G1 X116.462 Y115.428 E0.01811
G1 X116.234 Y115.950 E0.01785
G1 X115.968 Y116.443 E0.01756
G1 X115.665 Y116.903 E0.01726
G1 X115.327 Y117.324 E0.01695
G1 X114.955 Y117.704 E0.01665
G1 X114.552 Y118.036 E0.01638
G1 X114.120 Y118.317 E0.01614
G1 X113.664 Y118.541 E0.01594
G1 X113.188 Y118.705 E0.01579
G1 X112.698 Y118.805 E0.01569
G1 X112.200 Y118.839 E0.01564
G1 X111.702 Y118.805 E0.01564
G1 X111.212 Y118.705 E0.01569
G1 X110.736 Y118.541 E0.01579
G1 X110.280 Y118.317 E0.01594
G1 X109.848 Y118.036 E0.01614
G1 X109.445 Y117.704 E0.01638
G1 X109.073 Y117.324 E0.01665
G1 X108.735 Y116.903 E0.01695
G1 X108.432 Y116.443 E0.01726
G1 X108.166 Y115.950 E0.01756
G1 X107.938 Y115.428 E0.01785
G1 X107.750 Y114.882 E0.01811
G1 X107.603 Y114.316 E0.01833
G1 X107.497 Y113.736 E0.01850
G1 X107.434 Y113.145 E0.01862
G1 X107.413 Y112.550 E0.01868
G1 X107.434 Y111.955 E0.01868
G1 X107.497 Y111.364 E0.01862
G1 X107.603 Y110.784 E0.01850
G1 X107.750 Y110.218 E0.01833
G1 X107.938 Y109.672 E0.01811
G1 X108.166 Y109.150 E0.01785
G1 X108.432 Y108.657 E0.01756
G1 X108.735 Y108.197 E0.01726
G1 X109.073 Y107.776 E0.01695
G1 X109.445 Y107.396 E0.01665
G1 X109.848 Y107.064 E0.01638
G1 X110.280 Y106.783 E0.01614
G1 X110.736 Y106.559 E0.01594
G1 X111.212 Y106.395 E0.01579
G1 X111.701 Y106.295 E0.01566
G1 X112.157 Y106.263 E0.01432
G1 X112.695 Y106.295 E0.01690
G1 X113.188 Y106.395 E0.01577
G1 X113.664 Y106.559 E0.01579
G1 X114.120 Y106.783 E0.01594
G1 X114.552 Y107.064 E0.01614
G1 X114.955 Y107.396 E0.01638
G1 X115.327 Y107.776 E0.01665
G1 X115.665 Y108.197 E0.01695
G1 X115.968 Y108.657 E0.01726
G1 X116.234 Y109.150 E0.01756
G1 X116.438 Y109.617 E0.01597
G1 X116.092 Y109.767 F10800.000
;TYPE:External perimeter
G1 F1200.000
G1 X116.288 Y110.327 E0.01859
G1 X116.428 Y110.865 E0.01744
G1 X116.529 Y111.418 E0.01763
G1 X116.590 Y111.982 E0.01777
G1 X116.610 Y112.550 E0.01783
G1 X116.590 Y113.118 E0.01783
G1 X116.529 Y113.682 E0.01777
G1 X116.428 Y114.235 E0.01763
G1 X116.288 Y114.773 E0.01744
G1 X116.110 Y115.291 E0.01718
G1 X115.895 Y115.785 E0.01688
G1 X115.644 Y116.250 E0.01655
G1 X115.360 Y116.681 E0.01619
G1 X115.045 Y117.074 E0.01581
G1 X114.700 Y117.425 E0.01544
G1 X114.328 Y117.731 E0.01509
G1 X113.934 Y117.988 E0.01476
G1 X113.519 Y118.192 E0.01449
G1 X113.089 Y118.340 E0.01427
G1 X112.647 Y118.430 E0.01413
G1 X112.200 Y118.461 E0.01405
G1 X111.753 Y118.430 E0.01405
G1 X111.311 Y118.340 E0.01413
G1 X110.881 Y118.192 E0.01427
G1 X110.466 Y117.988 E0.01449
G1 X110.072 Y117.731 E0.01476
G1 X109.700 Y117.425 E0.01509
G1 X109.355 Y117.074 E0.01544
G1 X109.040 Y116.681 E0.01581
G1 X108.756 Y116.250 E0.01619
G1 X108.505 Y115.785 E0.01655
G1 X108.290 Y115.291 E0.01688
G1 X108.112 Y114.773 E0.01718
G1 X107.972 Y114.235 E0.01744
G1 X107.871 Y113.682 E0.01763
G1 X107.810 Y113.118 E0.01777
G1 X107.790 Y112.550 E0.01783
G1 X107.810 Y111.982 E0.01783
G1 X107.871 Y111.418 E0.01777
G1 X107.972 Y110.865 E0.01763
G1 X108.112 Y110.327 E0.01744
G1 X108.290 Y109.809 E0.01718
G1 X108.505 Y109.315 E0.01688
G1 X108.756 Y108.850 E0.01655
G1 X109.040 Y108.419 E0.01619
G1 X109.355 Y108.026 E0.01581
G1 X109.700 Y107.675 E0.01544
G1 X110.072 Y107.369 E0.01509
G1 X110.466 Y107.112 E0.01476
G1 X110.881 Y106.908 E0.01449
G1 X111.311 Y106.760 E0.01427
G1 X111.753 Y106.670 E0.01411
G1 X112.159 Y106.641 E0.01278
G1 X112.646 Y106.669 E0.01529
G1 X113.089 Y106.760 E0.01415
G1 X113.519 Y106.908 E0.01427
G1 X113.934 Y107.112 E0.01449
G1 X114.328 Y107.369 E0.01476
G1 X114.700 Y107.675 E0.01509
G1 X115.045 Y108.026 E0.01544
G1 X115.360 Y108.419 E0.01581
G1 X115.644 Y108.850 E0.01619
G1 X115.895 Y109.315 E0.01655
G1 X116.068 Y109.712 E0.01359
G1 X116.488 Y109.826 F10800.000
;WIPE_START
G1 F8640.000
G1 X116.288 Y110.327 E-0.15072
G1 X116.428 Y110.865 E-0.12840
G1 X116.529 Y111.418 E-0.12985
G1 X116.590 Y111.982 E-0.13083
G1 X116.610 Y112.550 E-0.13133
G1 X116.590 Y113.118 E-0.13133
G1 X116.529 Y113.682 E-0.13083
G1 X116.428 Y114.235 E-0.12985
G1 X116.288 Y114.773 E-0.12840
G1 X116.110 Y115.291 E-0.12655
G1 X116.089 Y115.339 E-0.01191
;WIPE_END
G1 E-0.07000 F2100.000
G1 Z0.400 F10800.000
G1 X113.188 Y123.445
G1 Z0.200
G1 E1.40000 F2100.000
;TYPE:Perimeter
G1 F1200.000
G1 X113.664 Y123.609 E0.01579
G1 X114.120 Y123.833 E0.01594
G1 X114.552 Y124.114 E0.01614
G1 X114.955 Y124.446 E0.01638
G1 X115.327 Y124.826 E0.01665
G1 X115.665 Y125.247 E0.01695
G1 X115.968 Y125.707 E0.01726
G1 X116.234 Y126.200 E0.01756
G1 X116.462 Y126.722 E0.01785
G1 X116.650 Y127.268 E0.01811
G1 X116.797 Y127.834 E0.01833
G1 X116.903 Y128.414 E0.01850
G1 X116.966 Y129.005 E0.01862
G1 X116.987 Y129.600 E0.01868
G1 X116.966 Y130.195 E0.01868
G1 X116.903 Y130.786 E0.01862
G1 X116.797 Y131.366 E0.01850
G1 X116.650 Y131.932 E0.01833
G1 X116.462 Y132.478 E0.01811
G1 X116.234 Y133.000 E0.01785
G1 X115.968 Y133.493 E0.01756
G1 X115.665 Y133.953 E0.01726
G1 X115.327 Y134.374 E0.01695
G1 X114.955 Y134.754 E0.01665
G1 X114.552 Y135.086 E0.01638
G1 X114.120 Y135.367 E0.01614
G1 X113.664 Y135.591 E0.01594
G1 X113.188 Y135.755 E0.01579
G1 X112.698 Y135.855 E0.01569
G1 X112.200 Y135.889 E0.01564
G1 X111.702 Y135.855 E0.01564
G1 X111.212 Y135.755 E0.01569
G1 X110.736 Y135.591 E0.01579
G1 X110.280 Y135.367 E0.01594
G1 X109.848 Y135.086 E0.01614
G1 X109.445 Y134.754 E0.01638
G1 X109.073 Y134.374 E0.01665
G1 X108.735 Y133.953 E0.01695
G1 X108.432 Y133.493 E0.01726
G1 X108.166 Y133.000 E0.01756
G1 X107.938 Y132.478 E0.01785
G1 X107.750 Y131.932 E0.01811
G1 X107.603 Y131.366 E0.01833
G1 X107.497 Y130.786 E0.01850
G1 X107.434 Y130.195 E0.01862
G1 X107.413 Y129.600 E0.01868
G1 X107.434 Y129.005 E0.01868
G1 X107.497 Y128.414 E0.01862
G1 X107.603 Y127.834 E0.01850
G1 X107.750 Y127.268 E0.01833
G1 X107.938 Y126.722 E0.01811
G1 X108.166 Y126.200 E0.01785
G1 X108.432 Y125.707 E0.01756
G1 X108.735 Y125.247 E0.01726
G1 X109.073 Y124.826 E0.01695
G1 X109.445 Y124.446 E0.01665
G1 X109.848 Y124.114 E0.01638
G1 X110.280 Y123.833 E0.01614
G1 X110.736 Y123.609 E0.01594
G1 X111.212 Y123.445 E0.01579
G1 X111.701 Y123.345 E0.01566
G1 X112.157 Y123.313 E0.01432
G1 X112.695 Y123.345 E0.01691
G1 X113.129 Y123.433 E0.01389
G1 X113.054 Y123.803 F10800.000
;TYPE:External perimeter
G1 F1200.000
G1 X113.519 Y123.958 E0.01537
G1 X113.934 Y124.162 E0.01449
G1 X114.328 Y124.419 E0.01476
G1 X114.700 Y124.725 E0.01509
G1 X115.045 Y125.076 E0.01544
G1 X115.360 Y125.469 E0.01581
G1 X115.644 Y125.900 E0.01619
G1 X115.895 Y126.365 E0.01655
G1 X116.110 Y126.859 E0.01688
G1 X116.288 Y127.377 E0.01718
G1 X116.428 Y127.915 E0.01744
G1 X116.529 Y128.468 E0.01763
G1 X116.590 Y129.032 E0.01777
G1 X116.610 Y129.600 E0.01783
G1 X116.590 Y130.168 E0.01783
G1 X116.529 Y130.732 E0.01777
G1 X116.428 Y131.285 E0.01763
G1 X116.288 Y131.823 E0.01744
G1 X116.110 Y132.341 E0.01718
G1 X115.895 Y132.835 E0.01688
G1 X115.644 Y133.300 E0.01655
G1 X115.360 Y133.731 E0.01619
G1 X115.045 Y134.124 E0.01581
G1 X114.700 Y134.475 E0.01544
G1 X114.328 Y134.781 E0.01509
G1 X113.934 Y135.038 E0.01476
G1 X113.519 Y135.242 E0.01449
G1 X113.089 Y135.390 E0.01427
G1 X112.647 Y135.480 E0.01413
G1 X112.200 Y135.511 E0.01405
G1 X111.753 Y135.480 E0.01405
G1 X111.311 Y135.390 E0.01413
G1 X110.881 Y135.242 E0.01427
G1 X110.466 Y135.038 E0.01449
G1 X110.072 Y134.781 E0.01476
G1 X109.700 Y134.475 E0.01509
G1 X109.355 Y134.124 E0.01544
G1 X109.040 Y133.731 E0.01581
G1 X108.756 Y133.300 E0.01619
G1 X108.505 Y132.835 E0.01655
G1 X108.290 Y132.341 E0.01688
G1 X108.112 Y131.823 E0.01718
G1 X107.972 Y131.285 E0.01744
G1 X107.871 Y130.732 E0.01763
G1 X107.810 Y130.168 E0.01777
G1 X107.790 Y129.600 E0.01783
G1 X107.810 Y129.032 E0.01783
G1 X107.871 Y128.468 E0.01777
G1 X107.972 Y127.915 E0.01763
G1 X108.112 Y127.377 E0.01744
G1 X108.290 Y126.859 E0.01718
G1 X108.505 Y126.365 E0.01688
G1 X108.756 Y125.900 E0.01655
G1 X109.040 Y125.469 E0.01619
G1 X109.355 Y125.076 E0.01581
G1 X109.700 Y124.725 E0.01544
G1 X110.072 Y124.419 E0.01509
G1 X110.466 Y124.162 E0.01476
G1 X110.881 Y123.958 E0.01449
G1 X111.311 Y123.810 E0.01427
G1 X111.753 Y123.720 E0.01411
G1 X112.159 Y123.691 E0.01278
