; generated by PrusaSlicer 2.3.1+win64 on 2021-08-02 at 15:21:31 UTC

; 

; external perimeters extrusion width = 0.45mm
; perimeters extrusion width = 0.45mm
; infill extrusion width = 0.45mm
; solid infill extrusion width = 0.45mm
; top infill extrusion width = 0.40mm
; first layer extrusion width = 0.42mm

M73 P0 R82
M73 Q0 S82
M201 X1000 Y1000 Z200 E5000 ; sets maximum accelerations, mm/sec^2
M203 X200 Y200 Z12 E120 ; sets maximum feedrates, mm/sec
M204 P1250 R1250 T1250 ; sets acceleration (P, T) and retract acceleration (R), mm/sec^2
M205 X8.00 Y8.00 Z0.40 E4.50 ; sets the jerk limits, mm/sec
M205 S0 T0 ; sets the minimum extruding and travel feed rate, mm/sec
M107
;TYPE:Custom
M862.3 P "MK3" ; printer model check
M862.1 P0.4 ; nozzle diameter check
M115 U3.9.3 ; tell printer latest fw version
G90 ; use absolute coordinates
M83 ; extruder relative mode
M104 S230 ; set extruder temp
M140 S85 ; set bed temp
M190 S85 ; wait for bed temp
M109 S230 ; wait for extruder temp
G28 W ; home all without mesh bed level
G80 ; mesh bed leveling
G1 Y-3.0 F1000.0 ; go outside print area
G92 E0.0
G1 X60.0 E9.0 F1000.0 ; intro line
G1 X100.0 E12.5 F1000.0 ; intro line
G92 E0.0
M221 S95

; Don't change E values below. Excessive value can damage the printer.
M907 E430 ; set extruder motor current
G21 ; set units to millimeters
G90 ; use absolute coordinates
M83 ; use relative distances for extrusion
M900 K0.08 ; Filament gcode LA 1.5
M900 K45 ; Filament gcode LA 1.0
;LAYER_CHANGE
;Z:0.2
;HEIGHT:0.2
;BEFORE_LAYER_CHANGE
G92 E0.0
;0.2


G1 E-1.40000 F2100.000
G1 Z0.200 F10800.000
;AFTER_LAYER_CHANGE
;0.2
G1 Z0.400
G1 X57.182 Y67.303
G1 Z0.200
G1 E1.40000 F2100.000
M204 S1000
;TYPE:Skirt
;WIDTH:0.42
G1 F1200.000
G1 X58.089 Y66.889 E0.03126
G1 X59.005 Y66.729 E0.02917
G1 X96.680 Y66.722 E1.18127
G1 X190.829 Y67.098 E2.95199
G1 X192.024 Y67.301 E0.03800
G1 X193.057 Y67.842 E0.03656
G1 X193.733 Y68.485 E0.02925
G1 X194.182 Y69.169 E0.02567
G1 X194.473 Y69.935 E0.02569
G1 X194.597 Y70.868 E0.02953
G1 X194.597 Y137.419 E2.08666
G1 X194.411 Y138.570 E0.03654
G1 X193.863 Y139.640 E0.03769
G1 X193.066 Y140.442 E0.03546
G1 X192.015 Y140.992 E0.03720
G1 X186.554 Y142.023 E0.17426
G1 X183.270 Y142.485 E0.10399
G1 X179.952 Y142.833 E0.10458
G1 X175.034 Y143.134 E0.15451
G1 X171.710 Y143.192 E0.10424
G1 X125.524 Y143.277 E1.44811
G1 X75.004 Y142.760 E1.58412
M73 P0 R81
G1 X70.006 Y142.454 E0.15699
G1 X66.730 Y142.109 E0.10329
G1 X63.472 Y141.651 E0.10315
G1 X58.286 Y140.705 E0.16530
G1 X57.554 Y140.442 E0.02439
G1 X56.906 Y140.046 E0.02381
G1 X56.309 Y139.482 E0.02576
G1 X55.834 Y138.776 E0.02667
G1 X55.502 Y137.882 E0.02990
G1 X55.403 Y137.052 E0.02621
G1 X55.403 Y70.503 E2.08659
G1 X55.523 Y69.570 E0.02952
G1 X55.885 Y68.669 E0.03045
G1 X56.406 Y67.949 E0.02786
G1 X57.136 Y67.342 E0.02977
; printing object Holder Trays 1-3.stl id:0 copy 0
;WIPE_START
G1 F8640.000
G1 X58.089 Y66.889 E-0.24357
G1 X59.005 Y66.729 E-0.21484
G1 X62.780 Y66.728 E-0.87159
;WIPE_END
G1 E-0.07000 F2100.000
G1 Z0.400 F10800.000
G1 X121.767 Y108.887
G1 Z0.200
G1 E1.40000 F2100.000
;TYPE:Perimeter
G1 F1200.000
G1 X122.070 Y108.427 E0.01726
G1 X122.408 Y108.006 E0.01695
G1 X122.780 Y107.626 E0.01665
G1 X123.183 Y107.294 E0.01638
G1 X123.615 Y107.014 E0.01614
G1 X124.071 Y106.789 E0.01594
G1 X124.547 Y106.625 E0.01579
G1 X125.036 Y106.525 E0.01566
G1 X125.492 Y106.493 E0.01432
G1 X126.030 Y106.525 E0.01690
G1 X126.523 Y106.625 E0.01577
G1 X126.999 Y106.789 E0.01579
G1 X127.456 Y107.014 E0.01594
G1 X127.887 Y107.294 E0.01614
G1 X128.290 Y107.626 E0.01638
G1 X128.662 Y108.006 E0.01665
G1 X129.000 Y108.427 E0.01695
G1 X129.303 Y108.887 E0.01726
G1 X129.569 Y109.380 E0.01756
G1 X129.797 Y109.902 E0.01785
G1 X129.985 Y110.448 E0.01811
G1 X130.132 Y111.014 E0.01833
G1 X130.238 Y111.594 E0.01850
G1 X130.301 Y112.185 E0.01862
G1 X130.323 Y112.780 E0.01868
G1 X130.301 Y113.376 E0.01868
G1 X130.238 Y113.966 E0.01862
G1 X130.132 Y114.547 E0.01850
G1 X129.985 Y115.112 E0.01833
G1 X129.797 Y115.659 E0.01811
G1 X129.569 Y116.180 E0.01785
G1 X129.303 Y116.673 E0.01756
G1 X129.000 Y117.133 E0.01726
G1 X128.662 Y117.555 E0.01695
G1 X128.290 Y117.934 E0.01665
G1 X127.887 Y118.266 E0.01638
G1 X127.456 Y118.547 E0.01614
G1 X126.999 Y118.771 E0.01594
G1 X126.523 Y118.935 E0.01579
G1 X126.033 Y119.035 E0.01569
G1 X125.535 Y119.069 E0.01564
G1 X125.037 Y119.035 E0.01564
G1 X124.547 Y118.935 E0.01569
G1 X124.071 Y118.771 E0.01579
G1 X123.615 Y118.547 E0.01594
G1 X123.183 Y118.266 E0.01614
G1 X122.780 Y117.934 E0.01638
G1 X122.408 Y117.555 E0.01665
G1 X122.070 Y117.133 E0.01695
G1 X121.767 Y116.673 E0.01726
G1 X121.501 Y116.180 E0.01756
G1 X121.274 Y115.659 E0.01785
G1 X121.086 Y115.112 E0.01811
G1 X120.938 Y114.547 E0.01833
G1 X120.833 Y113.966 E0.01850
G1 X120.769 Y113.376 E0.01862
G1 X120.748 Y112.780 E0.01868
G1 X120.769 Y112.185 E0.01868
G1 X120.833 Y111.594 E0.01862
G1 X120.938 Y111.014 E0.01850
G1 X121.086 Y110.448 E0.01833
G1 X121.274 Y109.902 E0.01811
G1 X121.501 Y109.380 E0.01785
G1 X121.738 Y108.940 E0.01568
G1 X122.070 Y109.119 F10800.000
;TYPE:External perimeter
G1 F1200.000
G1 X122.375 Y108.650 E0.01754
G1 X122.691 Y108.256 E0.01581
G1 X123.035 Y107.905 E0.01544
G1 X123.407 Y107.599 E0.01509
G1 X123.802 Y107.342 E0.01476
G1 X124.216 Y107.138 E0.01449
G1 X124.647 Y106.990 E0.01427
G1 X125.088 Y106.900 E0.01411
G1 X125.494 Y106.871 E0.01278
G1 X125.981 Y106.900 E0.01529
G1 X126.424 Y106.990 E0.01415
G1 X126.854 Y107.138 E0.01427
G1 X127.269 Y107.342 E0.01449
G1 X127.664 Y107.599 E0.01476
G1 X128.035 Y107.905 E0.01509
G1 X128.380 Y108.256 E0.01544
G1 X128.695 Y108.650 E0.01581
G1 X128.979 Y109.081 E0.01619
G1 X129.230 Y109.545 E0.01655
G1 X129.445 Y110.039 E0.01688
G1 X129.623 Y110.557 E0.01718
G1 X129.763 Y111.095 E0.01744
G1 X129.864 Y111.648 E0.01763
G1 X129.925 Y112.212 E0.01777
G1 X129.945 Y112.780 E0.01783
G1 X129.925 Y113.349 E0.01783
G1 X129.864 Y113.912 E0.01777
G1 X129.763 Y114.465 E0.01763
G1 X129.623 Y115.003 E0.01744
G1 X129.445 Y115.522 E0.01718
G1 X129.230 Y116.015 E0.01688
G1 X128.979 Y116.480 E0.01655
G1 X128.695 Y116.911 E0.01619
G1 X128.380 Y117.304 E0.01581
G1 X128.035 Y117.656 E0.01544
G1 X127.664 Y117.962 E0.01509
G1 X127.269 Y118.218 E0.01476
G1 X126.854 Y118.422 E0.01449
G1 X126.424 Y118.571 E0.01427
G1 X125.982 Y118.661 E0.01413
G1 X125.535 Y118.691 E0.01405
G1 X125.088 Y118.661 E0.01405
G1 X124.647 Y118.571 E0.01413
G1 X124.216 Y118.422 E0.01427
G1 X123.802 Y118.218 E0.01449
G1 X123.407 Y117.962 E0.01476
G1 X123.035 Y117.656 E0.01509
G1 X122.691 Y117.304 E0.01544
G1 X122.375 Y116.911 E0.01581
G1 X122.091 Y116.480 E0.01619
G1 X121.840 Y116.015 E0.01655
G1 X121.625 Y115.522 E0.01688
G1 X121.447 Y115.003 E0.01718
G1 X121.307 Y114.465 E0.01744
G1 X121.206 Y113.912 E0.01763
G1 X121.145 Y113.349 E0.01777
G1 X121.125 Y112.780 E0.01783
G1 X121.145 Y112.212 E0.01783
G1 X121.206 Y111.648 E0.01777
G1 X121.307 Y111.095 E0.01763
G1 X121.447 Y110.557 E0.01744
G1 X121.625 Y110.039 E0.01718
G1 X121.840 Y109.545 E0.01688
G1 X122.042 Y109.172 E0.01331
G1 X121.874 Y108.770 F10800.000
;WIPE_START
G1 F8640.000
G1 X122.375 Y108.650 E-0.14299
G1 X122.691 Y108.256 E-0.11644
G1 X123.035 Y107.905 E-0.11370
G1 X123.407 Y107.599 E-0.11109
G1 X123.802 Y107.342 E-0.10873
G1 X124.216 Y107.138 E-0.10671
G1 X124.647 Y106.990 E-0.10512
G1 X125.088 Y106.900 E-0.10394
G1 X125.494 Y106.871 E-0.09415
G1 X125.981 Y106.900 E-0.11263
G1 X126.424 Y106.990 E-0.10424
G1 X126.854 Y107.138 E-0.10512
G1 X126.874 Y107.148 E-0.00513
;WIPE_END
G1 E-0.07000 F2100.000
G1 Z0.400 F10800.000
G1 X133.881 Y111.329
G1 Z0.200
G1 E1.40000 F2100.000
;TYPE:Perimeter
G1 F1200.000
G1 X133.938 Y111.014 E0.01003
G1 X134.086 Y110.448 E0.01833
G1 X134.274 Y109.902 E0.01811
G1 X134.501 Y109.380 E0.01785
G1 X134.767 Y108.887 E0.01756
G1 X135.070 Y108.427 E0.01726
G1 X135.408 Y108.006 E0.01695
G1 X135.780 Y107.626 E0.01665
G1 X136.183 Y107.294 E0.01638
G1 X136.615 Y107.014 E0.01614
G1 X137.071 Y106.789 E0.01594
G1 X137.547 Y106.625 E0.01579
G1 X138.036 Y106.525 E0.01566
G1 X138.492 Y106.493 E0.01432
G1 X139.030 Y106.525 E0.01691
G1 X139.523 Y106.625 E0.01577
G1 X139.999 Y106.789 E0.01579
G1 X140.456 Y107.014 E0.01594
G1 X140.887 Y107.294 E0.01614
G1 X141.290 Y107.626 E0.01638
G1 X141.662 Y108.006 E0.01665
G1 X142.000 Y108.427 E0.01695
G1 X142.303 Y108.887 E0.01726
G1 X142.569 Y109.380 E0.01756
G1 X142.797 Y109.902 E0.01785
G1 X142.985 Y110.448 E0.01811
G1 X143.132 Y111.014 E0.01833
G1 X143.238 Y111.594 E0.01850
G1 X143.301 Y112.185 E0.01862
G1 X143.323 Y112.780 E0.01868
G1 X143.301 Y113.376 E0.01868
G1 X143.238 Y113.966 E0.01862
G1 X143.132 Y114.547 E0.01850
G1 X142.985 Y115.112 E0.01833
G1 X142.797 Y115.659 E0.01811
G1 X142.569 Y116.180 E0.01785
G1 X142.303 Y116.673 E0.01756
G1 X142.000 Y117.133 E0.01726
G1 X141.662 Y117.555 E0.01695
G1 X141.290 Y117.934 E0.01665
G1 X140.887 Y118.266 E0.01638
G1 X140.456 Y118.547 E0.01614
G1 X139.999 Y118.771 E0.01594
G1 X139.523 Y118.935 E0.01579
G1 X139.033 Y119.035 E0.01569
G1 X138.535 Y119.069 E0.01564
G1 X138.037 Y119.035 E0.01564
G1 X137.547 Y118.935 E0.01569
G1 X137.071 Y118.771 E0.01579
G1 X136.615 Y118.547 E0.01594
G1 X136.183 Y118.266 E0.01614
G1 X135.780 Y117.934 E0.01638
G1 X135.408 Y117.555 E0.01665
G1 X135.070 Y117.133 E0.01695
G1 X134.767 Y116.673 E0.01726
G1 X134.501 Y116.180 E0.01756
G1 X134.274 Y115.659 E0.01785
G1 X134.086 Y115.112 E0.01811
G1 X133.938 Y114.547 E0.01833
G1 X133.833 Y113.966 E0.01850
G1 X133.769 Y113.376 E0.01862
G1 X133.748 Y112.780 E0.01868
G1 X133.769 Y112.185 E0.01868
G1 X133.870 Y111.388 E0.02520
G1 X134.241 Y111.455 F10800.000
;TYPE:External perimeter
G1 F1200.000
G1 X134.307 Y111.095 E0.01147
G1 X134.447 Y110.557 E0.01744
G1 X134.625 Y110.039 E0.01718
G1 X134.840 Y109.545 E0.01688
G1 X135.091 Y109.081 E0.01655
G1 X135.375 Y108.650 E0.01619
G1 X135.691 Y108.256 E0.01581
G1 X136.035 Y107.905 E0.01544
G1 X136.407 Y107.599 E0.01509
G1 X136.802 Y107.342 E0.01476
G1 X137.216 Y107.138 E0.01449
G1 X137.647 Y106.990 E0.01427
G1 X138.088 Y106.900 E0.01411
G1 X138.494 Y106.871 E0.01278
G1 X138.981 Y106.900 E0.01529
G1 X139.424 Y106.990 E0.01415
G1 X139.854 Y107.138 E0.01427
G1 X140.269 Y107.342 E0.01449
G1 X140.664 Y107.599 E0.01476
G1 X141.035 Y107.905 E0.01509
G1 X141.380 Y108.256 E0.01544
G1 X141.695 Y108.650 E0.01581
G1 X141.979 Y109.081 E0.01619
G1 X142.230 Y109.545 E0.01655
G1 X142.445 Y110.039 E0.01688
G1 X142.623 Y110.557 E0.01718
G1 X142.763 Y111.095 E0.01744
G1 X142.864 Y111.648 E0.01763
G1 X142.925 Y112.212 E0.01777
G1 X142.945 Y112.780 E0.01783
G1 X142.925 Y113.349 E0.01783
G1 X142.864 Y113.912 E0.01777
G1 X142.763 Y114.465 E0.01763
G1 X142.623 Y115.003 E0.01744
G1 X142.445 Y115.522 E0.01718
G1 X142.230 Y116.015 E0.01688
G1 X141.979 Y116.480 E0.01655
G1 X141.695 Y116.911 E0.01619
G1 X141.380 Y117.304 E0.01581
G1 X141.035 Y117.656 E0.01544
G1 X140.664 Y117.962 E0.01509
G1 X140.269 Y118.218 E0.01476
G1 X139.854 Y118.422 E0.01449
G1 X139.424 Y118.571 E0.01427
G1 X138.982 Y118.661 E0.01413
G1 X138.535 Y118.691 E0.01405
G1 X138.088 Y118.661 E0.01405
G1 X137.647 Y118.571 E0.01413
G1 X137.216 Y118.422 E0.01427
G1 X136.802 Y118.218 E0.01449
G1 X136.407 Y117.962 E0.01476
G1 X136.035 Y117.656 E0.01509
G1 X135.691 Y117.304 E0.01544
G1 X135.375 Y116.911 E0.01581
G1 X135.091 Y116.480 E0.01619
G1 X134.840 Y116.015 E0.01655
G1 X134.625 Y115.522 E0.01688
G1 X134.447 Y115.003 E0.01718
G1 X134.307 Y114.465 E0.01744
G1 X134.206 Y113.912 E0.01763
G1 X134.145 Y113.349 E0.01777
G1 X134.125 Y112.780 E0.01783
G1 X134.145 Y112.212 E0.01783
G1 X134.231 Y111.514 E0.02204
G1 X133.955 Y111.227 F10800.000
;WIPE_START
G1 F8640.000
G1 X134.307 Y111.095 E-0.09833
G1 X134.447 Y110.557 E-0.12840
G1 X134.625 Y110.039 E-0.12655
G1 X134.840 Y109.545 E-0.12434
G1 X135.091 Y109.081 E-0.12186
G1 X135.375 Y108.650 E-0.11920
G1 X135.691 Y108.256 E-0.11644
G1 X136.035 Y107.905 E-0.11370
G1 X136.407 Y107.599 E-0.11110
G1 X136.802 Y107.342 E-0.10873
G1 X137.216 Y107.138 E-0.10671
G1 X137.440 Y107.061 E-0.05464
;WIPE_END
G1 E-0.07000 F2100.000
G1 Z0.400 F10800.000
G1 X137.481 Y101.862
G1 Z0.200
G1 E1.40000 F2100.000
;TYPE:Perimeter
G1 F1200.000
G1 X137.101 Y101.733 E0.01259
G1 X136.653 Y101.518 E0.01559
G1 X136.228 Y101.248 E0.01578
G1 X135.830 Y100.929 E0.01600
G1 X135.462 Y100.564 E0.01626
G1 X135.125 Y100.157 E0.01654
G1 X134.822 Y99.714 E0.01684
G1 X134.554 Y99.238 E0.01713
G1 X134.323 Y98.733 E0.01741
G1 X134.130 Y98.203 E0.01767
G1 X133.975 Y97.654 E0.01789
G1 X133.860 Y97.090 E0.01807
G1 X133.784 Y96.512 E0.01825
G1 X133.748 Y95.819 E0.02177
G1 X133.767 Y95.165 E0.02050
G1 X133.829 Y94.572 E0.01871
G1 X133.933 Y93.989 E0.01857
G1 X134.079 Y93.420 E0.01840
G1 X134.266 Y92.872 E0.01818
G1 X134.493 Y92.347 E0.01792
G1 X134.758 Y91.851 E0.01763
G1 X135.061 Y91.389 E0.01733
G1 X135.400 Y90.965 E0.01702
G1 X135.772 Y90.584 E0.01672
G1 X136.176 Y90.249 E0.01644
G1 X136.609 Y89.967 E0.01620
G1 X137.066 Y89.741 E0.01600
G1 X137.544 Y89.576 E0.01584
G1 X138.035 Y89.476 E0.01571
G1 X138.492 Y89.443 E0.01437
G1 X139.032 Y89.475 E0.01696
G1 X139.526 Y89.576 E0.01582
G1 X140.004 Y89.741 E0.01584
G1 X140.462 Y89.967 E0.01600
G1 X140.894 Y90.249 E0.01620
G1 X141.298 Y90.584 E0.01644
G1 X141.670 Y90.965 E0.01672
G1 X142.009 Y91.389 E0.01702
G1 X142.312 Y91.851 E0.01733
G1 X142.578 Y92.347 E0.01763
G1 X142.804 Y92.872 E0.01792
G1 X142.991 Y93.420 E0.01818
G1 X143.137 Y93.989 E0.01840
G1 X143.242 Y94.572 E0.01857
G1 X143.303 Y95.165 E0.01869
G1 X143.323 Y95.763 E0.01876
G1 X143.286 Y96.511 E0.02350
G1 X143.211 Y97.090 E0.01829
G1 X143.095 Y97.654 E0.01807
G1 X142.941 Y98.203 E0.01789
G1 X142.747 Y98.733 E0.01767
G1 X142.516 Y99.238 E0.01741
G1 X142.248 Y99.714 E0.01713
G1 X141.945 Y100.157 E0.01684
G1 X141.609 Y100.564 E0.01654
G1 X141.241 Y100.929 E0.01626
G1 X140.843 Y101.248 E0.01600
G1 X140.418 Y101.518 E0.01578
G1 X139.970 Y101.733 E0.01559
G1 X139.503 Y101.891 E0.01545
G1 X139.022 Y101.986 E0.01536
G1 X138.535 Y102.019 E0.01531
G1 X138.048 Y101.986 E0.01531
G1 X137.538 Y101.881 E0.01632
G1 X137.665 Y101.526 F10800.000
;TYPE:External perimeter
G1 F1200.000
G1 X137.243 Y101.383 E0.01396
G1 X136.836 Y101.188 E0.01417
G1 X136.448 Y100.941 E0.01442
G1 X136.081 Y100.647 E0.01473
G1 X135.740 Y100.309 E0.01506
G1 X135.427 Y99.930 E0.01542
G1 X135.143 Y99.515 E0.01578
G1 X134.891 Y99.066 E0.01613
G1 X134.672 Y98.589 E0.01646
G1 X134.489 Y98.087 E0.01675
G1 X134.342 Y97.565 E0.01701
G1 X134.232 Y97.028 E0.01721
G1 X134.160 Y96.478 E0.01738
G1 X134.125 Y95.815 E0.02083
G1 X134.143 Y95.191 E0.01957
G1 X134.202 Y94.625 E0.01784
G1 X134.302 Y94.069 E0.01770
G1 X134.441 Y93.528 E0.01750
G1 X134.618 Y93.007 E0.01725
G1 X134.833 Y92.511 E0.01695
G1 X135.083 Y92.044 E0.01661
G1 X135.367 Y91.611 E0.01625
G1 X135.683 Y91.215 E0.01587
G1 X136.028 Y90.861 E0.01550
G1 X136.400 Y90.554 E0.01514
G1 X136.796 Y90.295 E0.01482
G1 X137.212 Y90.090 E0.01454
G1 X137.644 Y89.941 E0.01432
G1 X138.086 Y89.850 E0.01416
G1 X138.494 Y89.821 E0.01283
G1 X138.983 Y89.850 E0.01534
G1 X139.427 Y89.941 E0.01420
G1 X139.858 Y90.090 E0.01432
G1 X140.274 Y90.295 E0.01454
G1 X140.670 Y90.554 E0.01482
G1 X141.042 Y90.861 E0.01514
G1 X141.387 Y91.215 E0.01550
G1 X141.703 Y91.611 E0.01587
G1 X141.987 Y92.044 E0.01625
G1 X142.238 Y92.511 E0.01661
G1 X142.452 Y93.007 E0.01695
G1 X142.630 Y93.528 E0.01725
G1 X142.769 Y94.069 E0.01750
G1 X142.868 Y94.625 E0.01770
G1 X142.927 Y95.190 E0.01783
G1 X142.945 Y95.760 E0.01786
G1 X142.910 Y96.478 E0.02254
G1 X142.838 Y97.028 E0.01739
G1 X142.729 Y97.565 E0.01721
G1 X142.582 Y98.087 E0.01701
G1 X142.398 Y98.589 E0.01675
G1 X142.180 Y99.066 E0.01646
G1 X141.928 Y99.515 E0.01613
G1 X141.644 Y99.930 E0.01578
G1 X141.330 Y100.309 E0.01542
G1 X140.989 Y100.647 E0.01506
G1 X140.623 Y100.941 E0.01473
G1 X140.234 Y101.188 E0.01442
G1 X139.827 Y101.383 E0.01417
G1 X139.405 Y101.526 E0.01396
G1 X138.973 Y101.612 E0.01382
G1 X138.535 Y101.641 E0.01375
G1 X138.098 Y101.612 E0.01375
G1 X137.724 Y101.537 E0.01194
G1 X137.383 Y101.809 F10800.000
;WIPE_START
G1 F8640.000
G1 X137.243 Y101.383 E-0.11658
