; generated by PrusaSlicer 2.3.1+win64 on 2021-08-02 at 15:33:26 UTC

; 

; external perimeters extrusion width = 0.45mm
; perimeters extrusion width = 0.45mm
; infill extrusion width = 0.45mm
; solid infill extrusion width = 0.45mm
; top infill extrusion width = 0.40mm
; first layer extrusion width = 0.42mm

M73 P0 R27
M73 Q0 S27
M201 X1000 Y1000 Z200 E5000 ; sets maximum accelerations, mm/sec^2
M203 X200 Y200 Z12 E120 ; sets maximum feedrates, mm/sec
M204 P1250 R1250 T1250 ; sets acceleration (P, T) and retract acceleration (R), mm/sec^2
M205 X8.00 Y8.00 Z0.40 E4.50 ; sets the jerk limits, mm/sec
M205 S0 T0 ; sets the minimum extruding and travel feed rate, mm/sec
M107
;TYPE:Custom
M862.3 P "MK3" ; printer model check
M862.1 P0.4 ; nozzle diameter check
M115 U3.9.3 ; tell printer latest fw version
G90 ; use absolute coordinates
M83 ; extruder relative mode
M104 S230 ; set extruder temp
M140 S85 ; set bed temp
M190 S85 ; wait for bed temp
M109 S230 ; wait for extruder temp
G28 W ; home all without mesh bed level
G80 ; mesh bed leveling
G1 Y-3.0 F1000.0 ; go outside print area
G92 E0.0
G1 X60.0 E9.0 F1000.0 ; intro line
G1 X100.0 E12.5 F1000.0 ; intro line
G92 E0.0
M221 S95

; Don't change E values below. Excessive value can damage the printer.
M907 E430 ; set extruder motor current
G21 ; set units to millimeters
G90 ; use absolute coordinates
M83 ; use relative distances for extrusion
M900 K0.08 ; Filament gcode LA 1.5
M900 K45 ; Filament gcode LA 1.0
;LAYER_CHANGE
;Z:0.2
;HEIGHT:0.2
;BEFORE_LAYER_CHANGE
G92 E0.0
;0.2


G1 E-1.40000 F2100.000
G1 Z0.200 F10800.000
;AFTER_LAYER_CHANGE
;0.2
G1 Z0.400
G1 X103.876 Y67.537
G1 Z0.200
G1 E1.40000 F2100.000
M204 S1000
;TYPE:Skirt
;WIDTH:0.42
G1 F1200.000
G1 X104.786 Y67.120 E0.03137
G1 X105.706 Y66.959 E0.02929
G1 X144.346 Y66.961 E1.21152
G1 X145.035 Y67.070 E0.02189
G1 X145.729 Y67.321 E0.02315
G1 X146.393 Y67.724 E0.02435
G1 X147.028 Y68.334 E0.02759
G1 X147.454 Y68.970 E0.02400
G1 X147.748 Y69.698 E0.02462
G1 X147.887 Y70.480 E0.02491
G1 X147.897 Y137.266 E2.09405
G1 X147.791 Y138.142 E0.02767
G1 X147.470 Y138.999 E0.02866
G1 X147.017 Y139.681 E0.02570
G1 X146.411 Y140.263 E0.02631
G1 X145.684 Y140.701 E0.02661
G1 X144.929 Y140.955 E0.02499
G1 X139.865 Y141.876 E0.16139
G1 X136.565 Y142.340 E0.10447
G1 X133.252 Y142.688 E0.10446
G1 X128.318 Y142.989 E0.15499
G1 X125.002 Y143.047 E0.10400
G1 X121.689 Y142.989 E0.10388
G1 X118.380 Y142.816 E0.10388
G1 X115.095 Y142.529 E0.10340
G1 X111.792 Y142.124 E0.10435
G1 X108.524 Y141.606 E0.10376
G1 X105.031 Y140.946 E0.11146
G1 X104.163 Y140.626 E0.02901
G1 X103.295 Y140.013 E0.03331
G1 X102.638 Y139.192 E0.03295
G1 X102.257 Y138.321 E0.02980
G1 X102.104 Y137.301 E0.03235
G1 X102.103 Y70.734 E2.08718
M73 P1 R27
M73 Q1 S27
G1 X102.222 Y69.807 E0.02929
G1 X102.577 Y68.915 E0.03009
G1 X103.101 Y68.185 E0.02821
G1 X103.830 Y67.576 E0.02977
; printing object Holder Tray #2 (1xSD & 8xTF).stl id:0 copy 0
;WIPE_START
G1 F8640.000
G1 X104.786 Y67.120 E-0.24444
G1 X105.706 Y66.959 E-0.21570
G1 X109.473 Y66.959 E-0.86986
;WIPE_END
G1 E-0.07000 F2100.000
G1 Z0.400 F10800.000
G1 X123.111 Y106.768
G1 Z0.200
G1 E1.40000 F2100.000
;TYPE:Perimeter
G1 F1200.000
G1 X123.536 Y106.559 E0.01486
G1 X124.012 Y106.395 E0.01579
G1 X124.501 Y106.295 E0.01566
G1 X124.957 Y106.263 E0.01432
G1 X125.495 Y106.295 E0.01690
G1 X125.988 Y106.395 E0.01577
G1 X126.464 Y106.559 E0.01579
G1 X126.920 Y106.783 E0.01594
G1 X127.352 Y107.064 E0.01614
G1 X127.755 Y107.396 E0.01638
G1 X128.127 Y107.776 E0.01665
G1 X128.465 Y108.197 E0.01695
G1 X128.768 Y108.657 E0.01726
G1 X129.034 Y109.150 E0.01756
G1 X129.262 Y109.672 E0.01785
G1 X129.450 Y110.218 E0.01811
G1 X129.597 Y110.784 E0.01833
G1 X129.703 Y111.364 E0.01850
G1 X129.766 Y111.955 E0.01862
G1 X129.787 Y112.550 E0.01868
G1 X129.766 Y113.145 E0.01868
G1 X129.703 Y113.736 E0.01862
G1 X129.597 Y114.316 E0.01850
G1 X129.450 Y114.882 E0.01833
G1 X129.262 Y115.428 E0.01811
G1 X129.034 Y115.950 E0.01785
G1 X128.768 Y116.443 E0.01756
G1 X128.465 Y116.903 E0.01726
G1 X128.127 Y117.324 E0.01695
G1 X127.755 Y117.704 E0.01665
G1 X127.352 Y118.036 E0.01638
G1 X126.920 Y118.317 E0.01614
G1 X126.464 Y118.541 E0.01594
G1 X125.988 Y118.705 E0.01579
G1 X125.498 Y118.805 E0.01569
G1 X125.000 Y118.839 E0.01564
G1 X124.502 Y118.805 E0.01564
G1 X124.012 Y118.705 E0.01569
G1 X123.536 Y118.541 E0.01579
G1 X123.080 Y118.317 E0.01594
M73 P1 R26
G1 X122.648 Y118.036 E0.01614
G1 X122.245 Y117.704 E0.01638
G1 X121.873 Y117.324 E0.01665
G1 X121.535 Y116.903 E0.01695
G1 X121.232 Y116.443 E0.01726
G1 X120.966 Y115.950 E0.01756
G1 X120.738 Y115.428 E0.01785
G1 X120.550 Y114.882 E0.01811
G1 X120.403 Y114.316 E0.01833
G1 X120.297 Y113.736 E0.01850
G1 X120.234 Y113.145 E0.01862
G1 X120.213 Y112.550 E0.01868
G1 X120.234 Y111.955 E0.01868
G1 X120.297 Y111.364 E0.01862
G1 X120.403 Y110.784 E0.01850
G1 X120.550 Y110.218 E0.01833
G1 X120.738 Y109.672 E0.01811
G1 X120.966 Y109.150 E0.01785
G1 X121.232 Y108.657 E0.01756
G1 X121.535 Y108.197 E0.01726
G1 X121.873 Y107.776 E0.01695
G1 X122.245 Y107.396 E0.01665
G1 X122.648 Y107.064 E0.01638
G1 X123.058 Y106.797 E0.01534
G1 X123.264 Y107.114 F10800.000
;TYPE:External perimeter
G1 F1200.000
G1 X123.681 Y106.908 E0.01459
G1 X124.111 Y106.760 E0.01427
G1 X124.553 Y106.670 E0.01411
G1 X124.959 Y106.641 E0.01278
G1 X125.446 Y106.669 E0.01529
G1 X125.889 Y106.760 E0.01415
G1 X126.319 Y106.908 E0.01427
G1 X126.734 Y107.112 E0.01449
G1 X127.128 Y107.369 E0.01476
G1 X127.500 Y107.675 E0.01509
G1 X127.845 Y108.026 E0.01544
G1 X128.160 Y108.419 E0.01581
G1 X128.444 Y108.850 E0.01619
G1 X128.695 Y109.315 E0.01655
G1 X128.910 Y109.809 E0.01688
G1 X129.088 Y110.327 E0.01718
G1 X129.228 Y110.865 E0.01744
G1 X129.329 Y111.418 E0.01763
G1 X129.390 Y111.982 E0.01777
G1 X129.410 Y112.550 E0.01783
G1 X129.390 Y113.118 E0.01783
G1 X129.329 Y113.682 E0.01777
G1 X129.228 Y114.235 E0.01763
G1 X129.088 Y114.773 E0.01744
G1 X128.910 Y115.291 E0.01718
G1 X128.695 Y115.785 E0.01688
G1 X128.444 Y116.250 E0.01655
G1 X128.160 Y116.681 E0.01619
G1 X127.845 Y117.074 E0.01581
G1 X127.500 Y117.425 E0.01544
G1 X127.128 Y117.731 E0.01509
G1 X126.734 Y117.988 E0.01476
G1 X126.319 Y118.192 E0.01449
G1 X125.889 Y118.340 E0.01427
G1 X125.447 Y118.430 E0.01413
G1 X125.000 Y118.461 E0.01405
G1 X124.553 Y118.430 E0.01405
G1 X124.111 Y118.340 E0.01413
G1 X123.681 Y118.192 E0.01427
G1 X123.266 Y117.988 E0.01449
G1 X122.872 Y117.731 E0.01476
G1 X122.500 Y117.425 E0.01509
G1 X122.155 Y117.074 E0.01544
G1 X121.840 Y116.681 E0.01581
G1 X121.556 Y116.250 E0.01619
G1 X121.305 Y115.785 E0.01655
G1 X121.090 Y115.291 E0.01688
G1 X120.912 Y114.773 E0.01718
G1 X120.772 Y114.235 E0.01744
G1 X120.671 Y113.682 E0.01763
G1 X120.610 Y113.118 E0.01777
G1 X120.590 Y112.550 E0.01783
G1 X120.610 Y111.982 E0.01783
G1 X120.671 Y111.418 E0.01777
G1 X120.772 Y110.865 E0.01763
G1 X120.912 Y110.327 E0.01744
G1 X121.090 Y109.809 E0.01718
G1 X121.305 Y109.315 E0.01688
G1 X121.556 Y108.850 E0.01655
G1 X121.840 Y108.419 E0.01619
G1 X122.155 Y108.026 E0.01581
G1 X122.500 Y107.675 E0.01544
G1 X122.872 Y107.369 E0.01509
G1 X123.213 Y107.146 E0.01279
G1 X123.267 Y106.714 F10800.000
;WIPE_START
G1 F8640.000
G1 X123.681 Y106.908 E-0.12118
G1 X124.111 Y106.760 E-0.10512
G1 X124.553 Y106.670 E-0.10394
G1 X124.959 Y106.641 E-0.09415
G1 X125.446 Y106.669 E-0.11263
G1 X125.889 Y106.760 E-0.10424
G1 X126.319 Y106.908 E-0.10512
G1 X126.734 Y107.112 E-0.10671
G1 X127.128 Y107.369 E-0.10873
G1 X127.500 Y107.675 E-0.11109
G1 X127.845 Y108.026 E-0.11370
G1 X128.160 Y108.419 E-0.11644
G1 X128.224 Y108.517 E-0.02694
;WIPE_END
G1 E-0.07000 F2100.000
G1 Z0.400 F10800.000
G1 X116.262 Y109.672
G1 Z0.200
G1 E1.40000 F2100.000
;TYPE:Perimeter
G1 F1200.000
G1 X116.450 Y110.218 E0.01811
G1 X116.597 Y110.784 E0.01833
G1 X116.703 Y111.364 E0.01850
G1 X116.766 Y111.955 E0.01862
G1 X116.787 Y112.550 E0.01868
G1 X116.766 Y113.145 E0.01868
G1 X116.703 Y113.736 E0.01862
G1 X116.597 Y114.316 E0.01850
G1 X116.450 Y114.882 E0.01833
G1 X116.262 Y115.428 E0.01811
G1 X116.034 Y115.950 E0.01785
G1 X115.768 Y116.443 E0.01756
G1 X115.465 Y116.903 E0.01726
G1 X115.127 Y117.324 E0.01695
G1 X114.755 Y117.704 E0.01665
G1 X114.352 Y118.036 E0.01638
G1 X113.920 Y118.317 E0.01614
G1 X113.464 Y118.541 E0.01594
G1 X112.988 Y118.705 E0.01579
G1 X112.498 Y118.805 E0.01569
G1 X112.000 Y118.839 E0.01564
G1 X111.502 Y118.805 E0.01564
G1 X111.012 Y118.705 E0.01569
G1 X110.536 Y118.541 E0.01579
G1 X110.080 Y118.317 E0.01594
G1 X109.648 Y118.036 E0.01614
G1 X109.245 Y117.704 E0.01638
G1 X108.873 Y117.324 E0.01665
G1 X108.535 Y116.903 E0.01695
G1 X108.232 Y116.443 E0.01726
G1 X107.966 Y115.950 E0.01756
G1 X107.738 Y115.428 E0.01785
G1 X107.550 Y114.882 E0.01811
G1 X107.403 Y114.316 E0.01833
G1 X107.297 Y113.736 E0.01850
G1 X107.234 Y113.145 E0.01862
G1 X107.213 Y112.550 E0.01868
G1 X107.234 Y111.955 E0.01868
G1 X107.297 Y111.364 E0.01862
G1 X107.403 Y110.784 E0.01850
G1 X107.550 Y110.218 E0.01833
G1 X107.738 Y109.672 E0.01811
G1 X107.966 Y109.150 E0.01785
G1 X108.232 Y108.657 E0.01756
G1 X108.535 Y108.197 E0.01726
G1 X108.873 Y107.776 E0.01695
G1 X109.245 Y107.396 E0.01665
G1 X109.648 Y107.064 E0.01638
G1 X110.080 Y106.783 E0.01614
G1 X110.536 Y106.559 E0.01594
G1 X111.012 Y106.395 E0.01579
G1 X111.501 Y106.295 E0.01566
G1 X111.957 Y106.263 E0.01432
G1 X112.495 Y106.295 E0.01690
G1 X112.988 Y106.395 E0.01577
G1 X113.464 Y106.559 E0.01579
G1 X113.920 Y106.783 E0.01594
G1 X114.352 Y107.064 E0.01614
G1 X114.755 Y107.396 E0.01638
G1 X115.127 Y107.776 E0.01665
G1 X115.465 Y108.197 E0.01695
G1 X115.768 Y108.657 E0.01726
G1 X116.034 Y109.150 E0.01756
G1 X116.238 Y109.617 E0.01597
G1 X115.892 Y109.767 F10800.000
;TYPE:External perimeter
G1 F1200.000
G1 X116.088 Y110.327 E0.01859
G1 X116.228 Y110.865 E0.01744
G1 X116.329 Y111.418 E0.01763
G1 X116.390 Y111.982 E0.01777
G1 X116.410 Y112.550 E0.01783
G1 X116.390 Y113.118 E0.01783
G1 X116.329 Y113.682 E0.01777
G1 X116.228 Y114.235 E0.01763
G1 X116.088 Y114.773 E0.01744
G1 X115.910 Y115.291 E0.01718
G1 X115.695 Y115.785 E0.01688
G1 X115.444 Y116.250 E0.01655
G1 X115.160 Y116.681 E0.01619
G1 X114.845 Y117.074 E0.01581
G1 X114.500 Y117.425 E0.01544
G1 X114.128 Y117.731 E0.01509
G1 X113.734 Y117.988 E0.01476
G1 X113.319 Y118.192 E0.01449
G1 X112.889 Y118.340 E0.01427
G1 X112.447 Y118.430 E0.01413
G1 X112.000 Y118.461 E0.01405
G1 X111.553 Y118.430 E0.01405
G1 X111.111 Y118.340 E0.01413
G1 X110.681 Y118.192 E0.01427
G1 X110.266 Y117.988 E0.01449
G1 X109.872 Y117.731 E0.01476
G1 X109.500 Y117.425 E0.01509
G1 X109.155 Y117.074 E0.01544
G1 X108.840 Y116.681 E0.01581
G1 X108.556 Y116.250 E0.01619
G1 X108.305 Y115.785 E0.01655
G1 X108.090 Y115.291 E0.01688
G1 X107.912 Y114.773 E0.01718
G1 X107.772 Y114.235 E0.01744
G1 X107.671 Y113.682 E0.01763
G1 X107.610 Y113.118 E0.01777
G1 X107.590 Y112.550 E0.01783
G1 X107.610 Y111.982 E0.01783
G1 X107.671 Y111.418 E0.01777
G1 X107.772 Y110.865 E0.01763
G1 X107.912 Y110.327 E0.01744
G1 X108.090 Y109.809 E0.01718
G1 X108.305 Y109.315 E0.01688
G1 X108.556 Y108.850 E0.01655
G1 X108.840 Y108.419 E0.01619
G1 X109.155 Y108.026 E0.01581
G1 X109.500 Y107.675 E0.01544
G1 X109.872 Y107.369 E0.01509
G1 X110.266 Y107.112 E0.01476
G1 X110.681 Y106.908 E0.01449
G1 X111.111 Y106.760 E0.01427
G1 X111.553 Y106.670 E0.01411
G1 X111.959 Y106.641 E0.01278
G1 X112.446 Y106.669 E0.01529
G1 X112.889 Y106.760 E0.01415
G1 X113.319 Y106.908 E0.01427
G1 X113.734 Y107.112 E0.01449
G1 X114.128 Y107.369 E0.01476
G1 X114.500 Y107.675 E0.01509
G1 X114.845 Y108.026 E0.01544
G1 X115.160 Y108.419 E0.01581
G1 X115.444 Y108.850 E0.01619
G1 X115.695 Y109.315 E0.01655
G1 X115.868 Y109.712 E0.01359
G1 X116.288 Y109.826 F10800.000
;WIPE_START
G1 F8640.000
G1 X116.088 Y110.327 E-0.15072
G1 X116.228 Y110.865 E-0.12840
G1 X116.329 Y111.418 E-0.12985
G1 X116.390 Y111.982 E-0.13083
G1 X116.410 Y112.550 E-0.13133
G1 X116.390 Y113.118 E-0.13133
G1 X116.329 Y113.682 E-0.13083
G1 X116.228 Y114.235 E-0.12984
G1 X116.088 Y114.773 E-0.12840
G1 X115.910 Y115.291 E-0.12655
G1 X115.889 Y115.339 E-0.01191
;WIPE_END
G1 E-0.07000 F2100.000
G1 Z0.400 F10800.000
G1 X112.988 Y123.445
G1 Z0.200
G1 E1.40000 F2100.000
;TYPE:Perimeter
G1 F1200.000
G1 X113.464 Y123.609 E0.01579
G1 X113.920 Y123.833 E0.01594
G1 X114.352 Y124.114 E0.01614
G1 X114.755 Y124.446 E0.01638
G1 X115.127 Y124.826 E0.01665
G1 X115.465 Y125.247 E0.01695
G1 X115.768 Y125.707 E0.01726
G1 X116.034 Y126.200 E0.01756
G1 X116.262 Y126.722 E0.01785
G1 X116.450 Y127.268 E0.01811
G1 X116.597 Y127.834 E0.01833
G1 X116.703 Y128.414 E0.01850
G1 X116.766 Y129.005 E0.01862
G1 X116.787 Y129.600 E0.01868
G1 X116.766 Y130.195 E0.01868
M73 Q1 S26
G1 X116.703 Y130.786 E0.01862
G1 X116.597 Y131.366 E0.01850
G1 X116.450 Y131.932 E0.01833
G1 X116.262 Y132.478 E0.01811
G1 X116.034 Y133.000 E0.01785
G1 X115.768 Y133.493 E0.01756
G1 X115.465 Y133.953 E0.01726
G1 X115.127 Y134.374 E0.01695
G1 X114.755 Y134.754 E0.01665
G1 X114.352 Y135.086 E0.01638
G1 X113.920 Y135.367 E0.01614
G1 X113.464 Y135.591 E0.01594
G1 X112.988 Y135.755 E0.01579
G1 X112.498 Y135.855 E0.01569
G1 X112.000 Y135.889 E0.01564
G1 X111.502 Y135.855 E0.01564
G1 X111.012 Y135.755 E0.01569
G1 X110.536 Y135.591 E0.01579
G1 X110.080 Y135.367 E0.01594
G1 X109.648 Y135.086 E0.01614
G1 X109.245 Y134.754 E0.01638
G1 X108.873 Y134.374 E0.01665
G1 X108.535 Y133.953 E0.01695
G1 X108.232 Y133.493 E0.01726
G1 X107.966 Y133.000 E0.01756
G1 X107.738 Y132.478 E0.01785
G1 X107.550 Y131.932 E0.01811
G1 X107.403 Y131.366 E0.01833
G1 X107.297 Y130.786 E0.01850
G1 X107.234 Y130.195 E0.01862
G1 X107.213 Y129.600 E0.01868
G1 X107.234 Y129.005 E0.01868
G1 X107.297 Y128.414 E0.01862
G1 X107.403 Y127.834 E0.01850
G1 X107.550 Y127.268 E0.01833
G1 X107.738 Y126.722 E0.01811
G1 X107.966 Y126.200 E0.01785
G1 X108.232 Y125.707 E0.01756
G1 X108.535 Y125.247 E0.01726
G1 X108.873 Y124.826 E0.01695
G1 X109.245 Y124.446 E0.01665
G1 X109.648 Y124.114 E0.01638
G1 X110.080 Y123.833 E0.01614
G1 X110.536 Y123.609 E0.01594
G1 X111.012 Y123.445 E0.01579
G1 X111.501 Y123.345 E0.01566
G1 X111.957 Y123.313 E0.01432
G1 X112.495 Y123.345 E0.01691
G1 X112.929 Y123.433 E0.01389
G1 X112.854 Y123.803 F10800.000
;TYPE:External perimeter
G1 F1200.000
G1 X113.319 Y123.958 E0.01537
G1 X113.734 Y124.162 E0.01449
G1 X114.128 Y124.419 E0.01476
G1 X114.500 Y124.725 E0.01509
G1 X114.845 Y125.076 E0.01544
G1 X115.160 Y125.469 E0.01581
G1 X115.444 Y125.900 E0.01619
G1 X115.695 Y126.365 E0.01655
G1 X115.910 Y126.859 E0.01688
G1 X116.088 Y127.377 E0.01718
G1 X116.228 Y127.915 E0.01744
G1 X116.329 Y128.468 E0.01763
G1 X116.390 Y129.032 E0.01777
G1 X116.410 Y129.600 E0.01783
G1 X116.390 Y130.168 E0.01783
G1 X116.329 Y130.732 E0.01777
G1 X116.228 Y131.285 E0.01763
G1 X116.088 Y131.823 E0.01744
G1 X115.910 Y132.341 E0.01718
G1 X115.695 Y132.835 E0.01688
G1 X115.444 Y133.300 E0.01655
G1 X115.160 Y133.731 E0.01619
G1 X114.845 Y134.124 E0.01581
G1 X114.500 Y134.475 E0.01544
G1 X114.128 Y134.781 E0.01509
G1 X113.734 Y135.038 E0.01477
G1 X113.319 Y135.242 E0.01449
G1 X112.889 Y135.390 E0.01427
G1 X112.447 Y135.480 E0.01413
G1 X112.000 Y135.511 E0.01405
G1 X111.553 Y135.480 E0.01405
G1 X111.111 Y135.390 E0.01413
G1 X110.681 Y135.242 E0.01428
G1 X110.266 Y135.038 E0.01449
G1 X109.872 Y134.781 E0.01477
G1 X109.500 Y134.475 E0.01509
G1 X109.155 Y134.124 E0.01544
G1 X108.840 Y133.731 E0.01581
G1 X108.556 Y133.300 E0.01619
G1 X108.305 Y132.835 E0.01655
G1 X108.090 Y132.341 E0.01688
G1 X107.912 Y131.823 E0.01718
G1 X107.772 Y131.285 E0.01744
G1 X107.671 Y130.732 E0.01763
G1 X107.610 Y130.168 E0.01777
G1 X107.590 Y129.600 E0.01783
G1 X107.610 Y129.032 E0.01783
G1 X107.671 Y128.468 E0.01777
G1 X107.772 Y127.915 E0.01763
G1 X107.912 Y127.377 E0.01744
G1 X108.090 Y126.859 E0.01718
G1 X108.305 Y126.365 E0.01688
G1 X108.556 Y125.900 E0.01655
G1 X108.840 Y125.469 E0.01619
G1 X109.155 Y125.076 E0.01581
G1 X109.500 Y124.725 E0.01544
G1 X109.872 Y124.419 E0.01509
G1 X110.266 Y124.162 E0.01476
G1 X110.681 Y123.958 E0.01449
G1 X111.111 Y123.810 E0.01427
G1 X111.553 Y123.720 E0.01411
