; generated by PrusaSlicer 2.3.1+win64 on 2021-07-04 at 09:17:45 UTC

; 

; external perimeters extrusion width = 0.45mm
; perimeters extrusion width = 0.45mm
; infill extrusion width = 0.45mm
; solid infill extrusion width = 0.45mm
; top infill extrusion width = 0.40mm
; first layer extrusion width = 0.42mm

M73 P0 R29
M73 Q0 S29
M201 X1000 Y1000 Z200 E5000 ; sets maximum accelerations, mm/sec^2
M203 X200 Y200 Z12 E120 ; sets maximum feedrates, mm/sec
M204 P1250 R1250 T1250 ; sets acceleration (P, T) and retract acceleration (R), mm/sec^2
M205 X8.00 Y8.00 Z0.40 E4.50 ; sets the jerk limits, mm/sec
M205 S0 T0 ; sets the minimum extruding and travel feed rate, mm/sec
M107
;TYPE:Custom
M862.3 P "MK3" ; printer model check
M862.1 P0.4 ; nozzle diameter check
M115 U3.9.3 ; tell printer latest fw version
G90 ; use absolute coordinates
M83 ; extruder relative mode
M104 S215 ; set extruder temp
M140 S60 ; set bed temp
M190 S60 ; wait for bed temp
M109 S215 ; wait for extruder temp
G28 W ; home all without mesh bed level
G80 ; mesh bed leveling
G1 Y-3.0 F1000.0 ; go outside print area
G92 E0.0
G1 X60.0 E9.0 F1000.0 ; intro line
G1 X100.0 E12.5 F1000.0 ; intro line
G92 E0.0
M221 S95

; Don't change E values below. Excessive value can damage the printer.
M907 E430 ; set extruder motor current
G21 ; set units to millimeters
G90 ; use absolute coordinates
M83 ; use relative distances for extrusion
M900 K0.05 ; Filament gcode LA 1.5
M900 K30 ; Filament gcode LA 1.0
;LAYER_CHANGE
;Z:0.2
;HEIGHT:0.2
;BEFORE_LAYER_CHANGE
G92 E0.0
;0.2


G1 E-0.80000 F2100.000
G1 Z0.400 F10800.000
;AFTER_LAYER_CHANGE
;0.2
G1 X61.241 Y69.344
G1 Z0.200
G1 E0.80000 F2100.000
M204 S1000
;TYPE:Skirt
;WIDTH:0.42
G1 F1200.000
G1 X62.015 Y68.696 E0.03165
G1 X62.925 Y68.279 E0.03137
G1 X63.845 Y68.118 E0.02929
G1 X102.485 Y68.120 E1.21152
G1 X103.175 Y68.229 E0.02189
G1 X103.872 Y68.481 E0.02326
G1 X104.535 Y68.886 E0.02435
G1 X105.170 Y69.495 E0.02759
G1 X105.593 Y70.129 E0.02388
G1 X105.888 Y70.857 E0.02463
G1 X106.026 Y71.639 E0.02491
G1 X106.036 Y138.422 E2.09393
G1 X105.930 Y139.302 E0.02779
G1 X105.610 Y140.158 E0.02866
G1 X105.156 Y140.840 E0.02570
G1 X104.551 Y141.422 E0.02631
G1 X103.824 Y141.860 E0.02662
G1 X103.068 Y142.114 E0.02499
G1 X98.004 Y143.035 E0.16139
G1 X94.705 Y143.499 E0.10447
G1 X91.391 Y143.847 E0.10446
G1 X86.458 Y144.148 E0.15499
G1 X83.141 Y144.206 E0.10400
G1 X79.828 Y144.148 E0.10388
G1 X76.520 Y143.975 E0.10388
G1 X73.235 Y143.688 E0.10340
G1 X69.931 Y143.283 E0.10435
G1 X66.663 Y142.765 E0.10376
G1 X63.166 Y142.104 E0.11157
G1 X62.302 Y141.785 E0.02890
G1 X61.437 Y141.174 E0.03320
G1 X60.778 Y140.351 E0.03307
G1 X60.397 Y139.480 E0.02980
G1 X60.243 Y138.460 E0.03235
G1 X60.242 Y71.893 E2.08718
M73 P1 R29
M73 Q1 S29
G1 X60.361 Y70.966 E0.02928
G1 X60.716 Y70.074 E0.03009
G1 X61.206 Y69.392 E0.02633
; printing object C:/Users/User/AppData/Local/Temp/Neutron/02f72660-a6b9-4d95-8c90-46ed86e08df0.stl id:0 copy 0
;WIPE_START
G1 F8640.000
G1 X62.015 Y68.696 E-0.24652
G1 X62.925 Y68.279 E-0.23104
G1 X63.845 Y68.118 E-0.21573
G1 X64.134 Y68.118 E-0.06670
;WIPE_END
G1 E-0.04000 F2100.000
G1 Z0.600 F10800.000
G1 X81.019 Y107.945
G1 Z0.200
G1 E0.80000 F2100.000
;TYPE:Perimeter
G1 F1200.000
G1 X81.475 Y107.721 E0.01594
G1 X81.951 Y107.557 E0.01579
G1 X82.441 Y107.457 E0.01566
G1 X82.896 Y107.425 E0.01432
G1 X83.435 Y107.456 E0.01691
G1 X83.927 Y107.557 E0.01577
G1 X84.404 Y107.721 E0.01579
G1 X84.860 Y107.945 E0.01594
G1 X85.291 Y108.226 E0.01614
G1 X85.694 Y108.558 E0.01638
G1 X86.066 Y108.937 E0.01665
G1 X86.405 Y109.359 E0.01695
G1 X86.708 Y109.819 E0.01726
G1 X86.974 Y110.312 E0.01756
G1 X87.201 Y110.833 E0.01785
G1 X87.389 Y111.380 E0.01811
G1 X87.536 Y111.945 E0.01833
G1 X87.642 Y112.526 E0.01850
G1 X87.706 Y113.116 E0.01862
G1 X87.727 Y113.712 E0.01868
G1 X87.706 Y114.307 E0.01868
G1 X87.642 Y114.898 E0.01862
G1 X87.536 Y115.478 E0.01850
G1 X87.389 Y116.044 E0.01833
G1 X87.201 Y116.590 E0.01811
G1 X86.974 Y117.112 E0.01785
G1 X86.708 Y117.605 E0.01756
G1 X86.405 Y118.065 E0.01726
G1 X86.066 Y118.486 E0.01695
G1 X85.694 Y118.866 E0.01665
G1 X85.291 Y119.198 E0.01638
G1 X84.860 Y119.478 E0.01614
G1 X84.404 Y119.703 E0.01594
G1 X83.927 Y119.867 E0.01579
G1 X83.437 Y119.967 E0.01569
G1 X82.939 Y120.000 E0.01564
G1 X82.442 Y119.967 E0.01564
G1 X81.951 Y119.867 E0.01569
G1 X81.475 Y119.703 E0.01579
G1 X81.019 Y119.478 E0.01594
G1 X80.588 Y119.198 E0.01614
G1 X80.184 Y118.865 E0.01638
G1 X79.812 Y118.486 E0.01665
G1 X79.474 Y118.065 E0.01695
G1 X79.171 Y117.605 E0.01726
G1 X78.905 Y117.112 E0.01756
G1 X78.678 Y116.590 E0.01785
G1 X78.490 Y116.044 E0.01811
G1 X78.343 Y115.478 E0.01833
G1 X78.237 Y114.898 E0.01850
G1 X78.173 Y114.307 E0.01862
G1 X78.152 Y113.712 E0.01868
G1 X78.173 Y113.116 E0.01868
G1 X78.237 Y112.526 E0.01862
G1 X78.343 Y111.945 E0.01850
G1 X78.490 Y111.380 E0.01833
G1 X78.678 Y110.833 E0.01811
G1 X78.905 Y110.312 E0.01785
G1 X79.171 Y109.819 E0.01756
G1 X79.474 Y109.359 E0.01726
G1 X79.812 Y108.937 E0.01695
G1 X80.184 Y108.558 E0.01665
G1 X80.588 Y108.226 E0.01638
G1 X80.969 Y107.978 E0.01426
G1 X81.174 Y108.294 F10800.000
;TYPE:External perimeter
G1 F1200.000
G1 X81.620 Y108.070 E0.01566
G1 X82.051 Y107.921 E0.01427
G1 X82.492 Y107.831 E0.01411
G1 X82.899 Y107.803 E0.01278
G1 X83.386 Y107.831 E0.01529
G1 X83.828 Y107.921 E0.01415
G1 X84.258 Y108.070 E0.01427
G1 X84.673 Y108.274 E0.01449
G1 X85.068 Y108.530 E0.01476
G1 X85.439 Y108.836 E0.01509
G1 X85.784 Y109.188 E0.01544
G1 X86.099 Y109.581 E0.01581
G1 X86.384 Y110.012 E0.01619
G1 X86.634 Y110.477 E0.01655
G1 X86.849 Y110.970 E0.01688
G1 X87.028 Y111.489 E0.01718
G1 X87.168 Y112.027 E0.01744
G1 X87.268 Y112.580 E0.01763
G1 X87.329 Y113.143 E0.01777
G1 X87.350 Y113.712 E0.01783
G1 X87.329 Y114.280 E0.01783
G1 X87.268 Y114.844 E0.01777
G1 X87.168 Y115.397 E0.01763
G1 X87.028 Y115.935 E0.01744
G1 X86.849 Y116.453 E0.01718
G1 X86.634 Y116.947 E0.01688
G1 X86.384 Y117.411 E0.01655
G1 X86.099 Y117.842 E0.01619
G1 X85.784 Y118.236 E0.01581
G1 X85.439 Y118.587 E0.01544
G1 X85.068 Y118.893 E0.01509
G1 X84.673 Y119.150 E0.01476
G1 X84.258 Y119.354 E0.01449
G1 X83.828 Y119.502 E0.01427
G1 X83.386 Y119.592 E0.01413
G1 X82.939 Y119.622 E0.01405
G1 X82.492 Y119.592 E0.01405
G1 X82.051 Y119.502 E0.01413
G1 X81.620 Y119.354 E0.01427
G1 X81.206 Y119.150 E0.01449
G1 X80.811 Y118.893 E0.01476
G1 X80.440 Y118.587 E0.01509
G1 X80.095 Y118.236 E0.01544
G1 X79.779 Y117.842 E0.01581
G1 X79.495 Y117.411 E0.01619
G1 X79.245 Y116.947 E0.01655
G1 X79.029 Y116.453 E0.01688
G1 X78.851 Y115.935 E0.01718
G1 X78.711 Y115.397 E0.01744
G1 X78.610 Y114.844 E0.01763
G1 X78.550 Y114.280 E0.01777
G1 X78.529 Y113.712 E0.01783
G1 X78.550 Y113.143 E0.01783
G1 X78.610 Y112.580 E0.01777
G1 X78.711 Y112.027 E0.01763
G1 X78.851 Y111.489 E0.01744
G1 X79.029 Y110.970 E0.01718
G1 X79.245 Y110.477 E0.01688
G1 X79.495 Y110.012 E0.01655
G1 X79.779 Y109.581 E0.01619
G1 X80.095 Y109.188 E0.01581
G1 X80.440 Y108.836 E0.01544
G1 X80.811 Y108.530 E0.01509
G1 X81.124 Y108.327 E0.01171
G1 X81.175 Y107.894 F10800.000
;WIPE_START
G1 F8640.000
G1 X81.620 Y108.070 E-0.12909
G1 X82.051 Y107.921 E-0.10512
G1 X82.492 Y107.831 E-0.10394
G1 X82.899 Y107.803 E-0.09415
G1 X83.386 Y107.831 E-0.11263
G1 X83.828 Y107.921 E-0.10424
G1 X84.258 Y108.070 E-0.10512
G1 X84.281 Y108.081 E-0.00571
;WIPE_END
G1 E-0.04000 F2100.000
G1 Z0.600 F10800.000
G1 X74.601 Y110.831
G1 Z0.200
G1 E0.80000 F2100.000
;TYPE:Perimeter
G1 F1200.000
G1 X74.789 Y111.377 E0.01811
G1 X74.936 Y111.943 E0.01833
G1 X75.042 Y112.523 E0.01850
G1 X75.106 Y113.114 E0.01862
G1 X75.127 Y113.709 E0.01868
G1 X75.106 Y114.304 E0.01868
G1 X75.042 Y114.895 E0.01862
G1 X74.936 Y115.475 E0.01850
G1 X74.789 Y116.041 E0.01833
G1 X74.601 Y116.587 E0.01811
G1 X74.373 Y117.109 E0.01785
G1 X74.108 Y117.602 E0.01756
G1 X73.805 Y118.062 E0.01726
G1 X73.466 Y118.483 E0.01695
G1 X73.094 Y118.863 E0.01665
G1 X72.691 Y119.195 E0.01638
G1 X72.260 Y119.475 E0.01614
G1 X71.804 Y119.700 E0.01594
G1 X71.327 Y119.864 E0.01579
G1 X70.837 Y119.964 E0.01569
G1 X70.339 Y119.998 E0.01564
G1 X69.842 Y119.964 E0.01564
G1 X69.351 Y119.864 E0.01569
G1 X68.875 Y119.700 E0.01579
G1 X68.419 Y119.476 E0.01594
G1 X67.987 Y119.195 E0.01614
G1 X67.584 Y118.863 E0.01638
G1 X67.212 Y118.483 E0.01665
G1 X66.874 Y118.062 E0.01695
G1 X66.571 Y117.602 E0.01726
G1 X66.305 Y117.109 E0.01756
G1 X66.078 Y116.587 E0.01785
G1 X65.890 Y116.041 E0.01811
G1 X65.743 Y115.475 E0.01833
G1 X65.637 Y114.895 E0.01850
G1 X65.573 Y114.304 E0.01862
G1 X65.552 Y113.709 E0.01868
G1 X65.573 Y113.114 E0.01868
G1 X65.637 Y112.523 E0.01862
G1 X65.743 Y111.943 E0.01850
G1 X65.890 Y111.377 E0.01833
G1 X66.078 Y110.831 E0.01811
G1 X66.305 Y110.309 E0.01785
G1 X66.571 Y109.816 E0.01756
G1 X66.874 Y109.356 E0.01726
G1 X67.212 Y108.934 E0.01695
G1 X67.584 Y108.555 E0.01665
G1 X67.987 Y108.223 E0.01638
G1 X68.419 Y107.942 E0.01614
G1 X68.875 Y107.718 E0.01594
G1 X69.351 Y107.554 E0.01579
G1 X69.841 Y107.454 E0.01566
G1 X70.296 Y107.422 E0.01432
G1 X70.835 Y107.454 E0.01691
G1 X71.327 Y107.554 E0.01577
G1 X71.804 Y107.718 E0.01579
G1 X72.260 Y107.942 E0.01594
G1 X72.691 Y108.223 E0.01614
G1 X73.094 Y108.555 E0.01638
G1 X73.466 Y108.935 E0.01665
G1 X73.805 Y109.356 E0.01695
G1 X74.108 Y109.816 E0.01726
G1 X74.373 Y110.309 E0.01756
G1 X74.577 Y110.776 E0.01597
G1 X74.231 Y110.926 F10800.000
;TYPE:External perimeter
G1 F1200.000
G1 X74.428 Y111.486 E0.01859
G1 X74.568 Y112.024 E0.01744
G1 X74.668 Y112.577 E0.01763
G1 X74.729 Y113.141 E0.01777
G1 X74.750 Y113.709 E0.01783
G1 X74.729 Y114.277 E0.01783
G1 X74.668 Y114.841 E0.01777
G1 X74.568 Y115.394 E0.01763
G1 X74.428 Y115.932 E0.01744
G1 X74.249 Y116.450 E0.01718
G1 X74.034 Y116.944 E0.01688
G1 X73.784 Y117.409 E0.01655
G1 X73.499 Y117.840 E0.01619
G1 X73.184 Y118.233 E0.01581
G1 X72.839 Y118.584 E0.01544
G1 X72.468 Y118.890 E0.01509
G1 X72.073 Y119.147 E0.01476
G1 X71.658 Y119.351 E0.01449
G1 X71.228 Y119.499 E0.01427
G1 X70.786 Y119.589 E0.01413
G1 X70.339 Y119.620 E0.01405
G1 X69.892 Y119.589 E0.01405
G1 X69.451 Y119.499 E0.01413
G1 X69.020 Y119.351 E0.01427
G1 X68.606 Y119.147 E0.01449
G1 X68.211 Y118.890 E0.01476
G1 X67.840 Y118.584 E0.01509
G1 X67.495 Y118.233 E0.01544
G1 X67.179 Y117.840 E0.01581
G1 X66.895 Y117.409 E0.01619
G1 X66.645 Y116.944 E0.01655
G1 X66.429 Y116.450 E0.01688
G1 X66.251 Y115.932 E0.01718
G1 X66.111 Y115.394 E0.01744
G1 X66.010 Y114.841 E0.01763
G1 X65.949 Y114.277 E0.01777
G1 X65.929 Y113.709 E0.01783
G1 X65.949 Y113.141 E0.01783
G1 X66.010 Y112.577 E0.01777
G1 X66.111 Y112.024 E0.01763
G1 X66.251 Y111.486 E0.01744
G1 X66.429 Y110.968 E0.01718
G1 X66.645 Y110.474 E0.01688
G1 X66.895 Y110.009 E0.01655
G1 X67.179 Y109.578 E0.01619
G1 X67.495 Y109.185 E0.01581
G1 X67.840 Y108.834 E0.01544
G1 X68.211 Y108.528 E0.01509
G1 X68.606 Y108.271 E0.01476
G1 X69.020 Y108.067 E0.01449
G1 X69.451 Y107.919 E0.01427
G1 X69.892 Y107.829 E0.01411
G1 X70.299 Y107.800 E0.01278
G1 X70.786 Y107.828 E0.01529
G1 X71.228 Y107.919 E0.01415
G1 X71.658 Y108.067 E0.01427
G1 X72.073 Y108.271 E0.01449
G1 X72.468 Y108.528 E0.01476
G1 X72.839 Y108.834 E0.01509
G1 X73.184 Y109.185 E0.01544
G1 X73.499 Y109.578 E0.01581
G1 X73.784 Y110.009 E0.01619
G1 X74.034 Y110.474 E0.01655
G1 X74.207 Y110.871 E0.01359
G1 X74.627 Y110.985 F10800.000
;WIPE_START
G1 F8640.000
G1 X74.428 Y111.486 E-0.15072
G1 X74.568 Y112.024 E-0.12840
G1 X74.668 Y112.577 E-0.12985
G1 X74.729 Y113.141 E-0.13083
G1 X74.750 Y113.709 E-0.13133
G1 X74.736 Y114.094 E-0.08887
;WIPE_END
G1 E-0.04000 F2100.000
G1 Z0.600 F10800.000
G1 X71.327 Y124.604
G1 Z0.200
G1 E0.80000 F2100.000
;TYPE:Perimeter
G1 F1200.000
G1 X71.804 Y124.768 E0.01579
G1 X72.260 Y124.992 E0.01594
G1 X72.691 Y125.273 E0.01614
G1 X73.094 Y125.605 E0.01638
G1 X73.466 Y125.985 E0.01665
G1 X73.805 Y126.406 E0.01695
G1 X74.108 Y126.866 E0.01726
G1 X74.373 Y127.359 E0.01756
G1 X74.601 Y127.881 E0.01785
G1 X74.789 Y128.427 E0.01811
G1 X74.936 Y128.993 E0.01833
G1 X75.042 Y129.573 E0.01850
G1 X75.106 Y130.164 E0.01862
G1 X75.127 Y130.759 E0.01868
G1 X75.106 Y131.354 E0.01868
G1 X75.042 Y131.945 E0.01862
G1 X74.936 Y132.525 E0.01850
G1 X74.789 Y133.091 E0.01833
G1 X74.601 Y133.637 E0.01811
G1 X74.373 Y134.159 E0.01785
G1 X74.108 Y134.652 E0.01756
G1 X73.805 Y135.112 E0.01726
G1 X73.466 Y135.533 E0.01695
G1 X73.094 Y135.913 E0.01665
G1 X72.691 Y136.245 E0.01638
G1 X72.260 Y136.526 E0.01614
G1 X71.804 Y136.750 E0.01594
G1 X71.327 Y136.914 E0.01579
G1 X70.837 Y137.014 E0.01569
G1 X70.339 Y137.048 E0.01564
G1 X69.842 Y137.014 E0.01564
G1 X69.351 Y136.914 E0.01569
G1 X68.875 Y136.750 E0.01579
G1 X68.419 Y136.526 E0.01594
G1 X67.987 Y136.245 E0.01614
G1 X67.584 Y135.913 E0.01638
G1 X67.212 Y135.533 E0.01665
G1 X66.874 Y135.112 E0.01695
G1 X66.571 Y134.652 E0.01726
G1 X66.305 Y134.159 E0.01756
G1 X66.078 Y133.637 E0.01785
G1 X65.890 Y133.091 E0.01811
G1 X65.743 Y132.525 E0.01833
G1 X65.637 Y131.945 E0.01850
G1 X65.573 Y131.354 E0.01862
G1 X65.552 Y130.759 E0.01868
G1 X65.573 Y130.164 E0.01868
G1 X65.637 Y129.573 E0.01862
G1 X65.743 Y128.993 E0.01850
G1 X65.890 Y128.427 E0.01833
G1 X66.078 Y127.881 E0.01811
G1 X66.305 Y127.359 E0.01785
G1 X66.571 Y126.866 E0.01756
G1 X66.874 Y126.406 E0.01726
G1 X67.212 Y125.984 E0.01695
G1 X67.584 Y125.605 E0.01665
G1 X67.987 Y125.273 E0.01638
G1 X68.419 Y124.992 E0.01614
G1 X68.875 Y124.768 E0.01594
G1 X69.351 Y124.604 E0.01579
G1 X69.841 Y124.504 E0.01566
G1 X70.296 Y124.472 E0.01432
G1 X70.835 Y124.504 E0.01691
G1 X71.269 Y124.592 E0.01389
G1 X71.193 Y124.962 F10800.000
;TYPE:External perimeter
G1 F1200.000
G1 X71.658 Y125.117 E0.01537
G1 X72.073 Y125.321 E0.01449
G1 X72.468 Y125.578 E0.01476
G1 X72.839 Y125.884 E0.01509
G1 X73.184 Y126.235 E0.01544
G1 X73.499 Y126.628 E0.01581
G1 X73.784 Y127.059 E0.01619
G1 X74.034 Y127.524 E0.01655
G1 X74.249 Y128.018 E0.01688
G1 X74.428 Y128.536 E0.01718
G1 X74.568 Y129.074 E0.01744
G1 X74.668 Y129.627 E0.01763
G1 X74.729 Y130.191 E0.01777
G1 X74.750 Y130.759 E0.01783
G1 X74.729 Y131.327 E0.01783
G1 X74.668 Y131.891 E0.01777
G1 X74.568 Y132.444 E0.01763
G1 X74.428 Y132.982 E0.01744
G1 X74.249 Y133.500 E0.01718
G1 X74.034 Y133.994 E0.01688
G1 X73.784 Y134.459 E0.01655
G1 X73.499 Y134.890 E0.01619
G1 X73.184 Y135.283 E0.01581
G1 X72.839 Y135.634 E0.01544
G1 X72.468 Y135.940 E0.01509
G1 X72.073 Y136.197 E0.01476
G1 X71.658 Y136.401 E0.01449
G1 X71.228 Y136.549 E0.01427
G1 X70.786 Y136.639 E0.01413
G1 X70.339 Y136.670 E0.01405
G1 X69.892 Y136.639 E0.01405
G1 X69.451 Y136.549 E0.01413
G1 X69.020 Y136.401 E0.01427
G1 X68.606 Y136.197 E0.01449
G1 X68.211 Y135.940 E0.01476
G1 X67.840 Y135.634 E0.01509
G1 X67.495 Y135.283 E0.01544
G1 X67.179 Y134.890 E0.01581
G1 X66.895 Y134.459 E0.01619
G1 X66.645 Y133.994 E0.01655
G1 X66.429 Y133.500 E0.01688
G1 X66.251 Y132.982 E0.01718
G1 X66.111 Y132.444 E0.01744
G1 X66.010 Y131.891 E0.01763
G1 X65.949 Y131.327 E0.01777
G1 X65.929 Y130.759 E0.01783
G1 X65.949 Y130.191 E0.01783
G1 X66.010 Y129.627 E0.01777
G1 X66.111 Y129.074 E0.01763
G1 X66.251 Y128.536 E0.01744
G1 X66.429 Y128.018 E0.01718
G1 X66.645 Y127.524 E0.01688
G1 X66.895 Y127.059 E0.01655
G1 X67.179 Y126.628 E0.01619
G1 X67.495 Y126.235 E0.01581
G1 X67.840 Y125.884 E0.01544
G1 X68.211 Y125.578 E0.01509
G1 X68.606 Y125.321 E0.01476
G1 X69.020 Y125.117 E0.01449
G1 X69.451 Y124.969 E0.01427
G1 X69.892 Y124.879 E0.01411
G1 X70.299 Y124.850 E0.01278
G1 X70.786 Y124.878 E0.01529
G1 X71.134 Y124.950 E0.01116
G1 X71.475 Y124.677 F10800.000
;WIPE_START
G1 F8640.000
G1 X71.658 Y125.117 E-0.12699
G1 X72.073 Y125.321 E-0.10671
G1 X72.468 Y125.578 E-0.10873
G1 X72.839 Y125.884 E-0.11110
G1 X73.184 Y126.235 E-0.11370
G1 X73.499 Y126.628 E-0.11644
G1 X73.681 Y126.904 E-0.07634
;WIPE_END
G1 E-0.04000 F2100.000
G1 Z0.600 F10800.000
G1 X78.678 Y127.883
G1 Z0.200
G1 E0.80000 F2100.000
;TYPE:Perimeter
G1 F1200.000
G1 X78.905 Y127.362 E0.01785
G1 X79.171 Y126.869 E0.01756
G1 X79.474 Y126.409 E0.01726
G1 X79.812 Y125.987 E0.01695
G1 X80.184 Y125.608 E0.01665
G1 X80.588 Y125.276 E0.01638
G1 X81.019 Y124.995 E0.01614
