; generated by PrusaSlicer 2.3.1+win64 on 2021-08-02 at 15:32:30 UTC

; 

; external perimeters extrusion width = 0.45mm
; perimeters extrusion width = 0.45mm
; infill extrusion width = 0.45mm
; solid infill extrusion width = 0.45mm
; top infill extrusion width = 0.40mm
; first layer extrusion width = 0.42mm

M73 P0 R26
M73 Q0 S26
M201 X1000 Y1000 Z200 E5000 ; sets maximum accelerations, mm/sec^2
M203 X200 Y200 Z12 E120 ; sets maximum feedrates, mm/sec
M204 P1250 R1250 T1250 ; sets acceleration (P, T) and retract acceleration (R), mm/sec^2
M205 X8.00 Y8.00 Z0.40 E4.50 ; sets the jerk limits, mm/sec
M205 S0 T0 ; sets the minimum extruding and travel feed rate, mm/sec
M107
;TYPE:Custom
M862.3 P "MK3" ; printer model check
M862.1 P0.4 ; nozzle diameter check
M115 U3.9.3 ; tell printer latest fw version
G90 ; use absolute coordinates
M83 ; extruder relative mode
M104 S230 ; set extruder temp
M140 S85 ; set bed temp
M190 S85 ; wait for bed temp
M109 S230 ; wait for extruder temp
G28 W ; home all without mesh bed level
G80 ; mesh bed leveling
G1 Y-3.0 F1000.0 ; go outside print area
G92 E0.0
G1 X60.0 E9.0 F1000.0 ; intro line
G1 X100.0 E12.5 F1000.0 ; intro line
G92 E0.0
M221 S95

; Don't change E values below. Excessive value can damage the printer.
M907 E430 ; set extruder motor current
G21 ; set units to millimeters
G90 ; use absolute coordinates
M83 ; use relative distances for extrusion
M900 K0.08 ; Filament gcode LA 1.5
M900 K45 ; Filament gcode LA 1.0
;LAYER_CHANGE
;Z:0.2
;HEIGHT:0.2
;BEFORE_LAYER_CHANGE
G92 E0.0
;0.2


G1 E-1.40000 F2100.000
G1 Z0.200 F10800.000
;AFTER_LAYER_CHANGE
;0.2
G1 Z0.400
G1 X103.876 Y67.537
G1 Z0.200
G1 E1.40000 F2100.000
M204 S1000
;TYPE:Skirt
;WIDTH:0.42
G1 F1200.000
G1 X104.786 Y67.120 E0.03137
G1 X105.706 Y66.959 E0.02929
G1 X144.346 Y66.961 E1.21152
G1 X145.035 Y67.070 E0.02190
G1 X145.733 Y67.322 E0.02326
G1 X146.396 Y67.727 E0.02435
G1 X147.030 Y68.336 E0.02759
G1 X147.454 Y68.970 E0.02389
G1 X147.748 Y69.698 E0.02462
G1 X147.887 Y70.480 E0.02491
G1 X147.897 Y137.266 E2.09405
G1 X147.791 Y138.143 E0.02767
G1 X147.472 Y138.995 E0.02855
G1 X147.019 Y139.678 E0.02569
G1 X146.411 Y140.263 E0.02643
G1 X145.684 Y140.701 E0.02662
G1 X144.929 Y140.955 E0.02499
G1 X139.865 Y141.876 E0.16139
G1 X136.565 Y142.340 E0.10447
G1 X133.252 Y142.688 E0.10446
G1 X128.318 Y142.989 E0.15499
G1 X125.002 Y143.047 E0.10400
G1 X121.689 Y142.989 E0.10388
G1 X118.380 Y142.816 E0.10388
G1 X115.095 Y142.529 E0.10340
G1 X111.792 Y142.124 E0.10435
G1 X108.524 Y141.606 E0.10375
G1 X105.031 Y140.946 E0.11145
G1 X104.163 Y140.626 E0.02902
G1 X103.295 Y140.013 E0.03331
G1 X102.638 Y139.192 E0.03294
G1 X102.258 Y138.322 E0.02980
G1 X102.104 Y137.301 E0.03235
G1 X102.103 Y70.734 E2.08719
M73 P1 R26
M73 Q1 S26
G1 X102.222 Y69.807 E0.02928
G1 X102.577 Y68.916 E0.03009
G1 X103.101 Y68.185 E0.02821
G1 X103.830 Y67.576 E0.02977
; printing object Holder Tray #1 (2xSD & 2xTF).stl id:0 copy 0
;WIPE_START
G1 F8640.000
G1 X104.786 Y67.120 E-0.24445
G1 X105.706 Y66.959 E-0.21574
G1 X109.473 Y66.959 E-0.86982
;WIPE_END
G1 E-0.07000 F2100.000
G1 Z0.400 F10800.000
G1 X118.646 Y102.473
G1 Z0.200
G1 E1.40000 F2100.000
;TYPE:Perimeter
G1 F1200.000
G1 X119.014 Y102.317 E0.01253
G1 X120.131 Y101.943 E0.03692
G1 X120.719 Y101.782 E0.01912
G1 X121.897 Y101.529 E0.03776
G1 X123.102 Y101.360 E0.03816
G1 X123.720 Y101.306 E0.01947
G1 X124.442 Y101.271 E0.02266
G1 X125.567 Y101.273 E0.03525
G1 X126.793 Y101.359 E0.03855
G1 X127.998 Y101.529 E0.03816
G1 X128.604 Y101.647 E0.01936
G1 X129.764 Y101.941 E0.03752
G1 X130.886 Y102.317 E0.03709
G1 X131.948 Y102.768 E0.03619
G1 X132.470 Y103.029 E0.01829
G1 X133.435 Y103.589 E0.03497
G1 X134.327 Y104.221 E0.03428
G1 X135.127 Y104.912 E0.03315
G1 X135.500 Y105.288 E0.01660
G1 X135.844 Y105.672 E0.01616
G1 X136.162 Y106.069 E0.01595
G1 X136.453 Y106.479 E0.01576
G1 X136.716 Y106.900 E0.01558
G1 X136.951 Y107.332 E0.01541
G1 X137.157 Y107.773 E0.01526
G1 X137.333 Y108.222 E0.01513
G1 X137.478 Y108.679 E0.01502
G1 X137.591 Y109.141 E0.01493
G1 X137.672 Y109.608 E0.01486
G1 X137.721 Y110.078 E0.01482
G1 X137.738 Y110.550 E0.01479
G1 X137.721 Y111.022 E0.01479
G1 X137.672 Y111.492 E0.01482
G1 X137.591 Y111.959 E0.01486
G1 X137.478 Y112.421 E0.01493
G1 X137.333 Y112.878 E0.01502
G1 X137.157 Y113.327 E0.01513
G1 X136.951 Y113.768 E0.01526
G1 X136.716 Y114.200 E0.01541
G1 X136.453 Y114.621 E0.01558
G1 X136.162 Y115.031 E0.01576
G1 X135.844 Y115.428 E0.01595
G1 X135.500 Y115.812 E0.01616
G1 X135.127 Y116.188 E0.01660
G1 X134.332 Y116.874 E0.03293
G1 X133.885 Y117.207 E0.01747
G1 X132.959 Y117.801 E0.03451
G1 X131.954 Y118.329 E0.03559
G1 X130.886 Y118.783 E0.03639
G1 X129.764 Y119.159 E0.03709
G1 X128.599 Y119.454 E0.03769
G1 X127.401 Y119.666 E0.03815
G1 X126.186 Y119.794 E0.03830
G1 X125.563 Y119.827 E0.01957
G1 X124.642 Y119.832 E0.02887
G1 X123.717 Y119.794 E0.02902
G1 X122.499 Y119.666 E0.03841
G1 X121.306 Y119.455 E0.03798
G1 X120.709 Y119.315 E0.01925
G1 X119.569 Y118.981 E0.03724
G1 X118.478 Y118.568 E0.03656
G1 X117.941 Y118.326 E0.01848
G1 X116.941 Y117.801 E0.03540
G1 X116.009 Y117.203 E0.03473
G1 X115.165 Y116.543 E0.03360
G1 X114.768 Y116.183 E0.01681
G1 X114.399 Y115.812 E0.01637
G1 X114.056 Y115.428 E0.01616
G1 X113.738 Y115.031 E0.01595
G1 X113.447 Y114.621 E0.01576
G1 X113.184 Y114.200 E0.01558
G1 X112.949 Y113.768 E0.01541
G1 X112.743 Y113.327 E0.01526
G1 X112.567 Y112.878 E0.01513
G1 X112.422 Y112.421 E0.01502
G1 X112.309 Y111.959 E0.01493
G1 X112.228 Y111.492 E0.01486
G1 X112.179 Y111.022 E0.01482
G1 X112.162 Y110.550 E0.01479
G1 X112.179 Y110.078 E0.01479
G1 X112.228 Y109.608 E0.01482
G1 X112.309 Y109.141 E0.01486
G1 X112.422 Y108.679 E0.01493
G1 X112.567 Y108.222 E0.01502
G1 X112.743 Y107.773 E0.01513
G1 X112.949 Y107.332 E0.01526
G1 X113.184 Y106.900 E0.01541
G1 X113.447 Y106.479 E0.01558
G1 X113.738 Y106.069 E0.01576
G1 X114.056 Y105.672 E0.01595
G1 X114.399 Y105.288 E0.01616
G1 X114.773 Y104.912 E0.01660
G1 X115.573 Y104.221 E0.03315
G1 X116.465 Y103.589 E0.03428
G1 X117.430 Y103.029 E0.03497
G1 X117.952 Y102.768 E0.01829
G1 X118.591 Y102.497 E0.02178
G1 X118.738 Y102.844 F10800.000
;TYPE:External perimeter
G1 F1200.000
G1 X119.148 Y102.670 E0.01395
G1 X120.240 Y102.304 E0.03613
G1 X120.808 Y102.149 E0.01846
G1 X121.963 Y101.901 E0.03701
G1 X123.145 Y101.734 E0.03743
G1 X123.746 Y101.682 E0.01892
G1 X124.451 Y101.649 E0.02214
G1 X125.553 Y101.650 E0.03456
G1 X126.754 Y101.734 E0.03773
G1 X127.936 Y101.901 E0.03742
G1 X128.521 Y102.015 E0.01872
G1 X129.658 Y102.303 E0.03675
G1 X130.752 Y102.670 E0.03619
G1 X131.790 Y103.111 E0.03537
G1 X132.291 Y103.361 E0.01755
G1 X133.231 Y103.907 E0.03407
G1 X134.094 Y104.519 E0.03319
G1 X134.870 Y105.188 E0.03213
G1 X135.226 Y105.546 E0.01583
G1 X135.556 Y105.915 E0.01552
G1 X135.861 Y106.296 E0.01529
G1 X136.139 Y106.688 E0.01508
G1 X136.391 Y107.090 E0.01487
G1 X136.615 Y107.502 E0.01469
G1 X136.810 Y107.921 E0.01452
G1 X136.977 Y108.348 E0.01437
G1 X137.114 Y108.781 E0.01424
G1 X137.222 Y109.219 E0.01413
G1 X137.299 Y109.660 E0.01406
G1 X137.345 Y110.105 E0.01400
G1 X137.360 Y110.550 E0.01397
G1 X137.345 Y110.995 E0.01397
G1 X137.299 Y111.440 E0.01400
G1 X137.222 Y111.881 E0.01406
G1 X137.114 Y112.319 E0.01413
G1 X136.977 Y112.752 E0.01424
G1 X136.810 Y113.179 E0.01437
G1 X136.615 Y113.598 E0.01452
G1 X136.391 Y114.010 E0.01469
G1 X136.139 Y114.412 E0.01487
G1 X135.861 Y114.804 E0.01508
G1 X135.556 Y115.185 E0.01529
G1 X135.226 Y115.554 E0.01552
G1 X134.870 Y115.912 E0.01583
G1 X134.096 Y116.580 E0.03205
G1 X133.670 Y116.896 E0.01663
G1 X132.769 Y117.475 E0.03359
G1 X131.792 Y117.988 E0.03459
G1 X130.752 Y118.430 E0.03544
G1 X129.658 Y118.797 E0.03619
G1 X128.520 Y119.085 E0.03681
G1 X127.348 Y119.293 E0.03730
G1 X126.157 Y119.418 E0.03757
G1 X125.552 Y119.450 E0.01899
G1 X124.648 Y119.455 E0.02833
G1 X123.745 Y119.418 E0.02836
G1 X122.552 Y119.293 E0.03761
G1 X121.382 Y119.085 E0.03724
G1 X120.805 Y118.950 E0.01860
G1 X119.689 Y118.623 E0.03646
G1 X118.622 Y118.219 E0.03576
G1 X118.106 Y117.987 E0.01776
G1 X117.131 Y117.475 E0.03452
G1 X116.227 Y116.895 E0.03367
G1 X115.408 Y116.254 E0.03262
G1 X115.028 Y115.910 E0.01607
G1 X114.674 Y115.554 E0.01575
G1 X114.344 Y115.185 E0.01552
G1 X114.039 Y114.804 E0.01529
G1 X113.761 Y114.412 E0.01508
G1 X113.509 Y114.010 E0.01487
G1 X113.285 Y113.598 E0.01469
G1 X113.090 Y113.179 E0.01452
G1 X112.923 Y112.752 E0.01437
G1 X112.786 Y112.319 E0.01424
G1 X112.678 Y111.881 E0.01414
G1 X112.601 Y111.440 E0.01406
G1 X112.555 Y110.995 E0.01400
G1 X112.540 Y110.550 E0.01397
G1 X112.555 Y110.105 E0.01397
G1 X112.601 Y109.660 E0.01400
G1 X112.678 Y109.219 E0.01406
G1 X112.786 Y108.781 E0.01414
G1 X112.923 Y108.348 E0.01424
G1 X113.090 Y107.921 E0.01437
G1 X113.285 Y107.502 E0.01452
G1 X113.509 Y107.090 E0.01469
G1 X113.761 Y106.688 E0.01487
G1 X114.039 Y106.296 E0.01508
G1 X114.344 Y105.915 E0.01529
G1 X114.674 Y105.546 E0.01552
G1 X115.030 Y105.188 E0.01583
G1 X115.806 Y104.519 E0.03213
G1 X116.669 Y103.907 E0.03319
G1 X117.609 Y103.361 E0.03407
G1 X118.110 Y103.111 E0.01755
G1 X118.683 Y102.867 E0.01954
G1 X118.783 Y102.447 F10800.000
;WIPE_START
G1 F8640.000
G1 X119.148 Y102.670 E-0.11660
G1 X120.240 Y102.304 E-0.26604
G1 X120.808 Y102.149 E-0.13596
G1 X121.963 Y101.901 E-0.27258
G1 X123.145 Y101.734 E-0.27562
G1 X123.746 Y101.682 E-0.13936
G1 X124.282 Y101.657 E-0.12384
;WIPE_END
G1 E-0.07000 F2100.000
G1 Z0.400 F10800.000
G1 X117.266 Y125.336
G1 Z0.200
G1 E1.40000 F2100.000
;TYPE:Perimeter
G1 F1200.000
G1 X117.859 Y125.378 E0.01864
G1 X118.446 Y125.463 E0.01857
G1 X119.019 Y125.590 E0.01842
G1 X119.576 Y125.757 E0.01822
G1 X120.116 Y125.967 E0.01818
G1 X120.856 Y126.346 E0.02606
G1 X121.321 Y126.653 E0.01746
G1 X121.748 Y126.996 E0.01719
G1 X122.289 Y127.555 E0.02438
G1 X122.601 Y127.978 E0.01650
G1 X122.854 Y128.423 E0.01603
G1 X123.045 Y128.881 E0.01556
G1 X123.125 Y129.139 E0.00848
G1 X123.223 Y129.620 E0.01539
G1 X123.256 Y130.108 E0.01533
G1 X123.247 Y130.377 E0.00844
G1 X123.182 Y130.853 E0.01504
G1 X123.120 Y131.115 E0.00846
G1 X122.959 Y131.582 E0.01549
G1 X122.734 Y132.038 E0.01594
G1 X122.449 Y132.476 E0.01639
G1 X121.943 Y133.058 E0.02416
G1 X121.537 Y133.418 E0.01705
G1 X121.095 Y133.739 E0.01711
G1 X120.618 Y134.024 E0.01741
G1 X120.110 Y134.271 E0.01771
G1 X119.576 Y134.479 E0.01799
G1 X119.019 Y134.646 E0.01822
G1 X118.446 Y134.773 E0.01842
G1 X117.854 Y134.858 E0.01873
G1 X116.973 Y134.906 E0.02767
G1 X116.367 Y134.884 E0.01901
G1 X115.495 Y134.774 E0.02755
G1 X114.916 Y134.646 E0.01859
G1 X114.360 Y134.479 E0.01822
G1 X113.820 Y134.268 E0.01818
G1 X113.080 Y133.890 E0.02606
G1 X112.615 Y133.583 E0.01746
G1 X112.193 Y133.245 E0.01695
G1 X111.814 Y132.873 E0.01665
G1 X111.482 Y132.470 E0.01638
G1 X111.201 Y132.038 E0.01614
G1 X110.977 Y131.582 E0.01594
G1 X110.813 Y131.106 E0.01579
G1 X110.713 Y130.616 E0.01569
G1 X110.679 Y130.118 E0.01564
G1 X110.713 Y129.620 E0.01564
G1 X110.813 Y129.130 E0.01569
G1 X110.977 Y128.654 E0.01579
G1 X111.201 Y128.198 E0.01594
G1 X111.486 Y127.759 E0.01639
G1 X111.992 Y127.178 E0.02416
G1 X112.399 Y126.818 E0.01705
G1 X112.840 Y126.497 E0.01711
G1 X113.323 Y126.209 E0.01760
G1 X114.084 Y125.858 E0.02628
G1 X114.641 Y125.667 E0.01847
G1 X115.485 Y125.464 E0.02721
G1 X116.078 Y125.378 E0.01878
G1 X116.720 Y125.335 E0.02019
G1 X117.206 Y125.336 E0.01525
G1 X117.206 Y125.713 F10800.000
;TYPE:External perimeter
G1 F1200.000
G1 X117.819 Y125.753 E0.01927
G1 X118.378 Y125.834 E0.01771
G1 X118.924 Y125.955 E0.01754
G1 X119.453 Y126.114 E0.01732
G1 X119.962 Y126.312 E0.01711
G1 X120.666 Y126.672 E0.02480
G1 X121.098 Y126.958 E0.01626
G1 X121.494 Y127.275 E0.01590
G1 X122.001 Y127.798 E0.02284
G1 X122.284 Y128.184 E0.01501
G1 X122.515 Y128.589 E0.01462
G1 X122.690 Y129.009 E0.01427
G1 X122.759 Y129.233 E0.00733
G1 X122.848 Y129.671 E0.01402
G1 X122.878 Y130.114 E0.01394
G1 X122.870 Y130.345 E0.00725
G1 X122.811 Y130.783 E0.01386
G1 X122.757 Y131.010 E0.00730
G1 X122.610 Y131.437 E0.01417
G1 X122.406 Y131.852 E0.01449
G1 X122.148 Y132.249 E0.01485
G1 X121.675 Y132.792 E0.02257
G1 X121.300 Y133.124 E0.01571
G1 X120.887 Y133.424 E0.01600
G1 X120.439 Y133.692 E0.01637
G1 X119.960 Y133.925 E0.01672
G1 X119.453 Y134.122 E0.01704
G1 X118.924 Y134.281 E0.01732
G1 X118.378 Y134.402 E0.01754
G1 X117.817 Y134.483 E0.01777
G1 X116.970 Y134.528 E0.02660
G1 X116.398 Y134.508 E0.01795
G1 X115.560 Y134.402 E0.02648
G1 X115.012 Y134.281 E0.01760
G1 X114.483 Y134.122 E0.01732
G1 X113.974 Y133.924 E0.01711
G1 X113.270 Y133.563 E0.02480
G1 X112.837 Y133.278 E0.01626
G1 X112.444 Y132.962 E0.01581
G1 X112.092 Y132.618 E0.01544
G1 X111.786 Y132.246 E0.01509
G1 X111.530 Y131.852 E0.01476
G1 X111.326 Y131.437 E0.01449
G1 X111.178 Y131.006 E0.01427
G1 X111.087 Y130.565 E0.01413
G1 X111.057 Y130.118 E0.01405
G1 X111.087 Y129.671 E0.01405
G1 X111.178 Y129.229 E0.01413
G1 X111.326 Y128.799 E0.01427
G1 X111.530 Y128.384 E0.01449
G1 X111.788 Y127.987 E0.01485
G1 X112.261 Y127.444 E0.02257
G1 X112.636 Y127.112 E0.01571
G1 X113.048 Y126.812 E0.01600
G1 X113.499 Y126.543 E0.01644
G1 X114.224 Y126.209 E0.02506
G1 X114.747 Y126.029 E0.01731
G1 X115.556 Y125.835 E0.02610
G1 X116.117 Y125.753 E0.01778
G1 X116.733 Y125.712 E0.01933
G1 X117.146 Y125.713 E0.01296
G1 X117.417 Y125.373 F10800.000
;WIPE_START
G1 F8640.000
G1 X117.819 Y125.753 E-0.15572
G1 X118.378 Y125.834 E-0.13040
G1 X118.924 Y125.955 E-0.12918
G1 X119.453 Y126.114 E-0.12752
G1 X119.962 Y126.312 E-0.12600
G1 X120.666 Y126.672 E-0.18265
G1 X121.098 Y126.958 E-0.11971
G1 X121.494 Y127.275 E-0.11707
G1 X122.001 Y127.798 E-0.16820
G1 X122.189 Y128.055 E-0.07355
;WIPE_END
G1 E-0.07000 F2100.000
G1 Z0.400 F10800.000
G1 X127.813 Y129.130
G1 Z0.200
G1 E1.40000 F2100.000
;TYPE:Perimeter
G1 F1200.000
G1 X127.977 Y128.654 E0.01579
G1 X128.201 Y128.198 E0.01594
G1 X128.486 Y127.759 E0.01639
G1 X128.992 Y127.178 E0.02416
G1 X129.399 Y126.818 E0.01705
G1 X129.840 Y126.497 E0.01711
G1 X130.323 Y126.209 E0.01760
G1 X131.084 Y125.858 E0.02628
G1 X131.641 Y125.667 E0.01847
M73 Q2 S26
G1 X132.485 Y125.464 E0.02721
G1 X133.078 Y125.378 E0.01878
G1 X133.720 Y125.335 E0.02019
G1 X134.266 Y125.336 E0.01713
G1 X134.859 Y125.378 E0.01864
G1 X135.446 Y125.463 E0.01857
G1 X136.019 Y125.590 E0.01842
G1 X136.576 Y125.757 E0.01822
M73 P2 R26
G1 X137.116 Y125.967 E0.01818
G1 X137.856 Y126.346 E0.02606
G1 X138.321 Y126.653 E0.01746
G1 X138.748 Y126.996 E0.01719
G1 X139.289 Y127.555 E0.02438
G1 X139.601 Y127.978 E0.01650
G1 X139.854 Y128.423 E0.01603
G1 X140.045 Y128.881 E0.01556
G1 X140.125 Y129.139 E0.00848
G1 X140.223 Y129.620 E0.01539
G1 X140.256 Y130.108 E0.01533
G1 X140.247 Y130.377 E0.00844
G1 X140.182 Y130.853 E0.01504
G1 X140.120 Y131.115 E0.00846
G1 X139.959 Y131.582 E0.01549
G1 X139.734 Y132.038 E0.01594
G1 X139.449 Y132.476 E0.01639
G1 X138.943 Y133.058 E0.02416
G1 X138.537 Y133.418 E0.01705
G1 X138.095 Y133.739 E0.01711
G1 X137.618 Y134.024 E0.01741
G1 X137.110 Y134.271 E0.01771
G1 X136.576 Y134.479 E0.01799
G1 X136.019 Y134.646 E0.01822
G1 X135.446 Y134.773 E0.01842
G1 X134.854 Y134.858 E0.01873
G1 X133.973 Y134.906 E0.02767
G1 X133.367 Y134.884 E0.01901
G1 X132.495 Y134.774 E0.02755
G1 X131.916 Y134.646 E0.01859
G1 X131.360 Y134.479 E0.01822
G1 X130.820 Y134.268 E0.01818
G1 X130.080 Y133.890 E0.02606
G1 X129.615 Y133.583 E0.01746
G1 X129.193 Y133.245 E0.01695
G1 X128.814 Y132.873 E0.01665
G1 X128.482 Y132.470 E0.01638
G1 X128.201 Y132.038 E0.01614
G1 X127.977 Y131.582 E0.01594
G1 X127.813 Y131.106 E0.01579
G1 X127.713 Y130.616 E0.01569
G1 X127.679 Y130.118 E0.01564
G1 X127.713 Y129.620 E0.01564
G1 X127.801 Y129.189 E0.01381
G1 X128.170 Y129.264 F10800.000
;TYPE:External perimeter
G1 F1200.000
G1 X128.326 Y128.799 E0.01537
G1 X128.530 Y128.384 E0.01449
G1 X128.788 Y127.987 E0.01485
G1 X129.261 Y127.444 E0.02257
G1 X129.636 Y127.112 E0.01571
G1 X130.048 Y126.812 E0.01600
G1 X130.499 Y126.543 E0.01644
G1 X131.224 Y126.209 E0.02506
G1 X131.747 Y126.029 E0.01731
G1 X132.556 Y125.835 E0.02610
G1 X133.117 Y125.753 E0.01778
