; generated by PrusaSlicer 2.3.1+win64 on 2021-07-04 at 19:06:00 UTC

; 

; external perimeters extrusion width = 0.45mm
; perimeters extrusion width = 0.45mm
; infill extrusion width = 0.45mm
; solid infill extrusion width = 0.45mm
; top infill extrusion width = 0.40mm
; first layer extrusion width = 0.42mm

M73 P0 R81
M73 Q0 S82
M201 X1000 Y1000 Z200 E5000 ; sets maximum accelerations, mm/sec^2
M203 X200 Y200 Z12 E120 ; sets maximum feedrates, mm/sec
M204 P1250 R1250 T1250 ; sets acceleration (P, T) and retract acceleration (R), mm/sec^2
M205 X8.00 Y8.00 Z0.40 E4.50 ; sets the jerk limits, mm/sec
M205 S0 T0 ; sets the minimum extruding and travel feed rate, mm/sec
M107
;TYPE:Custom
M862.3 P "MK3" ; printer model check
M862.1 P0.4 ; nozzle diameter check
M115 U3.9.3 ; tell printer latest fw version
G90 ; use absolute coordinates
M83 ; extruder relative mode
M104 S215 ; set extruder temp
M140 S60 ; set bed temp
M190 S60 ; wait for bed temp
M109 S215 ; wait for extruder temp
G28 W ; home all without mesh bed level
G80 ; mesh bed leveling
G1 Y-3.0 F1000.0 ; go outside print area
G92 E0.0
G1 X60.0 E9.0 F1000.0 ; intro line
G1 X100.0 E12.5 F1000.0 ; intro line
G92 E0.0
M221 S95

; Don't change E values below. Excessive value can damage the printer.
M907 E430 ; set extruder motor current
G21 ; set units to millimeters
G90 ; use absolute coordinates
M83 ; use relative distances for extrusion
M900 K0.05 ; Filament gcode LA 1.5
M900 K30 ; Filament gcode LA 1.0
;LAYER_CHANGE
;Z:0.2
;HEIGHT:0.2
;BEFORE_LAYER_CHANGE
G92 E0.0
;0.2


G1 E-0.80000 F2100.000
G1 Z0.400 F10800.000
;AFTER_LAYER_CHANGE
;0.2
G1 X56.682 Y67.533
G1 Z0.200
G1 E0.80000 F2100.000
M204 S1000
;TYPE:Skirt
;WIDTH:0.42
G1 F1200.000
G1 X57.589 Y67.119 E0.03125
G1 X58.506 Y66.959 E0.02918
G1 X96.181 Y66.952 E1.18127
G1 X190.329 Y67.329 E2.95199
G1 X191.525 Y67.531 E0.03801
G1 X192.557 Y68.072 E0.03655
G1 X193.234 Y68.715 E0.02925
G1 X193.683 Y69.399 E0.02567
G1 X193.974 Y70.165 E0.02569
G1 X194.098 Y71.099 E0.02953
G1 X194.098 Y137.649 E2.08665
M73 Q0 S81
G1 X193.912 Y138.800 E0.03654
G1 X193.363 Y139.870 E0.03769
G1 X192.567 Y140.672 E0.03546
G1 X191.515 Y141.223 E0.03720
G1 X186.054 Y142.253 E0.17425
G1 X182.766 Y142.715 E0.10411
G1 X179.453 Y143.063 E0.10446
G1 X174.534 Y143.364 E0.15451
G1 X171.210 Y143.423 E0.10424
G1 X125.025 Y143.508 E1.44811
G1 X74.504 Y142.990 E1.58412
G1 X69.507 Y142.684 E0.15699
G1 X66.234 Y142.340 E0.10317
G1 X62.973 Y141.882 E0.10327
G1 X57.786 Y140.936 E0.16529
G1 X57.054 Y140.672 E0.02439
G1 X56.407 Y140.276 E0.02381
G1 X55.809 Y139.712 E0.02576
G1 X55.336 Y139.009 E0.02656
G1 X55.004 Y138.116 E0.02989
G1 X54.903 Y137.286 E0.02621
G1 X54.903 Y70.734 E2.08670
G1 X55.024 Y69.800 E0.02952
G1 X55.386 Y68.899 E0.03045
G1 X55.907 Y68.179 E0.02785
G1 X56.636 Y67.572 E0.02977
; printing object C:/Users/User/AppData/Local/Temp/Neutron/1428107c-7acf-44c9-8c3a-b7a6fc48b2cf.stl id:0 copy 0
;WIPE_START
G1 F8640.000
G1 X57.589 Y67.119 E-0.24356
G1 X58.506 Y66.959 E-0.21486
G1 X59.812 Y66.959 E-0.30157
;WIPE_END
G1 E-0.04000 F2100.000
G1 Z0.600 F10800.000
G1 X71.453 Y102.470
G1 Z0.200
G1 E0.80000 F2100.000
;TYPE:Perimeter
G1 F1200.000
G1 X71.814 Y102.317 E0.01229
G1 X72.931 Y101.943 E0.03692
G1 X73.519 Y101.782 E0.01912
G1 X74.697 Y101.529 E0.03776
G1 X75.902 Y101.360 E0.03816
G1 X76.520 Y101.306 E0.01947
G1 X77.242 Y101.271 E0.02266
G1 X78.367 Y101.273 E0.03525
G1 X79.593 Y101.359 E0.03855
G1 X80.798 Y101.529 E0.03816
G1 X81.404 Y101.647 E0.01936
G1 X82.564 Y101.941 E0.03752
G1 X83.686 Y102.317 E0.03709
G1 X84.748 Y102.768 E0.03619
G1 X85.270 Y103.029 E0.01829
G1 X86.235 Y103.589 E0.03497
G1 X87.127 Y104.221 E0.03428
G1 X87.927 Y104.912 E0.03315
G1 X88.300 Y105.288 E0.01660
G1 X88.644 Y105.672 E0.01616
G1 X88.962 Y106.069 E0.01595
G1 X89.253 Y106.479 E0.01576
G1 X89.516 Y106.900 E0.01558
G1 X89.751 Y107.332 E0.01541
G1 X89.957 Y107.773 E0.01526
G1 X90.133 Y108.222 E0.01513
G1 X90.278 Y108.679 E0.01502
G1 X90.391 Y109.141 E0.01493
G1 X90.472 Y109.608 E0.01486
G1 X90.521 Y110.078 E0.01482
G1 X90.538 Y110.550 E0.01479
G1 X90.521 Y111.022 E0.01479
G1 X90.472 Y111.492 E0.01482
G1 X90.391 Y111.959 E0.01486
G1 X90.278 Y112.421 E0.01493
G1 X90.133 Y112.878 E0.01502
G1 X89.957 Y113.327 E0.01513
G1 X89.751 Y113.768 E0.01526
G1 X89.516 Y114.200 E0.01541
G1 X89.253 Y114.621 E0.01558
G1 X88.962 Y115.031 E0.01576
G1 X88.644 Y115.428 E0.01595
G1 X88.300 Y115.812 E0.01616
G1 X87.927 Y116.188 E0.01660
G1 X87.132 Y116.874 E0.03293
G1 X86.685 Y117.207 E0.01747
G1 X85.759 Y117.801 E0.03451
G1 X84.754 Y118.329 E0.03559
G1 X83.686 Y118.783 E0.03639
G1 X82.564 Y119.159 E0.03709
G1 X81.399 Y119.454 E0.03769
G1 X80.206 Y119.666 E0.03799
G1 X79.588 Y119.742 E0.01953
G1 X78.366 Y119.827 E0.03840
G1 X77.139 Y119.827 E0.03848
G1 X76.514 Y119.794 E0.01962
G1 X75.299 Y119.666 E0.03830
G1 X74.106 Y119.455 E0.03798
G1 X73.509 Y119.315 E0.01925
G1 X72.369 Y118.981 E0.03724
G1 X71.278 Y118.568 E0.03656
G1 X70.741 Y118.326 E0.01848
G1 X69.741 Y117.801 E0.03540
G1 X68.809 Y117.203 E0.03473
G1 X67.965 Y116.543 E0.03360
G1 X67.568 Y116.183 E0.01681
G1 X67.199 Y115.812 E0.01637
G1 X66.856 Y115.428 E0.01616
G1 X66.538 Y115.031 E0.01595
G1 X66.247 Y114.621 E0.01576
G1 X65.984 Y114.200 E0.01558
G1 X65.749 Y113.768 E0.01541
G1 X65.543 Y113.327 E0.01526
G1 X65.367 Y112.878 E0.01513
G1 X65.222 Y112.421 E0.01502
G1 X65.109 Y111.959 E0.01493
G1 X65.028 Y111.492 E0.01486
G1 X64.979 Y111.022 E0.01482
G1 X64.962 Y110.550 E0.01479
G1 X64.979 Y110.078 E0.01479
G1 X65.028 Y109.608 E0.01482
G1 X65.109 Y109.141 E0.01486
G1 X65.222 Y108.679 E0.01493
G1 X65.367 Y108.222 E0.01502
G1 X65.543 Y107.773 E0.01513
G1 X65.749 Y107.332 E0.01526
G1 X65.984 Y106.900 E0.01541
G1 X66.247 Y106.479 E0.01558
G1 X66.538 Y106.069 E0.01576
G1 X66.856 Y105.672 E0.01595
G1 X67.199 Y105.288 E0.01616
G1 X67.573 Y104.912 E0.01660
G1 X68.373 Y104.221 E0.03315
G1 X69.265 Y103.589 E0.03428
G1 X70.230 Y103.029 E0.03497
G1 X70.752 Y102.768 E0.01829
G1 X71.398 Y102.494 E0.02202
G1 X71.545 Y102.841 F10800.000
;TYPE:External perimeter
G1 F1200.000
G1 X71.948 Y102.670 E0.01371
G1 X73.040 Y102.304 E0.03613
G1 X73.608 Y102.149 E0.01846
G1 X74.763 Y101.901 E0.03701
G1 X75.945 Y101.734 E0.03743
G1 X76.546 Y101.682 E0.01892
G1 X77.251 Y101.649 E0.02214
G1 X78.353 Y101.650 E0.03456
G1 X79.554 Y101.734 E0.03773
G1 X80.736 Y101.901 E0.03742
G1 X81.321 Y102.015 E0.01872
G1 X82.458 Y102.303 E0.03675
G1 X83.552 Y102.670 E0.03619
G1 X84.590 Y103.111 E0.03537
G1 X85.091 Y103.361 E0.01755
G1 X86.030 Y103.907 E0.03407
G1 X86.894 Y104.519 E0.03319
G1 X87.670 Y105.188 E0.03213
G1 X88.026 Y105.546 E0.01583
G1 X88.356 Y105.915 E0.01552
G1 X88.661 Y106.296 E0.01529
G1 X88.939 Y106.688 E0.01508
G1 X89.191 Y107.090 E0.01487
G1 X89.415 Y107.502 E0.01469
G1 X89.610 Y107.921 E0.01452
G1 X89.777 Y108.348 E0.01437
G1 X89.914 Y108.781 E0.01424
G1 X90.022 Y109.219 E0.01414
G1 X90.099 Y109.660 E0.01406
G1 X90.145 Y110.105 E0.01400
G1 X90.160 Y110.550 E0.01397
G1 X90.145 Y110.995 E0.01397
G1 X90.099 Y111.440 E0.01400
G1 X90.022 Y111.881 E0.01406
G1 X89.914 Y112.319 E0.01414
G1 X89.777 Y112.752 E0.01424
G1 X89.610 Y113.179 E0.01437
G1 X89.415 Y113.598 E0.01452
G1 X89.191 Y114.010 E0.01469
G1 X88.939 Y114.412 E0.01487
G1 X88.661 Y114.804 E0.01508
G1 X88.356 Y115.185 E0.01529
G1 X88.026 Y115.554 E0.01552
G1 X87.670 Y115.912 E0.01583
G1 X86.896 Y116.580 E0.03205
G1 X86.470 Y116.896 E0.01663
G1 X85.569 Y117.475 E0.03359
G1 X84.592 Y117.988 E0.03459
G1 X83.552 Y118.430 E0.03544
G1 X82.458 Y118.797 E0.03619
G1 X81.320 Y119.085 E0.03681
G1 X80.150 Y119.292 E0.03724
G1 X79.552 Y119.366 E0.01890
G1 X78.353 Y119.450 E0.03768
G1 X77.149 Y119.450 E0.03776
G1 X76.543 Y119.418 E0.01901
G1 X75.352 Y119.293 E0.03757
G1 X74.182 Y119.085 E0.03724
G1 X73.605 Y118.950 E0.01860
G1 X72.489 Y118.623 E0.03646
G1 X71.422 Y118.219 E0.03576
G1 X70.906 Y117.987 E0.01776
G1 X69.931 Y117.475 E0.03452
G1 X69.027 Y116.895 E0.03367
G1 X68.208 Y116.254 E0.03262
G1 X67.828 Y115.910 E0.01607
G1 X67.474 Y115.554 E0.01575
G1 X67.144 Y115.185 E0.01552
G1 X66.839 Y114.804 E0.01529
G1 X66.561 Y114.412 E0.01508
G1 X66.309 Y114.010 E0.01487
G1 X66.085 Y113.598 E0.01469
G1 X65.890 Y113.179 E0.01452
G1 X65.723 Y112.752 E0.01437
G1 X65.586 Y112.319 E0.01424
G1 X65.478 Y111.881 E0.01414
G1 X65.401 Y111.440 E0.01406
G1 X65.355 Y110.995 E0.01400
G1 X65.340 Y110.550 E0.01397
G1 X65.355 Y110.105 E0.01397
G1 X65.401 Y109.660 E0.01400
G1 X65.478 Y109.219 E0.01406
G1 X65.586 Y108.781 E0.01414
G1 X65.723 Y108.348 E0.01424
G1 X65.890 Y107.921 E0.01437
G1 X66.085 Y107.502 E0.01452
G1 X66.309 Y107.090 E0.01469
G1 X66.561 Y106.688 E0.01487
G1 X66.839 Y106.296 E0.01508
G1 X67.144 Y105.915 E0.01529
G1 X67.474 Y105.546 E0.01552
G1 X67.830 Y105.188 E0.01583
G1 X68.606 Y104.519 E0.03213
G1 X69.469 Y103.907 E0.03319
G1 X70.409 Y103.361 E0.03407
G1 X70.910 Y103.111 E0.01755
G1 X71.490 Y102.864 E0.01977
G1 X71.590 Y102.444 F10800.000
;WIPE_START
G1 F8640.000
G1 X71.948 Y102.670 E-0.11484
G1 X73.040 Y102.304 E-0.26604
G1 X73.608 Y102.149 E-0.13596
G1 X74.638 Y101.928 E-0.24315
;WIPE_END
G1 E-0.04000 F2100.000
G1 Z0.600 F10800.000
G1 X70.066 Y125.336
G1 Z0.200
G1 E0.80000 F2100.000
;TYPE:Perimeter
G1 F1200.000
G1 X70.659 Y125.378 E0.01864
G1 X71.246 Y125.463 E0.01857
G1 X71.819 Y125.590 E0.01842
G1 X72.376 Y125.757 E0.01822
G1 X72.916 Y125.967 E0.01818
G1 X73.656 Y126.346 E0.02606
G1 X74.121 Y126.653 E0.01746
G1 X74.548 Y126.996 E0.01719
G1 X75.089 Y127.555 E0.02438
G1 X75.401 Y127.978 E0.01650
G1 X75.654 Y128.423 E0.01603
G1 X75.845 Y128.881 E0.01556
G1 X75.925 Y129.139 E0.00848
G1 X76.023 Y129.620 E0.01539
G1 X76.056 Y130.108 E0.01533
G1 X76.047 Y130.377 E0.00844
G1 X75.982 Y130.853 E0.01505
G1 X75.920 Y131.115 E0.00846
G1 X75.759 Y131.582 E0.01549
G1 X75.534 Y132.038 E0.01594
G1 X75.249 Y132.476 E0.01639
G1 X74.743 Y133.058 E0.02416
G1 X74.337 Y133.418 E0.01705
G1 X73.895 Y133.739 E0.01711
G1 X73.418 Y134.024 E0.01741
G1 X72.910 Y134.271 E0.01771
G1 X72.376 Y134.479 E0.01798
G1 X71.819 Y134.646 E0.01822
G1 X71.246 Y134.773 E0.01842
G1 X70.659 Y134.858 E0.01857
G1 X70.061 Y134.900 E0.01882
G1 X69.172 Y134.885 E0.02786
G1 X68.295 Y134.774 E0.02771
G1 X67.716 Y134.646 E0.01859
G1 X67.160 Y134.479 E0.01822
G1 X66.620 Y134.268 E0.01818
G1 X65.880 Y133.890 E0.02606
G1 X65.415 Y133.583 E0.01746
G1 X64.993 Y133.245 E0.01695
G1 X64.614 Y132.873 E0.01665
G1 X64.282 Y132.470 E0.01638
G1 X64.001 Y132.038 E0.01614
G1 X63.777 Y131.582 E0.01594
G1 X63.613 Y131.106 E0.01579
G1 X63.513 Y130.616 E0.01569
G1 X63.479 Y130.118 E0.01564
G1 X63.513 Y129.620 E0.01564
G1 X63.613 Y129.130 E0.01569
G1 X63.777 Y128.654 E0.01579
G1 X64.001 Y128.198 E0.01594
G1 X64.286 Y127.759 E0.01639
G1 X64.792 Y127.178 E0.02416
G1 X65.199 Y126.818 E0.01705
G1 X65.640 Y126.497 E0.01711
G1 X66.123 Y126.209 E0.01760
G1 X66.884 Y125.858 E0.02628
G1 X67.441 Y125.667 E0.01847
G1 X68.285 Y125.464 E0.02721
G1 X68.878 Y125.378 E0.01878
G1 X69.520 Y125.335 E0.02019
G1 X70.006 Y125.336 E0.01524
G1 X70.006 Y125.713 F10800.000
;TYPE:External perimeter
G1 F1200.000
G1 X70.619 Y125.753 E0.01927
G1 X71.178 Y125.834 E0.01771
G1 X71.724 Y125.955 E0.01754
G1 X72.253 Y126.114 E0.01732
G1 X72.762 Y126.312 E0.01711
G1 X73.466 Y126.672 E0.02480
G1 X73.898 Y126.958 E0.01626
G1 X74.294 Y127.275 E0.01590
G1 X74.801 Y127.798 E0.02284
G1 X75.084 Y128.184 E0.01501
G1 X75.315 Y128.589 E0.01462
G1 X75.490 Y129.009 E0.01427
G1 X75.559 Y129.233 E0.00733
G1 X75.648 Y129.671 E0.01402
G1 X75.678 Y130.114 E0.01394
G1 X75.670 Y130.345 E0.00725
G1 X75.611 Y130.783 E0.01386
G1 X75.557 Y131.010 E0.00730
G1 X75.410 Y131.437 E0.01417
G1 X75.206 Y131.852 E0.01449
G1 X74.948 Y132.249 E0.01485
G1 X74.475 Y132.792 E0.02257
G1 X74.100 Y133.124 E0.01571
G1 X73.687 Y133.424 E0.01600
G1 X73.239 Y133.692 E0.01637
G1 X72.760 Y133.925 E0.01672
G1 X72.253 Y134.122 E0.01704
G1 X71.724 Y134.281 E0.01732
G1 X71.178 Y134.402 E0.01754
G1 X70.619 Y134.482 E0.01771
G1 X70.051 Y134.523 E0.01787
G1 X69.199 Y134.508 E0.02669
G1 X68.360 Y134.402 E0.02654
G1 X67.812 Y134.281 E0.01760
G1 X67.283 Y134.122 E0.01732
G1 X66.774 Y133.924 E0.01711
G1 X66.070 Y133.563 E0.02480
G1 X65.637 Y133.278 E0.01626
G1 X65.244 Y132.962 E0.01581
G1 X64.892 Y132.618 E0.01544
G1 X64.586 Y132.246 E0.01509
G1 X64.330 Y131.852 E0.01476
G1 X64.126 Y131.437 E0.01449
G1 X63.978 Y131.006 E0.01427
G1 X63.888 Y130.565 E0.01413
G1 X63.857 Y130.118 E0.01405
G1 X63.888 Y129.671 E0.01405
G1 X63.978 Y129.229 E0.01413
G1 X64.126 Y128.799 E0.01427
G1 X64.330 Y128.384 E0.01449
G1 X64.588 Y127.987 E0.01485
G1 X65.061 Y127.444 E0.02257
G1 X65.436 Y127.112 E0.01571
G1 X65.848 Y126.812 E0.01600
G1 X66.299 Y126.543 E0.01644
G1 X67.024 Y126.209 E0.02506
G1 X67.547 Y126.029 E0.01731
G1 X68.356 Y125.835 E0.02610
G1 X68.917 Y125.753 E0.01778
G1 X69.533 Y125.712 E0.01933
G1 X69.946 Y125.713 E0.01296
G1 X70.217 Y125.373 F10800.000
;WIPE_START
G1 F8640.000
G1 X70.619 Y125.753 E-0.15572
G1 X71.178 Y125.834 E-0.13040
G1 X71.724 Y125.955 E-0.12918
G1 X72.253 Y126.114 E-0.12752
G1 X72.762 Y126.312 E-0.12600
G1 X73.113 Y126.492 E-0.09118
;WIPE_END
G1 E-0.04000 F2100.000
G1 Z0.600 F10800.000
G1 X80.613 Y129.130
G1 Z0.200
G1 E0.80000 F2100.000
;TYPE:Perimeter
G1 F1200.000
G1 X80.777 Y128.654 E0.01579
G1 X81.001 Y128.198 E0.01594
G1 X81.286 Y127.759 E0.01639
G1 X81.792 Y127.178 E0.02416
G1 X82.199 Y126.818 E0.01705
G1 X82.640 Y126.497 E0.01711
G1 X83.123 Y126.209 E0.01760
G1 X83.884 Y125.858 E0.02628
G1 X84.441 Y125.667 E0.01847
G1 X85.285 Y125.464 E0.02721
G1 X85.878 Y125.378 E0.01878
G1 X86.520 Y125.335 E0.02019
G1 X87.066 Y125.336 E0.01713
G1 X87.659 Y125.378 E0.01864
G1 X88.246 Y125.463 E0.01857
G1 X88.819 Y125.590 E0.01842
G1 X89.376 Y125.757 E0.01822
G1 X89.916 Y125.967 E0.01818
G1 X90.656 Y126.346 E0.02606
G1 X91.121 Y126.653 E0.01746
G1 X91.548 Y126.996 E0.01719
G1 X92.089 Y127.555 E0.02438
G1 X92.401 Y127.978 E0.01650
G1 X92.654 Y128.423 E0.01603
G1 X92.845 Y128.881 E0.01556
G1 X92.925 Y129.139 E0.00848
G1 X93.023 Y129.620 E0.01539
G1 X93.056 Y130.108 E0.01533
G1 X93.047 Y130.377 E0.00844
G1 X92.982 Y130.853 E0.01505
G1 X92.920 Y131.115 E0.00846
G1 X92.759 Y131.582 E0.01549
G1 X92.534 Y132.038 E0.01594
G1 X92.249 Y132.476 E0.01639
G1 X91.743 Y133.058 E0.02416
G1 X91.337 Y133.418 E0.01705
G1 X90.895 Y133.739 E0.01711
G1 X90.418 Y134.024 E0.01741
G1 X89.910 Y134.271 E0.01771
G1 X89.376 Y134.479 E0.01798
G1 X88.819 Y134.646 E0.01822
G1 X88.246 Y134.773 E0.01842
G1 X87.659 Y134.858 E0.01857
G1 X87.061 Y134.900 E0.01882
G1 X86.172 Y134.885 E0.02786
G1 X85.295 Y134.774 E0.02771
G1 X84.716 Y134.646 E0.01859
G1 X84.160 Y134.479 E0.01822
G1 X83.620 Y134.268 E0.01818
G1 X82.880 Y133.890 E0.02606
G1 X82.415 Y133.583 E0.01746
G1 X81.993 Y133.245 E0.01695
G1 X81.614 Y132.873 E0.01665
G1 X81.282 Y132.470 E0.01638
G1 X81.001 Y132.038 E0.01614
G1 X80.777 Y131.582 E0.01594
G1 X80.613 Y131.106 E0.01579
G1 X80.513 Y130.616 E0.01569
G1 X80.479 Y130.118 E0.01564
G1 X80.513 Y129.620 E0.01564
G1 X80.601 Y129.189 E0.01381
G1 X80.970 Y129.264 F10800.000
;TYPE:External perimeter
G1 F1200.000
G1 X81.126 Y128.799 E0.01537
G1 X81.330 Y128.384 E0.01449
G1 X81.588 Y127.987 E0.01485
G1 X82.061 Y127.444 E0.02257
G1 X82.436 Y127.112 E0.01571
G1 X82.848 Y126.812 E0.01600
G1 X83.299 Y126.543 E0.01644
G1 X84.024 Y126.209 E0.02506
G1 X84.547 Y126.029 E0.01731
G1 X85.356 Y125.835 E0.02610
G1 X85.917 Y125.753 E0.01778
G1 X86.533 Y125.712 E0.01933
G1 X87.053 Y125.713 E0.01631
G1 X87.619 Y125.753 E0.01780
G1 X88.178 Y125.834 E0.01771
G1 X88.724 Y125.955 E0.01754
G1 X89.253 Y126.114 E0.01732
G1 X89.762 Y126.312 E0.01711
G1 X90.466 Y126.672 E0.02480
G1 X90.898 Y126.958 E0.01626
G1 X91.294 Y127.275 E0.01590
G1 X91.801 Y127.798 E0.02284
G1 X92.084 Y128.184 E0.01501
G1 X92.315 Y128.589 E0.01462
G1 X92.490 Y129.009 E0.01427
G1 X92.559 Y129.233 E0.00733
G1 X92.648 Y129.671 E0.01402
G1 X92.678 Y130.114 E0.01394
G1 X92.670 Y130.345 E0.00725
G1 X92.611 Y130.783 E0.01386
G1 X92.557 Y131.010 E0.00730
G1 X92.410 Y131.437 E0.01417
G1 X92.206 Y131.852 E0.01449
G1 X91.948 Y132.249 E0.01485
G1 X91.475 Y132.792 E0.02257
