; generated by PrusaSlicer 2.3.1+win64 on 2021-07-04 at 09:14:54 UTC

; 

; external perimeters extrusion width = 0.45mm
; perimeters extrusion width = 0.45mm
; infill extrusion width = 0.45mm
; solid infill extrusion width = 0.45mm
; top infill extrusion width = 0.40mm
; first layer extrusion width = 0.42mm

M73 P0 R26
M73 Q0 S26
M201 X1000 Y1000 Z200 E5000 ; sets maximum accelerations, mm/sec^2
M203 X200 Y200 Z12 E120 ; sets maximum feedrates, mm/sec
M204 P1250 R1250 T1250 ; sets acceleration (P, T) and retract acceleration (R), mm/sec^2
M205 X8.00 Y8.00 Z0.40 E4.50 ; sets the jerk limits, mm/sec
M205 S0 T0 ; sets the minimum extruding and travel feed rate, mm/sec
M107
;TYPE:Custom
M862.3 P "MK3" ; printer model check
M862.1 P0.4 ; nozzle diameter check
M115 U3.9.3 ; tell printer latest fw version
G90 ; use absolute coordinates
M83 ; extruder relative mode
M104 S215 ; set extruder temp
M140 S60 ; set bed temp
M190 S60 ; wait for bed temp
M109 S215 ; wait for extruder temp
G28 W ; home all without mesh bed level
G80 ; mesh bed leveling
G1 Y-3.0 F1000.0 ; go outside print area
G92 E0.0
G1 X60.0 E9.0 F1000.0 ; intro line
G1 X100.0 E12.5 F1000.0 ; intro line
G92 E0.0
M221 S95

; Don't change E values below. Excessive value can damage the printer.
M907 E430 ; set extruder motor current
G21 ; set units to millimeters
G90 ; use absolute coordinates
M83 ; use relative distances for extrusion
M900 K0.05 ; Filament gcode LA 1.5
M900 K30 ; Filament gcode LA 1.0
;LAYER_CHANGE
;Z:0.2
;HEIGHT:0.2
;BEFORE_LAYER_CHANGE
G92 E0.0
;0.2


G1 E-0.80000 F2100.000
G1 Z0.400 F10800.000
;AFTER_LAYER_CHANGE
;0.2
G1 X168.526 Y70.376
G1 Z0.200
G1 E0.80000 F2100.000
M204 S1000
;TYPE:Skirt
;WIDTH:0.42
G1 F1200.000
G1 X169.436 Y69.959 E0.03137
G1 X170.356 Y69.798 E0.02929
G1 X208.996 Y69.800 E1.21152
G1 X209.686 Y69.909 E0.02189
G1 X210.380 Y70.160 E0.02314
G1 X211.043 Y70.563 E0.02435
G1 X211.678 Y71.172 E0.02759
G1 X212.104 Y71.808 E0.02400
G1 X212.399 Y72.536 E0.02462
G1 X212.537 Y73.319 E0.02491
G1 X212.547 Y140.101 E2.09393
G1 X212.441 Y140.981 E0.02779
G1 X212.121 Y141.837 E0.02866
G1 X211.670 Y142.517 E0.02558
G1 X211.062 Y143.101 E0.02643
G1 X210.335 Y143.540 E0.02662
G1 X209.579 Y143.794 E0.02499
G1 X204.515 Y144.715 E0.16139
G1 X201.216 Y145.179 E0.10447
G1 X197.902 Y145.526 E0.10446
G1 X192.969 Y145.828 E0.15499
G1 X189.652 Y145.886 E0.10400
G1 X186.339 Y145.828 E0.10388
G1 X183.031 Y145.655 E0.10388
G1 X179.746 Y145.368 E0.10340
G1 X176.442 Y144.962 E0.10435
G1 X173.174 Y144.445 E0.10376
G1 X169.678 Y143.784 E0.11157
G1 X168.813 Y143.465 E0.02890
G1 X167.948 Y142.854 E0.03320
G1 X167.289 Y142.031 E0.03306
G1 X166.909 Y141.164 E0.02968
G1 X166.754 Y140.140 E0.03247
G1 X166.754 Y73.572 E2.08718
M73 P1 R26
M73 Q1 S26
G1 X166.872 Y72.646 E0.02928
G1 X167.227 Y71.754 E0.03009
G1 X167.752 Y71.023 E0.02821
G1 X168.480 Y70.415 E0.02977
; printing object C:/Users/User/AppData/Local/Temp/Neutron/1428107c-7acf-44c9-8c3a-b7a6fc48b2cf.stl id:0 copy 0
;WIPE_START
G1 F8640.000
G1 X169.436 Y69.959 E-0.24443
G1 X170.356 Y69.798 E-0.21574
G1 X171.655 Y69.798 E-0.29983
;WIPE_END
G1 E-0.04000 F2100.000
G1 Z0.600 F10800.000
G1 X183.297 Y105.312
G1 Z0.200
G1 E0.80000 F2100.000
;TYPE:Perimeter
G1 F1200.000
G1 X183.665 Y105.156 E0.01253
G1 X184.781 Y104.782 E0.03692
G1 X185.369 Y104.621 E0.01912
G1 X186.547 Y104.368 E0.03776
G1 X187.752 Y104.198 E0.03816
G1 X188.371 Y104.144 E0.01947
G1 X189.093 Y104.110 E0.02266
G1 X190.217 Y104.112 E0.03525
G1 X191.444 Y104.198 E0.03855
G1 X192.649 Y104.367 E0.03816
G1 X193.255 Y104.486 E0.01936
G1 X194.415 Y104.780 E0.03752
G1 X195.536 Y105.156 E0.03709
G1 X196.599 Y105.607 E0.03619
G1 X197.121 Y105.867 E0.01829
G1 X198.085 Y106.428 E0.03497
G1 X198.977 Y107.060 E0.03428
G1 X199.778 Y107.751 E0.03315
G1 X200.151 Y108.126 E0.01660
G1 X200.494 Y108.510 E0.01616
G1 X200.812 Y108.908 E0.01595
G1 X201.103 Y109.317 E0.01576
G1 X201.367 Y109.739 E0.01558
G1 X201.602 Y110.170 E0.01541
G1 X201.808 Y110.611 E0.01526
G1 X201.983 Y111.061 E0.01513
G1 X202.128 Y111.518 E0.01502
G1 X202.241 Y111.980 E0.01493
G1 X202.323 Y112.447 E0.01486
G1 X202.372 Y112.917 E0.01482
G1 X202.388 Y113.389 E0.01479
G1 X202.372 Y113.860 E0.01479
G1 X202.323 Y114.330 E0.01482
G1 X202.241 Y114.797 E0.01486
G1 X202.128 Y115.260 E0.01493
G1 X201.983 Y115.717 E0.01502
G1 X201.808 Y116.166 E0.01513
G1 X201.602 Y116.607 E0.01526
G1 X201.367 Y117.039 E0.01541
G1 X201.103 Y117.460 E0.01558
G1 X200.812 Y117.870 E0.01576
G1 X200.494 Y118.267 E0.01595
G1 X200.151 Y118.651 E0.01616
G1 X199.778 Y119.027 E0.01660
G1 X198.983 Y119.713 E0.03293
G1 X198.536 Y120.046 E0.01747
G1 X197.609 Y120.640 E0.03451
G1 X196.605 Y121.168 E0.03559
G1 X195.536 Y121.622 E0.03639
G1 X194.415 Y121.997 E0.03709
G1 X193.249 Y122.293 E0.03769
G1 X192.057 Y122.504 E0.03799
G1 X191.438 Y122.580 E0.01953
G1 X190.217 Y122.666 E0.03840
G1 X188.989 Y122.666 E0.03848
G1 X188.364 Y122.633 E0.01962
G1 X187.149 Y122.505 E0.03830
G1 X185.957 Y122.294 E0.03798
G1 X185.359 Y122.154 E0.01925
G1 X184.219 Y121.819 E0.03724
G1 X183.129 Y121.406 E0.03656
G1 X182.591 Y121.165 E0.01848
G1 X181.591 Y120.640 E0.03540
G1 X180.659 Y120.042 E0.03473
G1 X179.815 Y119.382 E0.03360
G1 X179.418 Y119.021 E0.01681
G1 X179.050 Y118.651 E0.01637
G1 X178.706 Y118.267 E0.01616
G1 X178.389 Y117.870 E0.01595
G1 X178.098 Y117.460 E0.01576
G1 X177.834 Y117.039 E0.01558
G1 X177.599 Y116.607 E0.01541
G1 X177.393 Y116.166 E0.01526
G1 X177.218 Y115.717 E0.01513
G1 X177.073 Y115.260 E0.01502
G1 X176.959 Y114.797 E0.01493
G1 X176.878 Y114.330 E0.01486
G1 X176.829 Y113.860 E0.01482
G1 X176.813 Y113.389 E0.01479
G1 X176.829 Y112.917 E0.01479
G1 X176.878 Y112.447 E0.01482
G1 X176.959 Y111.980 E0.01486
G1 X177.073 Y111.518 E0.01493
G1 X177.218 Y111.061 E0.01502
G1 X177.393 Y110.611 E0.01513
G1 X177.599 Y110.170 E0.01526
G1 X177.834 Y109.739 E0.01541
G1 X178.098 Y109.317 E0.01558
G1 X178.389 Y108.908 E0.01576
G1 X178.706 Y108.510 E0.01595
G1 X179.050 Y108.126 E0.01616
G1 X179.423 Y107.751 E0.01660
G1 X180.223 Y107.060 E0.03315
G1 X181.116 Y106.428 E0.03428
G1 X182.080 Y105.867 E0.03497
G1 X182.602 Y105.607 E0.01829
G1 X183.241 Y105.336 E0.02178
G1 X183.389 Y105.683 F10800.000
;TYPE:External perimeter
G1 F1200.000
G1 X183.798 Y105.509 E0.01395
G1 X184.891 Y105.143 E0.03613
G1 X185.459 Y104.988 E0.01846
G1 X186.613 Y104.740 E0.03701
G1 X187.795 Y104.573 E0.03743
G1 X188.396 Y104.521 E0.01892
G1 X189.101 Y104.487 E0.02214
G1 X190.204 Y104.489 E0.03456
G1 X191.404 Y104.573 E0.03773
G1 X192.586 Y104.739 E0.03742
G1 X193.172 Y104.854 E0.01872
G1 X194.308 Y105.142 E0.03675
G1 X195.403 Y105.509 E0.03619
G1 X196.441 Y105.950 E0.03537
G1 X196.942 Y106.200 E0.01755
G1 X197.881 Y106.746 E0.03407
G1 X198.745 Y107.357 E0.03319
G1 X199.520 Y108.027 E0.03213
G1 X199.876 Y108.385 E0.01583
G1 X200.206 Y108.754 E0.01552
G1 X200.511 Y109.135 E0.01529
G1 X200.789 Y109.527 E0.01508
G1 X201.041 Y109.929 E0.01487
G1 X201.265 Y110.340 E0.01469
G1 X201.461 Y110.760 E0.01452
G1 X201.628 Y111.187 E0.01437
G1 X201.765 Y111.620 E0.01424
G1 X201.872 Y112.058 E0.01414
G1 X201.949 Y112.499 E0.01406
G1 X201.995 Y112.943 E0.01400
G1 X202.011 Y113.389 E0.01397
G1 X201.995 Y113.834 E0.01397
G1 X201.949 Y114.278 E0.01400
G1 X201.872 Y114.720 E0.01406
G1 X201.765 Y115.158 E0.01414
G1 X201.628 Y115.591 E0.01424
G1 X201.461 Y116.018 E0.01437
G1 X201.265 Y116.437 E0.01452
G1 X201.041 Y116.849 E0.01469
G1 X200.789 Y117.251 E0.01487
G1 X200.511 Y117.643 E0.01508
G1 X200.206 Y118.024 E0.01529
G1 X199.876 Y118.392 E0.01552
G1 X199.520 Y118.751 E0.01583
G1 X198.746 Y119.419 E0.03205
G1 X198.321 Y119.735 E0.01663
G1 X197.419 Y120.314 E0.03359
G1 X196.443 Y120.827 E0.03459
G1 X195.403 Y121.269 E0.03544
G1 X194.308 Y121.635 E0.03619
G1 X193.170 Y121.924 E0.03681
G1 X192.001 Y122.131 E0.03724
G1 X191.402 Y122.205 E0.01890
G1 X190.203 Y122.288 E0.03768
G1 X188.999 Y122.288 E0.03776
G1 X188.394 Y122.257 E0.01901
G1 X187.202 Y122.132 E0.03757
G1 X186.033 Y121.924 E0.03724
G1 X185.455 Y121.789 E0.01860
G1 X184.339 Y121.462 E0.03646
G1 X183.273 Y121.058 E0.03576
G1 X182.756 Y120.826 E0.01776
G1 X181.781 Y120.314 E0.03452
G1 X180.878 Y119.734 E0.03367
G1 X180.058 Y119.093 E0.03262
G1 X179.679 Y118.749 E0.01607
G1 X179.324 Y118.392 E0.01575
G1 X178.995 Y118.024 E0.01552
G1 X178.690 Y117.643 E0.01529
G1 X178.411 Y117.251 E0.01508
G1 X178.160 Y116.849 E0.01487
G1 X177.936 Y116.437 E0.01469
G1 X177.740 Y116.018 E0.01452
G1 X177.573 Y115.591 E0.01437
G1 X177.436 Y115.158 E0.01424
G1 X177.329 Y114.720 E0.01414
G1 X177.252 Y114.278 E0.01406
G1 X177.206 Y113.834 E0.01400
G1 X177.190 Y113.389 E0.01397
G1 X177.206 Y112.943 E0.01397
G1 X177.252 Y112.499 E0.01400
G1 X177.329 Y112.058 E0.01406
G1 X177.436 Y111.620 E0.01414
G1 X177.573 Y111.187 E0.01424
G1 X177.740 Y110.760 E0.01437
G1 X177.936 Y110.340 E0.01452
G1 X178.160 Y109.929 E0.01469
G1 X178.411 Y109.527 E0.01487
G1 X178.690 Y109.135 E0.01508
G1 X178.995 Y108.754 E0.01529
G1 X179.324 Y108.385 E0.01552
G1 X179.680 Y108.027 E0.01583
G1 X180.456 Y107.357 E0.03213
G1 X181.320 Y106.746 E0.03319
G1 X182.259 Y106.200 E0.03407
G1 X182.760 Y105.950 E0.01755
G1 X183.334 Y105.706 E0.01954
G1 X183.434 Y105.285 F10800.000
;WIPE_START
G1 F8640.000
G1 X183.798 Y105.509 E-0.11657
G1 X184.891 Y105.143 E-0.26604
G1 X185.459 Y104.988 E-0.13596
G1 X186.481 Y104.768 E-0.24142
;WIPE_END
G1 E-0.04000 F2100.000
G1 Z0.600 F10800.000
G1 X181.917 Y128.175
G1 Z0.200
G1 E0.80000 F2100.000
;TYPE:Perimeter
G1 F1200.000
G1 X182.510 Y128.217 E0.01864
G1 X183.096 Y128.302 E0.01857
G1 X183.670 Y128.428 E0.01842
G1 X184.226 Y128.596 E0.01822
G1 X184.767 Y128.806 E0.01818
G1 X185.506 Y129.185 E0.02606
G1 X185.971 Y129.491 E0.01746
G1 X186.399 Y129.835 E0.01719
G1 X186.940 Y130.393 E0.02438
G1 X187.251 Y130.817 E0.01650
G1 X187.504 Y131.262 E0.01603
G1 X187.695 Y131.720 E0.01556
G1 X187.775 Y131.978 E0.00848
G1 X187.873 Y132.459 E0.01539
G1 X187.906 Y132.947 E0.01533
G1 X187.897 Y133.216 E0.00844
G1 X187.833 Y133.691 E0.01505
G1 X187.770 Y133.954 E0.00846
G1 X187.609 Y134.421 E0.01549
G1 X187.385 Y134.877 E0.01594
G1 X187.100 Y135.315 E0.01639
G1 X186.594 Y135.896 E0.02416
G1 X186.187 Y136.257 E0.01705
G1 X185.746 Y136.578 E0.01711
G1 X185.269 Y136.863 E0.01741
G1 X184.761 Y137.109 E0.01771
G1 X184.226 Y137.317 E0.01798
G1 X183.670 Y137.485 E0.01822
G1 X183.096 Y137.612 E0.01842
G1 X182.510 Y137.696 E0.01857
G1 X181.911 Y137.739 E0.01882
G1 X181.023 Y137.723 E0.02786
G1 X180.146 Y137.613 E0.02771
G1 X179.567 Y137.485 E0.01859
G1 X179.010 Y137.317 E0.01822
G1 X178.470 Y137.107 E0.01818
G1 X177.730 Y136.728 E0.02606
G1 X177.266 Y136.422 E0.01746
G1 X176.844 Y136.084 E0.01695
G1 X176.465 Y135.712 E0.01665
G1 X176.132 Y135.309 E0.01638
G1 X175.852 Y134.877 E0.01614
G1 X175.627 Y134.421 E0.01594
G1 X175.463 Y133.945 E0.01579
G1 X175.363 Y133.454 E0.01569
G1 X175.330 Y132.957 E0.01564
G1 X175.363 Y132.459 E0.01564
G1 X175.463 Y131.969 E0.01569
G1 X175.627 Y131.493 E0.01579
G1 X175.852 Y131.036 E0.01594
G1 X176.137 Y130.598 E0.01639
G1 X176.643 Y130.017 E0.02416
G1 X177.050 Y129.656 E0.01705
G1 X177.491 Y129.335 E0.01711
G1 X177.973 Y129.048 E0.01760
G1 X178.734 Y128.697 E0.02628
G1 X179.291 Y128.505 E0.01847
G1 X180.135 Y128.303 E0.02721
G1 X180.728 Y128.217 E0.01878
G1 X181.371 Y128.174 E0.02019
G1 X181.857 Y128.174 E0.01524
G1 X181.856 Y128.552 F10800.000
;TYPE:External perimeter
G1 F1200.000
G1 X182.469 Y128.592 E0.01927
G1 X183.028 Y128.673 E0.01771
G1 X183.575 Y128.794 E0.01754
G1 X184.103 Y128.953 E0.01732
G1 X184.612 Y129.151 E0.01711
G1 X185.316 Y129.511 E0.02480
G1 X185.749 Y129.797 E0.01626
G1 X186.144 Y130.114 E0.01590
G1 X186.651 Y130.637 E0.02284
G1 X186.934 Y131.023 E0.01501
G1 X187.165 Y131.428 E0.01462
G1 X187.340 Y131.848 E0.01427
G1 X187.409 Y132.071 E0.00733
G1 X187.499 Y132.510 E0.01402
G1 X187.529 Y132.953 E0.01394
G1 X187.521 Y133.184 E0.00725
G1 X187.462 Y133.622 E0.01386
G1 X187.408 Y133.849 E0.00730
G1 X187.260 Y134.276 E0.01417
G1 X187.056 Y134.690 E0.01449
G1 X186.798 Y135.088 E0.01485
G1 X186.326 Y135.630 E0.02257
G1 X185.950 Y135.963 E0.01571
G1 X185.538 Y136.263 E0.01600
G1 X185.090 Y136.531 E0.01637
G1 X184.610 Y136.764 E0.01672
G1 X184.103 Y136.960 E0.01704
G1 X183.575 Y137.120 E0.01732
G1 X183.028 Y137.240 E0.01754
G1 X182.469 Y137.321 E0.01771
G1 X181.901 Y137.362 E0.01787
G1 X181.050 Y137.347 E0.02669
G1 X180.210 Y137.241 E0.02654
G1 X179.662 Y137.120 E0.01760
G1 X179.133 Y136.960 E0.01732
G1 X178.625 Y136.763 E0.01711
G1 X177.921 Y136.402 E0.02480
G1 X177.488 Y136.117 E0.01626
G1 X177.094 Y135.801 E0.01581
G1 X176.743 Y135.456 E0.01544
G1 X176.437 Y135.085 E0.01509
G1 X176.180 Y134.690 E0.01476
G1 X175.976 Y134.276 E0.01449
G1 X175.828 Y133.845 E0.01427
G1 X175.738 Y133.404 E0.01413
G1 X175.708 Y132.957 E0.01405
G1 X175.738 Y132.510 E0.01405
G1 X175.828 Y132.068 E0.01413
G1 X175.976 Y131.638 E0.01427
G1 X176.180 Y131.223 E0.01449
G1 X176.438 Y130.826 E0.01485
G1 X176.911 Y130.283 E0.02257
G1 X177.286 Y129.951 E0.01571
G1 X177.699 Y129.650 E0.01600
G1 X178.149 Y129.382 E0.01644
G1 X178.875 Y129.047 E0.02506
G1 X179.397 Y128.868 E0.01731
G1 X180.206 Y128.673 E0.02610
G1 X180.768 Y128.592 E0.01778
G1 X181.383 Y128.551 E0.01933
G1 X181.796 Y128.551 E0.01296
G1 X182.067 Y128.212 F10800.000
;WIPE_START
G1 F8640.000
G1 X182.469 Y128.592 E-0.15572
G1 X183.028 Y128.673 E-0.13040
G1 X183.575 Y128.794 E-0.12918
G1 X184.103 Y128.953 E-0.12752
G1 X184.612 Y129.151 E-0.12600
G1 X184.963 Y129.331 E-0.09118
;WIPE_END
G1 E-0.04000 F2100.000
G1 Z0.600 F10800.000
G1 X192.463 Y131.969
M73 P1 R25
G1 Z0.200
G1 E0.80000 F2100.000
;TYPE:Perimeter
G1 F1200.000
G1 X192.627 Y131.493 E0.01579
G1 X192.852 Y131.036 E0.01594
G1 X193.137 Y130.598 E0.01639
G1 X193.643 Y130.017 E0.02416
G1 X194.050 Y129.656 E0.01705
G1 X194.491 Y129.335 E0.01711
G1 X194.973 Y129.048 E0.01760
G1 X195.734 Y128.697 E0.02628
M73 Q2 S26
G1 X196.291 Y128.505 E0.01847
G1 X197.135 Y128.303 E0.02721
G1 X197.728 Y128.217 E0.01878
M73 P2 R25
G1 X198.371 Y128.174 E0.02019
G1 X198.917 Y128.175 E0.01713
G1 X199.510 Y128.217 E0.01864
G1 X200.096 Y128.302 E0.01857
G1 X200.670 Y128.428 E0.01842
G1 X201.226 Y128.596 E0.01822
G1 X201.767 Y128.806 E0.01818
G1 X202.506 Y129.185 E0.02606
G1 X202.971 Y129.491 E0.01746
G1 X203.399 Y129.835 E0.01719
G1 X203.940 Y130.393 E0.02438
G1 X204.251 Y130.817 E0.01650
G1 X204.504 Y131.262 E0.01603
G1 X204.695 Y131.720 E0.01556
G1 X204.775 Y131.978 E0.00848
G1 X204.873 Y132.459 E0.01539
G1 X204.906 Y132.947 E0.01533
G1 X204.897 Y133.216 E0.00844
G1 X204.833 Y133.691 E0.01505
G1 X204.770 Y133.954 E0.00846
G1 X204.609 Y134.421 E0.01549
G1 X204.385 Y134.877 E0.01594
G1 X204.100 Y135.315 E0.01639
G1 X203.594 Y135.896 E0.02416
G1 X203.187 Y136.257 E0.01705
G1 X202.746 Y136.578 E0.01711
G1 X202.269 Y136.863 E0.01741
G1 X201.761 Y137.109 E0.01771
G1 X201.226 Y137.317 E0.01798
G1 X200.670 Y137.485 E0.01822
G1 X200.096 Y137.612 E0.01842
G1 X199.510 Y137.696 E0.01857
G1 X198.911 Y137.739 E0.01882
G1 X198.023 Y137.723 E0.02786
G1 X197.146 Y137.613 E0.02771
G1 X196.567 Y137.485 E0.01859
G1 X196.010 Y137.317 E0.01822
G1 X195.470 Y137.107 E0.01818
G1 X194.730 Y136.728 E0.02606
G1 X194.266 Y136.422 E0.01746
G1 X193.844 Y136.084 E0.01695
G1 X193.465 Y135.712 E0.01665
G1 X193.132 Y135.309 E0.01638
G1 X192.852 Y134.877 E0.01614
G1 X192.627 Y134.421 E0.01594
G1 X192.463 Y133.945 E0.01579
G1 X192.363 Y133.454 E0.01569
G1 X192.330 Y132.957 E0.01564
G1 X192.363 Y132.459 E0.01564
G1 X192.451 Y132.027 E0.01381
G1 X192.821 Y132.103 F10800.000
;TYPE:External perimeter
G1 F1200.000
G1 X192.976 Y131.638 E0.01537
G1 X193.180 Y131.223 E0.01449
G1 X193.438 Y130.826 E0.01485
G1 X193.911 Y130.283 E0.02257
G1 X194.286 Y129.951 E0.01571
G1 X194.699 Y129.650 E0.01600
G1 X195.149 Y129.382 E0.01644
G1 X195.875 Y129.047 E0.02506
G1 X196.397 Y128.868 E0.01731
G1 X197.206 Y128.673 E0.02610
G1 X197.768 Y128.592 E0.01778
G1 X198.383 Y128.551 E0.01933
G1 X198.903 Y128.552 E0.01631
G1 X199.469 Y128.592 E0.01780
G1 X200.028 Y128.673 E0.01771
G1 X200.575 Y128.794 E0.01754
G1 X201.103 Y128.953 E0.01732
