; generated by PrusaSlicer 2.3.1+win64 on 2021-08-02 at 15:34:45 UTC

; 

; external perimeters extrusion width = 0.45mm
; perimeters extrusion width = 0.45mm
; infill extrusion width = 0.45mm
; solid infill extrusion width = 0.45mm
; top infill extrusion width = 0.40mm
; first layer extrusion width = 0.42mm

M73 P0 R95
M73 Q0 S96
M201 X1000 Y1000 Z200 E5000 ; sets maximum accelerations, mm/sec^2
M203 X200 Y200 Z12 E120 ; sets maximum feedrates, mm/sec
M204 P1250 R1250 T1250 ; sets acceleration (P, T) and retract acceleration (R), mm/sec^2
M205 X8.00 Y8.00 Z0.40 E4.50 ; sets the jerk limits, mm/sec
M205 S0 T0 ; sets the minimum extruding and travel feed rate, mm/sec
M107
;TYPE:Custom
M862.3 P "MK3" ; printer model check
M862.1 P0.4 ; nozzle diameter check
M115 U3.9.3 ; tell printer latest fw version
G90 ; use absolute coordinates
M83 ; extruder relative mode
M104 S230 ; set extruder temp
M140 S85 ; set bed temp
M190 S85 ; wait for bed temp
M109 S230 ; wait for extruder temp
G28 W ; home all without mesh bed level
G80 ; mesh bed leveling
G1 Y-3.0 F1000.0 ; go outside print area
G92 E0.0
G1 X60.0 E9.0 F1000.0 ; intro line
M73 Q0 S95
G1 X100.0 E12.5 F1000.0 ; intro line
G92 E0.0
M221 S95

; Don't change E values below. Excessive value can damage the printer.
M907 E430 ; set extruder motor current
G21 ; set units to millimeters
G90 ; use absolute coordinates
M83 ; use relative distances for extrusion
M900 K0.08 ; Filament gcode LA 1.5
M900 K45 ; Filament gcode LA 1.0
;LAYER_CHANGE
;Z:0.2
;HEIGHT:0.2
;BEFORE_LAYER_CHANGE
G92 E0.0
;0.2


G1 E-1.40000 F2100.000
G1 Z0.200 F10800.000
;AFTER_LAYER_CHANGE
;0.2
G1 Z0.400
G1 X101.693 Y101.128
G1 Z0.200
G1 E1.40000 F2100.000
M204 S1000
;TYPE:Skirt
;WIDTH:0.42
G1 F1200.000
G1 X102.422 Y100.499 E0.03020
G1 X103.338 Y100.031 E0.03225
G1 X104.222 Y99.817 E0.02851
G1 X145.204 Y99.776 E1.28496
G1 X145.859 Y99.831 E0.02062
G1 X146.736 Y100.060 E0.02841
G1 X147.536 Y100.471 E0.02819
G1 X148.195 Y101.013 E0.02676
G1 X148.750 Y101.685 E0.02734
G1 X149.121 Y102.390 E0.02497
G1 X149.363 Y103.178 E0.02583
G1 X149.445 Y103.875 E0.02201
G1 X149.401 Y106.612 E0.08583
G1 X149.192 Y107.429 E0.02645
G1 X148.853 Y108.153 E0.02506
G1 X148.273 Y108.908 E0.02984
G1 X147.547 Y109.522 E0.02982
G1 X146.650 Y109.974 E0.03148
G1 X145.778 Y110.183 E0.02814
G1 X104.429 Y110.207 E1.29646
G1 X103.166 Y109.898 E0.04076
G1 X102.451 Y109.520 E0.02537
G1 X101.844 Y109.024 E0.02458
G1 X101.086 Y108.042 E0.03888
G1 X100.800 Y107.408 E0.02182
G1 X100.605 Y106.653 E0.02443
G1 X100.551 Y105.990 E0.02087
G1 X100.588 Y103.482 E0.07865
G1 X100.786 Y102.633 E0.02733
G1 X101.094 Y101.944 E0.02365
G1 X101.658 Y101.176 E0.02985
G1 X101.960 Y101.398 F10800.000
G1 F1200.000
G1 X102.640 Y100.807 E0.02825
G1 X103.481 Y100.379 E0.02960
G1 X104.299 Y100.187 E0.02635
G1 X145.204 Y100.153 E1.28253
G1 X145.791 Y100.202 E0.01848
G1 X146.596 Y100.410 E0.02607
G1 X147.331 Y100.788 E0.02593
G1 X147.936 Y101.288 E0.02460
G1 X148.442 Y101.902 E0.02496
G1 X148.779 Y102.548 E0.02284
G1 X148.997 Y103.268 E0.02357
G1 X149.069 Y103.905 E0.02011
G1 X149.029 Y106.545 E0.08277
G1 X148.840 Y107.294 E0.02423
G1 X148.537 Y107.946 E0.02255
G1 X148.004 Y108.644 E0.02753
G1 X147.338 Y109.208 E0.02736
G1 X146.512 Y109.623 E0.02900
G1 X145.700 Y109.813 E0.02612
G1 X104.542 Y109.837 E1.29050
G1 X103.352 Y109.567 E0.03826
G1 X102.672 Y109.214 E0.02403
G1 X102.116 Y108.762 E0.02245
G1 X101.422 Y107.870 E0.03546
G1 X101.156 Y107.283 E0.02020
G1 X100.975 Y106.575 E0.02290
G1 X100.962 Y103.527 E0.09556
G1 X101.144 Y102.753 E0.02494
G1 X101.420 Y102.134 E0.02124
G1 X101.924 Y101.446 E0.02674
; printing object TF&SD C'Holder (Single).stl id:0 copy 0
;WIPE_START
G1 F8640.000
G1 X102.640 Y100.807 E-0.22160
G1 X103.481 Y100.379 E-0.21796
G1 X104.299 Y100.187 E-0.19406
G1 X107.315 Y100.184 E-0.69638
;WIPE_END
G1 E-0.07000 F2100.000
G1 Z0.400 F10800.000
G1 X104.899 Y104.126
G1 Z0.200
G1 E1.40000 F2100.000
;TYPE:Perimeter
G1 F1200.000
G1 X145.101 Y104.136 E1.26048
G1 X145.101 Y105.874 E0.05448
G1 X104.899 Y105.874 E1.26048
G1 X104.899 Y104.186 E0.05291
G1 X104.560 Y103.898 F10800.000
;TYPE:External perimeter
G1 F1200.000
G1 X104.667 Y103.785 E0.00488
G1 X104.834 Y103.749 E0.00535
G1 X145.235 Y103.759 E1.26673
G1 X145.355 Y103.804 E0.00403
G1 X145.440 Y103.898 E0.00396
G1 X145.478 Y104.019 E0.00400
G1 X145.478 Y105.981 E0.06149
G1 X145.440 Y106.102 E0.00400
G1 X145.344 Y106.209 E0.00449
G1 X145.166 Y106.251 E0.00574
G1 X104.834 Y106.251 E1.26457
G1 X104.656 Y106.209 E0.00574
G1 X104.560 Y106.102 E0.00449
G1 X104.522 Y105.981 E0.00400
G1 X104.522 Y104.019 E0.06149
G1 X104.542 Y103.955 E0.00212
G1 X104.716 Y103.896 F10800.000
;WIPE_START
G1 F8640.000
G1 X104.667 Y103.785 E-0.04874
G1 X104.834 Y103.749 E-0.03937
G1 X110.213 Y103.751 E-1.24189
;WIPE_END
G1 E-0.07000 F2100.000
G1 Z0.400 F10800.000
G1 X144.215 Y104.249
G1 Z0.200
G1 E1.40000 F2100.000
;TYPE:Solid infill
;WIDTH:0.424588
G1 F1200.000
G1 X144.818 Y104.852 E0.02704
G1 X144.818 Y105.392 E0.01713
G1 X143.845 Y104.419 E0.04366
G1 X143.305 Y104.419 E0.01713
G1 X144.477 Y105.591 E0.05261
G1 X143.938 Y105.591 E0.01713
G1 X142.765 Y104.419 E0.05262
G1 X142.225 Y104.418 E0.01713
G1 X143.398 Y105.591 E0.05262
G1 X142.858 Y105.591 E0.01713
G1 X141.686 Y104.418 E0.05263
G1 X141.146 Y104.418 E0.01713
G1 X142.318 Y105.591 E0.05264
G1 X141.779 Y105.591 E0.01713
G1 X140.606 Y104.418 E0.05264
G1 X140.066 Y104.418 E0.01713
G1 X141.239 Y105.591 E0.05265
G1 X140.699 Y105.591 E0.01713
G1 X139.526 Y104.418 E0.05265
G1 X138.986 Y104.418 E0.01713
G1 X140.159 Y105.591 E0.05266
G1 X139.620 Y105.591 E0.01713
G1 X138.446 Y104.417 E0.05267
G1 X137.906 Y104.417 E0.01713
G1 X139.080 Y105.591 E0.05267
G1 X138.540 Y105.591 E0.01713
G1 X137.366 Y104.417 E0.05268
G1 X136.826 Y104.417 E0.01713
G1 X138.000 Y105.591 E0.05269
G1 X137.461 Y105.591 E0.01713
G1 X136.287 Y104.417 E0.05269
G1 X135.747 Y104.417 E0.01713
G1 X136.921 Y105.591 E0.05270
G1 X136.381 Y105.591 E0.01713
G1 X135.207 Y104.417 E0.05270
G1 X134.667 Y104.417 E0.01713
G1 X135.841 Y105.591 E0.05271
G1 X135.302 Y105.591 E0.01713
G1 X134.127 Y104.416 E0.05272
G1 X133.587 Y104.416 E0.01713
G1 X134.762 Y105.591 E0.05272
G1 X134.222 Y105.591 E0.01713
G1 X133.047 Y104.416 E0.05273
G1 X132.507 Y104.416 E0.01713
G1 X133.682 Y105.591 E0.05273
G1 X133.143 Y105.591 E0.01713
G1 X131.967 Y104.416 E0.05274
G1 X131.428 Y104.416 E0.01713
G1 X132.603 Y105.591 E0.05275
G1 X132.063 Y105.591 E0.01713
G1 X130.888 Y104.416 E0.05275
G1 X130.348 Y104.415 E0.01713
G1 X131.523 Y105.591 E0.05276
G1 X130.983 Y105.591 E0.01713
G1 X129.808 Y104.415 E0.05276
G1 X129.268 Y104.415 E0.01713
G1 X130.444 Y105.591 E0.05277
G1 X129.904 Y105.591 E0.01713
G1 X128.728 Y104.415 E0.05278
G1 X128.188 Y104.415 E0.01713
G1 X129.364 Y105.591 E0.05278
G1 X128.824 Y105.591 E0.01713
G1 X127.648 Y104.415 E0.05279
G1 X127.108 Y104.415 E0.01713
G1 X128.285 Y105.591 E0.05279
G1 X127.745 Y105.591 E0.01713
G1 X126.568 Y104.415 E0.05280
G1 X126.029 Y104.414 E0.01713
G1 X127.205 Y105.591 E0.05281
G1 X126.665 Y105.591 E0.01713
G1 X125.489 Y104.414 E0.05281
G1 X124.949 Y104.414 E0.01713
G1 X126.126 Y105.591 E0.05282
G1 X125.586 Y105.591 E0.01713
G1 X124.409 Y104.414 E0.05283
G1 X123.869 Y104.414 E0.01713
G1 X125.046 Y105.591 E0.05283
G1 X124.506 Y105.591 E0.01713
G1 X123.329 Y104.414 E0.05284
G1 X122.789 Y104.414 E0.01713
G1 X123.967 Y105.591 E0.05284
G1 X123.427 Y105.591 E0.01713
G1 X122.249 Y104.413 E0.05285
G1 X121.709 Y104.413 E0.01713
G1 X122.887 Y105.591 E0.05286
G1 X122.347 Y105.591 E0.01713
G1 X121.169 Y104.413 E0.05286
G1 X120.630 Y104.413 E0.01713
G1 X121.808 Y105.591 E0.05287
G1 X121.268 Y105.591 E0.01713
G1 X120.090 Y104.413 E0.05287
G1 X119.550 Y104.413 E0.01713
G1 X120.728 Y105.591 E0.05288
G1 X120.188 Y105.591 E0.01713
G1 X119.010 Y104.413 E0.05289
G1 X118.470 Y104.412 E0.01713
G1 X119.649 Y105.591 E0.05289
G1 X119.109 Y105.591 E0.01713
G1 X117.930 Y104.412 E0.05290
G1 X117.390 Y104.412 E0.01713
G1 X118.569 Y105.591 E0.05290
G1 X118.029 Y105.591 E0.01713
G1 X116.850 Y104.412 E0.05291
G1 X116.310 Y104.412 E0.01713
G1 X117.489 Y105.591 E0.05292
G1 X116.950 Y105.591 E0.01713
G1 X115.771 Y104.412 E0.05292
G1 X115.231 Y104.412 E0.01713
G1 X116.410 Y105.591 E0.05293
G1 X115.870 Y105.591 E0.01713
G1 X114.691 Y104.412 E0.05293
G1 X114.151 Y104.411 E0.01713
G1 X115.330 Y105.591 E0.05294
G1 X114.791 Y105.591 E0.01713
G1 X113.611 Y104.411 E0.05295
G1 X113.071 Y104.411 E0.01713
G1 X114.251 Y105.591 E0.05295
G1 X113.711 Y105.591 E0.01713
G1 X112.531 Y104.411 E0.05296
G1 X111.991 Y104.411 E0.01713
G1 X113.171 Y105.591 E0.05297
G1 X112.632 Y105.591 E0.01713
G1 X111.451 Y104.411 E0.05297
G1 X110.911 Y104.411 E0.01713
G1 X112.092 Y105.591 E0.05298
G1 X111.552 Y105.591 E0.01713
G1 X110.372 Y104.410 E0.05298
G1 X109.832 Y104.410 E0.01713
G1 X111.012 Y105.591 E0.05299
G1 X110.473 Y105.591 E0.01713
G1 X109.292 Y104.410 E0.05300
G1 X108.752 Y104.410 E0.01713
G1 X109.933 Y105.591 E0.05300
G1 X109.393 Y105.591 E0.01713
G1 X108.212 Y104.410 E0.05301
G1 X107.672 Y104.410 E0.01713
G1 X108.853 Y105.591 E0.05301
G1 X108.314 Y105.591 E0.01713
G1 X107.132 Y104.410 E0.05302
G1 X106.592 Y104.409 E0.01713
G1 X107.774 Y105.591 E0.05303
G1 X107.234 Y105.591 E0.01713
G1 X106.052 Y104.409 E0.05303
G1 X105.513 Y104.409 E0.01713
G1 X106.694 Y105.591 E0.05304
G1 X106.155 Y105.591 E0.01713
G1 X105.182 Y104.619 E0.04364
G1 X105.182 Y105.158 E0.01713
G1 X105.784 Y105.761 E0.02703
; stop printing object TF&SD C'Holder (Single).stl id:0 copy 0
;LAYER_CHANGE
;Z:0.4
;HEIGHT:0.2
;BEFORE_LAYER_CHANGE
G92 E0.0
;0.4


;WIPE_START
G1 F8640.000
G1 X105.182 Y105.158 E-0.19666
G1 X105.182 Y104.619 E-0.12463
G1 X106.155 Y105.591 E-0.31751
G1 X106.694 Y105.591 E-0.12463
G1 X105.513 Y104.409 E-0.38590
G1 X106.052 Y104.409 E-0.12466
G1 X106.224 Y104.581 E-0.05601
;WIPE_END
G1 E-0.07000 F2100.000
G1 Z0.400 F10800.000
;AFTER_LAYER_CHANGE
;0.4
M104 S240 ; set temperature
M140 S90 ; set bed temperature
G1 Z0.600
G1 X104.222 Y99.817
G1 Z0.400
G1 E1.40000 F2100.000
;TYPE:Skirt
;WIDTH:0.42
G1 F3000.000
G1 X145.204 Y99.776 E1.28496
G1 X145.859 Y99.831 E0.02062
G1 X146.736 Y100.060 E0.02841
G1 X147.536 Y100.471 E0.02819
G1 X148.195 Y101.013 E0.02676
G1 X148.750 Y101.685 E0.02734
G1 X149.121 Y102.390 E0.02497
G1 X149.363 Y103.178 E0.02583
G1 X149.445 Y103.875 E0.02201
G1 X149.401 Y106.612 E0.08583
G1 X149.192 Y107.429 E0.02645
G1 X148.853 Y108.153 E0.02506
G1 X148.273 Y108.908 E0.02984
G1 X147.547 Y109.522 E0.02982
G1 X146.650 Y109.974 E0.03148
G1 X145.778 Y110.183 E0.02814
G1 X104.429 Y110.207 E1.29646
G1 X103.166 Y109.898 E0.04076
G1 X102.451 Y109.520 E0.02537
G1 X101.844 Y109.024 E0.02458
G1 X101.086 Y108.042 E0.03888
G1 X100.800 Y107.408 E0.02182
G1 X100.605 Y106.653 E0.02443
G1 X100.551 Y105.990 E0.02087
G1 X100.588 Y103.482 E0.07865
G1 X100.786 Y102.633 E0.02733
G1 X101.094 Y101.944 E0.02365
G1 X101.693 Y101.128 E0.03174
G1 X102.422 Y100.499 E0.03020
G1 X103.338 Y100.031 E0.03225
G1 X104.164 Y99.831 E0.02663
G1 X104.250 Y100.198 F10800.000
G1 F3000.000
G1 X145.204 Y100.153 E1.28407
G1 X145.791 Y100.202 E0.01848
G1 X146.596 Y100.410 E0.02607
G1 X147.331 Y100.788 E0.02593
G1 X147.936 Y101.288 E0.02460
G1 X148.442 Y101.902 E0.02496
G1 X148.779 Y102.548 E0.02284
G1 X148.997 Y103.268 E0.02357
G1 X149.069 Y103.905 E0.02011
G1 X149.029 Y106.545 E0.08277
G1 X148.840 Y107.294 E0.02423
G1 X148.537 Y107.946 E0.02255
G1 X148.004 Y108.644 E0.02753
G1 X147.338 Y109.208 E0.02736
G1 X146.512 Y109.623 E0.02900
G1 X145.700 Y109.813 E0.02612
G1 X104.542 Y109.837 E1.29050
G1 X103.352 Y109.567 E0.03826
G1 X102.672 Y109.214 E0.02403
G1 X102.116 Y108.762 E0.02245
G1 X101.422 Y107.870 E0.03546
G1 X101.156 Y107.283 E0.02020
G1 X100.975 Y106.575 E0.02290
G1 X100.962 Y103.527 E0.09556
G1 X101.144 Y102.753 E0.02494
G1 X101.420 Y102.134 E0.02124
G1 X101.970 Y101.384 E0.02918
G1 X102.640 Y100.807 E0.02771
G1 X103.481 Y100.379 E0.02960
G1 X104.192 Y100.212 E0.02288
; printing object TF&SD C'Holder (Single).stl id:0 copy 0
;WIPE_START
G1 F8640.000
G1 X109.952 Y100.204 E-1.33000
;WIPE_END
G1 E-0.07000 F2100.000
G1 Z0.600 F10800.000
G1 X104.471 Y103.590
G1 Z0.400
G1 E1.40000 F2100.000
M204 S800
;TYPE:Perimeter
;WIDTH:0.45
G1 F2700.000
G1 X104.645 Y103.504 E0.00656
G1 X104.842 Y103.478 E0.00671
G1 X145.228 Y103.486 E1.36704
G1 X145.378 Y103.511 E0.00514
G1 X145.526 Y103.586 E0.00561
G1 X145.631 Y103.694 E0.00510
G1 X145.704 Y103.813 E0.00473
G1 X145.741 Y103.931 E0.00421
G1 X145.741 Y106.069 E0.07234
G1 X145.704 Y106.187 E0.00421
G1 X145.630 Y106.308 E0.00479
G1 X145.535 Y106.406 E0.00464
G1 X145.354 Y106.497 E0.00684
G1 X145.158 Y106.522 E0.00668
G1 X104.842 Y106.522 E1.36468
G1 X104.646 Y106.497 E0.00668
G1 X104.465 Y106.406 E0.00684
G1 X104.370 Y106.308 E0.00464
G1 X104.298 Y106.191 E0.00465
G1 X104.261 Y106.067 E0.00438
G1 X104.259 Y103.931 E0.07228
G1 X104.296 Y103.813 E0.00421
G1 X104.429 Y103.632 E0.00759
M204 S1000
G1 X104.139 Y103.347 F10800.000
M204 S800
;TYPE:External perimeter
G1 F1500.000
G1 X104.229 Y103.255 E0.00435
G1 X104.525 Y103.109 E0.01117
G1 X104.815 Y103.070 E0.00991
G1 X145.261 Y103.079 E1.36906
G1 X145.507 Y103.119 E0.00844
G1 X145.770 Y103.254 E0.01000
G1 X145.954 Y103.441 E0.00888
G1 X146.078 Y103.643 E0.00803
G1 X146.145 Y103.858 E0.00761
G1 X146.145 Y106.142 E0.07729
G1 X146.078 Y106.357 E0.00762
G1 X145.954 Y106.559 E0.00805
G1 X145.778 Y106.739 E0.00850
G1 X145.475 Y106.891 E0.01148
G1 X145.185 Y106.930 E0.00990
G1 X104.815 Y106.930 E1.36649
G1 X104.525 Y106.891 E0.00990
G1 X104.222 Y106.739 E0.01148
G1 X104.046 Y106.559 E0.00850
G1 X103.923 Y106.358 E0.00800
G1 X103.855 Y106.127 E0.00816
G1 X103.855 Y103.858 E0.07678
G1 X103.922 Y103.643 E0.00761
G1 X104.046 Y103.441 E0.00803
G1 X104.097 Y103.390 E0.00245
M204 S1000
G1 X104.265 Y103.373 F10800.000
;WIPE_START
G1 F8640.000
G1 X104.229 Y103.255 E-0.04350
G1 X104.525 Y103.109 E-0.07617
G1 X104.815 Y103.070 E-0.06760
G1 X109.764 Y103.072 E-1.14273
;WIPE_END
G1 E-0.07000 F2100.000
G1 Z0.600 F10800.000
G1 X145.106 Y106.400
G1 Z0.400
G1 E1.40000 F2100.000
;TYPE:Solid infill
;WIDTH:0.453906
G1 F3872
G1 X145.390 Y106.116 E0.01373
G1 X145.424 Y106.060 E0.00225
G1 X145.442 Y105.948 E0.00387
G1 X145.441 Y105.484 E0.01587
G1 X144.708 Y106.217 E0.03543
G1 X144.126 Y106.217 E0.01986
G1 X145.439 Y104.905 E0.06343
G1 X145.437 Y104.325 E0.01980
G1 X143.545 Y106.217 E0.09143
G1 X142.964 Y106.217 E0.01986
G1 X145.344 Y103.837 E0.11503
G1 X145.204 Y103.792 E0.00505
G1 X144.808 Y103.791 E0.01350
G1 X142.383 Y106.217 E0.11723
G1 X141.801 Y106.217 E0.01986
G1 X144.227 Y103.791 E0.11724
G1 X143.646 Y103.791 E0.01986
G1 X141.220 Y106.217 E0.11725
G1 X140.639 Y106.217 E0.01986
G1 X143.065 Y103.791 E0.11725
G1 X142.484 Y103.791 E0.01986
G1 X140.058 Y106.217 E0.11726
G1 X139.477 Y106.217 E0.01986
G1 X141.903 Y103.791 E0.11726
G1 X141.322 Y103.791 E0.01986
G1 X138.895 Y106.217 E0.11727
G1 X138.314 Y106.217 E0.01986
G1 X140.741 Y103.791 E0.11728
G1 X140.160 Y103.790 E0.01986
G1 X137.733 Y106.217 E0.11728
G1 X137.152 Y106.217 E0.01986
G1 X139.579 Y103.790 E0.11729
G1 X138.997 Y103.790 E0.01986
G1 X136.570 Y106.217 E0.11729
G1 X135.989 Y106.217 E0.01986
G1 X138.416 Y103.790 E0.11730
G1 X137.835 Y103.790 E0.01986
G1 X135.408 Y106.217 E0.11731
G1 X134.827 Y106.217 E0.01986
G1 X137.254 Y103.790 E0.11731
G1 X136.673 Y103.790 E0.01986
G1 X134.246 Y106.217 E0.11732
G1 X133.664 Y106.217 E0.01986
G1 X136.092 Y103.790 E0.11732
G1 X135.511 Y103.789 E0.01986
G1 X133.083 Y106.217 E0.11733
G1 X132.502 Y106.217 E0.01986
G1 X134.930 Y103.789 E0.11734
G1 X134.349 Y103.789 E0.01986
G1 X131.921 Y106.217 E0.11734
G1 X131.339 Y106.217 E0.01986
G1 X133.768 Y103.789 E0.11735
G1 X133.186 Y103.789 E0.01986
G1 X130.758 Y106.217 E0.11735
G1 X130.177 Y106.217 E0.01986
G1 X132.605 Y103.789 E0.11736
G1 X132.024 Y103.789 E0.01986
G1 X129.596 Y106.217 E0.11737
G1 X129.015 Y106.217 E0.01986
G1 X131.443 Y103.789 E0.11737
G1 X130.862 Y103.788 E0.01986
G1 X128.433 Y106.217 E0.11738
G1 X127.852 Y106.217 E0.01986
G1 X130.281 Y103.788 E0.11738
G1 X129.700 Y103.788 E0.01986
