; generated by PrusaSlicer 2.3.1+win64 on 2021-08-02 at 15:35:36 UTC

; 

; external perimeters extrusion width = 0.45mm
; perimeters extrusion width = 0.45mm
; infill extrusion width = 0.45mm
; solid infill extrusion width = 0.45mm
; top infill extrusion width = 0.40mm
; first layer extrusion width = 0.42mm

M73 P0 R159
M73 Q0 S159
M201 X1000 Y1000 Z200 E5000 ; sets maximum accelerations, mm/sec^2
M203 X200 Y200 Z12 E120 ; sets maximum feedrates, mm/sec
M204 P1250 R1250 T1250 ; sets acceleration (P, T) and retract acceleration (R), mm/sec^2
M205 X8.00 Y8.00 Z0.40 E4.50 ; sets the jerk limits, mm/sec
M205 S0 T0 ; sets the minimum extruding and travel feed rate, mm/sec
M107
;TYPE:Custom
M862.3 P "MK3" ; printer model check
M862.1 P0.4 ; nozzle diameter check
M115 U3.9.3 ; tell printer latest fw version
G90 ; use absolute coordinates
M83 ; extruder relative mode
M104 S230 ; set extruder temp
M140 S85 ; set bed temp
M190 S85 ; wait for bed temp
M109 S230 ; wait for extruder temp
G28 W ; home all without mesh bed level
G80 ; mesh bed leveling
G1 Y-3.0 F1000.0 ; go outside print area
G92 E0.0
G1 X60.0 E9.0 F1000.0 ; intro line
G1 X100.0 E12.5 F1000.0 ; intro line
G92 E0.0
M221 S95

; Don't change E values below. Excessive value can damage the printer.
M907 E430 ; set extruder motor current
G21 ; set units to millimeters
G90 ; use absolute coordinates
M83 ; use relative distances for extrusion
M900 K0.08 ; Filament gcode LA 1.5
M900 K45 ; Filament gcode LA 1.0
;LAYER_CHANGE
;Z:0.2
;HEIGHT:0.2
;BEFORE_LAYER_CHANGE
G92 E0.0
;0.2


G1 E-1.40000 F2100.000
G1 Z0.200 F10800.000
;AFTER_LAYER_CHANGE
;0.2
G1 Z0.400
G1 X100.601 Y99.400
G1 Z0.200
G1 E1.40000 F2100.000
M204 S1000
;TYPE:Skirt
;WIDTH:0.42
G1 F1200.000
G1 X100.888 Y98.419 E0.03205
G1 X101.169 Y97.869 E0.01937
G1 X101.575 Y97.311 E0.02165
G1 X102.376 Y96.587 E0.03383
G1 X103.371 Y96.072 E0.03512
G1 X104.103 Y95.885 E0.02369
G1 X104.783 Y95.826 E0.02140
G1 X145.204 Y95.826 E1.26739
G1 X145.918 Y95.889 E0.02247
G1 X146.710 Y96.102 E0.02571
G1 X147.497 Y96.504 E0.02772
G1 X148.037 Y96.914 E0.02125
G1 X148.478 Y97.377 E0.02004
G1 X148.950 Y98.081 E0.02658
G1 X149.253 Y98.788 E0.02413
G1 X149.433 Y99.686 E0.02870
G1 X149.449 Y109.937 E0.32143
G1 X149.385 Y110.672 E0.02313
G1 X149.100 Y111.607 E0.03064
G1 X148.822 Y112.145 E0.01898
G1 X148.409 Y112.708 E0.02191
G1 X147.614 Y113.420 E0.03345
G1 X146.629 Y113.928 E0.03474
G1 X145.897 Y114.115 E0.02370
G1 X145.217 Y114.174 E0.02141
G1 X104.644 Y114.169 E1.27213
G1 X103.383 Y113.932 E0.04025
G1 X102.309 Y113.366 E0.03807
G1 X101.485 Y112.574 E0.03582
G1 X101.108 Y112.027 E0.02082
G1 X100.784 Y111.325 E0.02427
G1 X100.602 Y110.602 E0.02336
G1 X100.551 Y109.968 E0.01996
G1 X100.601 Y99.460 E0.32946
G1 X100.970 Y99.484 F10800.000
G1 F1200.000
G1 X101.226 Y98.585 E0.02929
G1 X101.862 Y97.555 E0.03797
G1 X102.596 Y96.892 E0.03100
G1 X103.512 Y96.423 E0.03226
G1 X104.173 Y96.255 E0.02139
G1 X104.787 Y96.203 E0.01933
G1 X145.204 Y96.203 E1.26723
G1 X145.849 Y96.259 E0.02032
G1 X146.574 Y96.454 E0.02351
G1 X147.299 Y96.825 E0.02556
G1 X147.784 Y97.194 E0.01909
G1 X148.180 Y97.607 E0.01795
G1 X148.614 Y98.254 E0.02443
G1 X148.893 Y98.898 E0.02201
G1 X149.058 Y99.729 E0.02656
G1 X149.020 Y110.573 E0.33999
G1 X148.764 Y111.435 E0.02822
G1 X148.125 Y112.460 E0.03785
G1 X147.401 Y113.110 E0.03053
G1 X146.488 Y113.577 E0.03214
G1 X145.827 Y113.745 E0.02139
G1 X145.212 Y113.797 E0.01933
G1 X104.674 Y113.793 E1.27104
G1 X103.509 Y113.576 E0.03718
G1 X102.530 Y113.060 E0.03469
G1 X101.783 Y112.344 E0.03243
G1 X101.435 Y111.840 E0.01920
G1 X101.133 Y111.181 E0.02273
G1 X100.972 Y110.531 E0.02099
G1 X100.928 Y109.961 E0.01795
G1 X100.970 Y99.544 E0.32662
; printing object TF&SD C'Holder (Triple).stl id:0 copy 0
;WIPE_START
G1 F8640.000
G1 X101.226 Y98.585 E-0.22907
G1 X101.862 Y97.555 E-0.27959
G1 X102.596 Y96.892 E-0.22829
G1 X103.512 Y96.423 E-0.23759
G1 X104.173 Y96.255 E-0.15753
G1 X104.787 Y96.203 E-0.14236
G1 X105.028 Y96.203 E-0.05558
;WIPE_END
G1 E-0.07000 F2100.000
G1 Z0.400 F10800.000
G1 X104.901 Y100.176
G1 Z0.200
G1 E1.40000 F2100.000
;TYPE:Perimeter
G1 F1200.000
G1 X145.099 Y100.176 E1.26037
G1 X145.099 Y109.824 E0.30249
G1 X104.901 Y109.824 E1.26037
G1 X104.901 Y100.236 E0.30061
G1 X104.643 Y99.850 F10800.000
;TYPE:External perimeter
G1 F1200.000
G1 X104.831 Y99.799 E0.00612
G1 X145.242 Y99.810 E1.26707
G1 X145.357 Y99.850 E0.00381
G1 X145.444 Y99.963 E0.00447
G1 X145.476 Y100.093 E0.00420
G1 X145.476 Y109.906 E0.30766
G1 X145.443 Y110.038 E0.00427
G1 X145.352 Y110.153 E0.00461
G1 X145.169 Y110.201 E0.00594
G1 X104.842 Y110.201 E1.26443
G1 X104.642 Y110.150 E0.00646
G1 X104.556 Y110.037 E0.00445
G1 X104.524 Y109.907 E0.00420
G1 X104.524 Y100.094 E0.30766
G1 X104.557 Y99.962 E0.00427
G1 X104.606 Y99.897 E0.00256
G1 X104.814 Y99.943 F10800.000
;WIPE_START
G1 F8640.000
G1 X104.831 Y99.799 E-0.05666
G1 X110.346 Y99.801 E-1.27334
;WIPE_END
M73 P0 R158
G1 E-0.07000 F2100.000
G1 Z0.400 F10800.000
G1 X144.986 Y101.058
G1 Z0.200
G1 E1.40000 F2100.000
;TYPE:Solid infill
;WIDTH:0.423128
G1 F1200.000
G1 X144.386 Y100.459 E0.02679
G1 X143.849 Y100.459 E0.01700
G1 X144.816 Y101.426 E0.04324
G1 X144.816 Y101.964 E0.01700
G1 X143.311 Y100.459 E0.06728
G1 X142.773 Y100.459 E0.01700
G1 X144.816 Y102.502 E0.09132
G1 X144.816 Y103.039 E0.01700
G1 X142.236 Y100.459 E0.11536
G1 X141.698 Y100.459 E0.01700
G1 X144.816 Y103.577 E0.13940
G1 X144.816 Y104.115 E0.01700
G1 X141.160 Y100.459 E0.16344
G1 X140.623 Y100.459 E0.01700
G1 X144.816 Y104.652 E0.18749
G1 X144.816 Y105.190 E0.01700
G1 X140.085 Y100.459 E0.21153
G1 X139.547 Y100.459 E0.01700
G1 X144.816 Y105.728 E0.23557
G1 X144.816 Y106.266 E0.01700
G1 X139.010 Y100.459 E0.25961
G1 X138.472 Y100.459 E0.01700
G1 X144.816 Y106.803 E0.28365
G1 X144.816 Y107.341 E0.01700
G1 X137.934 Y100.459 E0.30769
G1 X137.396 Y100.459 E0.01700
G1 X144.816 Y107.879 E0.33173
G1 X144.816 Y108.416 E0.01700
G1 X136.859 Y100.459 E0.35577
G1 X136.321 Y100.459 E0.01700
G1 X144.816 Y108.954 E0.37981
G1 X144.816 Y109.492 E0.01700
G1 X135.783 Y100.459 E0.40385
G1 X135.246 Y100.459 E0.01700
G1 X144.328 Y109.541 E0.40605
G1 X143.790 Y109.541 E0.01700
G1 X134.708 Y100.459 E0.40605
G1 X134.170 Y100.459 E0.01700
G1 X143.252 Y109.541 E0.40605
G1 X142.714 Y109.541 E0.01700
G1 X133.633 Y100.459 E0.40605
G1 X133.095 Y100.459 E0.01700
G1 X142.177 Y109.541 E0.40605
G1 X141.639 Y109.541 E0.01700
G1 X132.557 Y100.459 E0.40605
G1 X132.019 Y100.459 E0.01700
G1 X141.101 Y109.541 E0.40605
G1 X140.564 Y109.541 E0.01700
G1 X131.482 Y100.459 E0.40605
M73 Q0 S158
G1 X130.944 Y100.459 E0.01700
G1 X140.026 Y109.541 E0.40605
G1 X139.488 Y109.541 E0.01700
G1 X130.406 Y100.459 E0.40605
G1 X129.869 Y100.459 E0.01700
G1 X138.951 Y109.541 E0.40605
G1 X138.413 Y109.541 E0.01700
G1 X129.331 Y100.459 E0.40605
G1 X128.793 Y100.459 E0.01700
G1 X137.875 Y109.541 E0.40605
G1 X137.338 Y109.541 E0.01700
G1 X128.256 Y100.459 E0.40605
G1 X127.718 Y100.459 E0.01700
G1 X136.800 Y109.541 E0.40605
G1 X136.262 Y109.541 E0.01700
G1 X127.180 Y100.459 E0.40605
G1 X126.643 Y100.459 E0.01700
G1 X135.724 Y109.541 E0.40605
G1 X135.187 Y109.541 E0.01700
G1 X126.105 Y100.459 E0.40605
G1 X125.567 Y100.459 E0.01700
G1 X134.649 Y109.541 E0.40605
G1 X134.111 Y109.541 E0.01700
G1 X125.029 Y100.459 E0.40605
G1 X124.492 Y100.459 E0.01700
G1 X133.574 Y109.541 E0.40605
G1 X133.036 Y109.541 E0.01700
G1 X123.954 Y100.459 E0.40605
G1 X123.416 Y100.459 E0.01700
G1 X132.498 Y109.541 E0.40605
G1 X131.961 Y109.541 E0.01700
G1 X122.879 Y100.459 E0.40605
G1 X122.341 Y100.459 E0.01700
G1 X131.423 Y109.541 E0.40605
G1 X130.885 Y109.541 E0.01700
G1 X121.803 Y100.459 E0.40605
G1 X121.266 Y100.459 E0.01700
G1 X130.347 Y109.541 E0.40605
G1 X129.810 Y109.541 E0.01700
G1 X120.728 Y100.459 E0.40605
G1 X120.190 Y100.459 E0.01700
G1 X129.272 Y109.541 E0.40605
G1 X128.734 Y109.541 E0.01700
G1 X119.652 Y100.459 E0.40605
G1 X119.115 Y100.459 E0.01700
G1 X128.197 Y109.541 E0.40605
G1 X127.659 Y109.541 E0.01700
G1 X118.577 Y100.459 E0.40605
G1 X118.039 Y100.459 E0.01700
G1 X127.121 Y109.541 E0.40605
G1 X126.584 Y109.541 E0.01700
G1 X117.502 Y100.459 E0.40605
G1 X116.964 Y100.459 E0.01700
G1 X126.046 Y109.541 E0.40605
G1 X125.508 Y109.541 E0.01700
G1 X116.426 Y100.459 E0.40605
G1 X115.889 Y100.459 E0.01700
G1 X124.971 Y109.541 E0.40605
G1 X124.433 Y109.541 E0.01700
G1 X115.351 Y100.459 E0.40605
G1 X114.813 Y100.459 E0.01700
G1 X123.895 Y109.541 E0.40605
G1 X123.357 Y109.541 E0.01700
G1 X114.276 Y100.459 E0.40605
G1 X113.738 Y100.459 E0.01700
G1 X122.820 Y109.541 E0.40605
G1 X122.282 Y109.541 E0.01700
G1 X113.200 Y100.459 E0.40605
G1 X112.662 Y100.459 E0.01700
G1 X121.744 Y109.541 E0.40605
G1 X121.207 Y109.541 E0.01700
G1 X112.125 Y100.459 E0.40605
G1 X111.587 Y100.459 E0.01700
G1 X120.669 Y109.541 E0.40605
G1 X120.131 Y109.541 E0.01700
G1 X111.049 Y100.459 E0.40605
G1 X110.512 Y100.459 E0.01700
G1 X119.594 Y109.541 E0.40605
G1 X119.056 Y109.541 E0.01700
G1 X109.974 Y100.459 E0.40605
G1 X109.436 Y100.459 E0.01700
G1 X118.518 Y109.541 E0.40605
G1 X117.981 Y109.541 E0.01700
G1 X108.899 Y100.459 E0.40605
G1 X108.361 Y100.459 E0.01700
G1 X117.443 Y109.541 E0.40605
G1 X116.905 Y109.541 E0.01700
G1 X107.823 Y100.459 E0.40605
G1 X107.285 Y100.459 E0.01700
G1 X116.367 Y109.541 E0.40605
G1 X115.830 Y109.541 E0.01700
G1 X106.748 Y100.459 E0.40605
G1 X106.210 Y100.459 E0.01700
G1 X115.292 Y109.541 E0.40605
G1 X114.754 Y109.541 E0.01700
G1 X105.672 Y100.459 E0.40605
G1 X105.184 Y100.459 E0.01544
G1 X105.184 Y100.508 E0.00156
G1 X114.217 Y109.541 E0.40385
G1 X113.679 Y109.541 E0.01700
G1 X105.184 Y101.046 E0.37980
G1 X105.184 Y101.584 E0.01700
G1 X113.141 Y109.541 E0.35576
G1 X112.604 Y109.541 E0.01700
G1 X105.184 Y102.121 E0.33172
G1 X105.184 Y102.659 E0.01700
G1 X112.066 Y109.541 E0.30768
G1 X111.528 Y109.541 E0.01700
G1 X105.184 Y103.197 E0.28364
G1 X105.184 Y103.734 E0.01700
G1 X110.990 Y109.541 E0.25960
G1 X110.453 Y109.541 E0.01700
G1 X105.184 Y104.272 E0.23556
G1 X105.184 Y104.810 E0.01700
G1 X109.915 Y109.541 E0.21152
G1 X109.377 Y109.541 E0.01700
G1 X105.184 Y105.348 E0.18748
G1 X105.184 Y105.885 E0.01700
G1 X108.840 Y109.541 E0.16344
G1 X108.302 Y109.541 E0.01700
G1 X105.184 Y106.423 E0.13940
G1 X105.184 Y106.961 E0.01700
G1 X107.764 Y109.541 E0.11536
G1 X107.227 Y109.541 E0.01700
G1 X105.184 Y107.498 E0.09132
G1 X105.184 Y108.036 E0.01700
G1 X106.689 Y109.541 E0.06728
G1 X106.151 Y109.541 E0.01700
G1 X105.184 Y108.574 E0.04324
G1 X105.184 Y109.111 E0.01700
G1 X105.783 Y109.711 E0.02679
; stop printing object TF&SD C'Holder (Triple).stl id:0 copy 0
;LAYER_CHANGE
;Z:0.4
;HEIGHT:0.2
;BEFORE_LAYER_CHANGE
G92 E0.0
;0.4


;WIPE_START
G1 F8640.000
G1 X105.184 Y109.111 E-0.19567
G1 X105.184 Y108.574 E-0.12416
G1 X106.151 Y109.541 E-0.31584
G1 X106.689 Y109.541 E-0.12416
G1 X105.184 Y108.036 E-0.49142
G1 X105.184 Y107.695 E-0.07876
;WIPE_END
G1 E-0.07000 F2100.000
G1 Z0.400 F10800.000
;AFTER_LAYER_CHANGE
;0.4
M104 S240 ; set temperature
M140 S90 ; set bed temperature
G1 Z0.600
G1 X103.383 Y113.932
G1 Z0.400
G1 E1.40000 F2100.000
;TYPE:Skirt
;WIDTH:0.42
G1 F3000.000
G1 X102.309 Y113.366 E0.03807
G1 X101.485 Y112.574 E0.03582
G1 X101.108 Y112.027 E0.02082
G1 X100.784 Y111.325 E0.02427
G1 X100.602 Y110.602 E0.02336
G1 X100.551 Y109.968 E0.01996
G1 X100.601 Y99.400 E0.33134
G1 X100.888 Y98.419 E0.03205
G1 X101.169 Y97.869 E0.01937
G1 X101.575 Y97.311 E0.02165
G1 X102.376 Y96.587 E0.03383
G1 X103.371 Y96.072 E0.03512
G1 X104.103 Y95.885 E0.02369
G1 X104.783 Y95.826 E0.02140
G1 X145.204 Y95.826 E1.26739
G1 X145.918 Y95.889 E0.02247
G1 X146.710 Y96.102 E0.02571
G1 X147.497 Y96.504 E0.02772
G1 X148.037 Y96.914 E0.02125
G1 X148.478 Y97.377 E0.02004
G1 X148.950 Y98.081 E0.02658
G1 X149.253 Y98.788 E0.02413
G1 X149.433 Y99.686 E0.02870
G1 X149.449 Y109.937 E0.32143
G1 X149.385 Y110.672 E0.02313
G1 X149.100 Y111.607 E0.03064
G1 X148.822 Y112.145 E0.01898
G1 X148.409 Y112.708 E0.02191
G1 X147.614 Y113.420 E0.03345
G1 X146.629 Y113.928 E0.03474
G1 X145.897 Y114.115 E0.02370
G1 X145.217 Y114.174 E0.02141
G1 X104.644 Y114.169 E1.27213
G1 X103.442 Y113.943 E0.03837
G1 X103.510 Y113.577 F10800.000
G1 F3000.000
G1 X102.530 Y113.060 E0.03473
G1 X101.783 Y112.344 E0.03243
G1 X101.435 Y111.840 E0.01920
G1 X101.133 Y111.181 E0.02273
G1 X100.972 Y110.531 E0.02099
G1 X100.928 Y109.961 E0.01795
G1 X100.970 Y99.484 E0.32850
G1 X101.226 Y98.585 E0.02929
G1 X101.862 Y97.555 E0.03797
G1 X102.596 Y96.892 E0.03100
G1 X103.512 Y96.423 E0.03226
G1 X104.173 Y96.255 E0.02139
G1 X104.787 Y96.203 E0.01933
G1 X145.204 Y96.203 E1.26723
G1 X145.849 Y96.259 E0.02032
G1 X146.574 Y96.454 E0.02351
G1 X147.299 Y96.825 E0.02556
G1 X147.784 Y97.194 E0.01909
G1 X148.180 Y97.607 E0.01795
G1 X148.614 Y98.254 E0.02443
G1 X148.893 Y98.898 E0.02201
G1 X149.058 Y99.729 E0.02656
G1 X149.020 Y110.573 E0.33999
G1 X148.764 Y111.435 E0.02822
G1 X148.125 Y112.460 E0.03785
G1 X147.401 Y113.110 E0.03053
G1 X146.488 Y113.577 E0.03214
G1 X145.827 Y113.745 E0.02139
G1 X145.212 Y113.797 E0.01933
G1 X104.674 Y113.793 E1.27104
G1 X103.569 Y113.588 E0.03526
; printing object TF&SD C'Holder (Triple).stl id:0 copy 0
;WIPE_START
G1 F8640.000
G1 X102.530 Y113.060 E-0.26904
G1 X101.783 Y112.344 E-0.23885
G1 X101.435 Y111.840 E-0.14142
G1 X101.133 Y111.181 E-0.16741
G1 X100.972 Y110.531 E-0.15459
G1 X100.928 Y109.961 E-0.13219
G1 X100.932 Y108.980 E-0.22650
;WIPE_END
G1 E-0.07000 F2100.000
G1 Z0.600 F10800.000
G1 X104.455 Y110.345
G1 Z0.400
G1 E1.40000 F2100.000
M204 S800
;TYPE:Perimeter
;WIDTH:0.45
G1 F2700.000
G1 X104.359 Y110.242 E0.00478
G1 X104.294 Y110.122 E0.00461
G1 X104.253 Y109.906 E0.00744
G1 X104.256 Y100.054 E0.33349
G1 X104.299 Y99.869 E0.00643
G1 X104.359 Y99.758 E0.00427
G1 X104.455 Y99.655 E0.00478
G1 X104.611 Y99.564 E0.00609
G1 X104.837 Y99.523 E0.00778
G1 X145.201 Y99.528 E1.36629
G1 X145.398 Y99.567 E0.00679
G1 X145.563 Y99.665 E0.00647
G1 X145.636 Y99.749 E0.00378
G1 X145.706 Y99.878 E0.00497
G1 X145.743 Y100.018 E0.00490
G1 X145.744 Y109.946 E0.33605
G1 X145.701 Y110.131 E0.00643
G1 X145.641 Y110.242 E0.00427
G1 X145.545 Y110.345 E0.00478
G1 X145.389 Y110.436 E0.00609
G1 X145.163 Y110.477 E0.00778
G1 X104.837 Y110.477 E1.36501
G1 X104.611 Y110.436 E0.00778
G1 X104.507 Y110.375 E0.00406
M204 S1000
M73 P0 R157
G1 X104.302 Y110.727 F10800.000
M204 S800
;TYPE:External perimeter
G1 F1500.000
G1 X104.198 Y110.667 E0.00408
G1 X104.026 Y110.481 E0.00857
G1 X103.913 Y110.273 E0.00801
G1 X103.853 Y110.047 E0.00794
G1 X103.845 Y109.918 E0.00435
G1 X103.849 Y100.008 E0.33546
G1 X103.914 Y99.724 E0.00987
G1 X104.026 Y99.519 E0.00789
G1 X104.198 Y99.333 E0.00857
G1 X104.467 Y99.177 E0.01054
G1 X104.800 Y99.116 E0.01143
G1 X145.242 Y99.121 E1.36891
G1 X145.546 Y99.182 E0.01049
G1 X145.809 Y99.337 E0.01034
G1 X145.972 Y99.515 E0.00819
G1 X146.087 Y99.727 E0.00814
G1 X146.147 Y99.953 E0.00794
G1 X146.151 Y109.992 E0.33980
G1 X146.086 Y110.277 E0.00988
G1 X145.974 Y110.481 E0.00789
G1 X145.802 Y110.667 E0.00857
G1 X145.533 Y110.823 E0.01054
G1 X145.200 Y110.884 E0.01143
G1 X104.800 Y110.884 E1.36751
G1 X104.467 Y110.823 E0.01143
G1 X104.354 Y110.757 E0.00443
M204 S1000
G1 X104.294 Y110.607 F10800.000
;WIPE_START
G1 F8640.000
G1 X104.198 Y110.667 E-0.04169
G1 X104.026 Y110.481 E-0.05847
G1 X103.913 Y110.273 E-0.05464
G1 X103.853 Y110.047 E-0.05414
G1 X103.845 Y109.918 E-0.02967
G1 X103.847 Y105.192 E-1.09139
;WIPE_END
M73 Q1 S158
G1 E-0.07000 F2100.000
G1 Z0.600 F10800.000
G1 X145.101 Y110.355
M73 P1 R157
G1 Z0.400
G1 E1.40000 F2100.000
;TYPE:Solid infill
;WIDTH:0.452017
G1 F4800.000
G1 X145.413 Y110.022 E0.01552
G1 X145.439 Y109.911 E0.00387
G1 X145.439 Y109.439 E0.01607
G1 X144.706 Y110.172 E0.03526
G1 X144.127 Y110.172 E0.01968
G1 X145.439 Y108.860 E0.06310
G1 X145.439 Y108.281 E0.01969
G1 X143.549 Y110.172 E0.09095
G1 X142.970 Y110.172 E0.01968
G1 X145.440 Y107.702 E0.11879
G1 X145.440 Y107.124 E0.01969
G1 X142.392 Y110.172 E0.14663
G1 X141.813 Y110.172 E0.01968
G1 X145.440 Y106.545 E0.17447
G1 X145.440 Y105.966 E0.01969
G1 X141.235 Y110.172 E0.20231
