; generated by PrusaSlicer 2.3.1+win64 on 2021-06-29 at 19:36:39 UTC

; 

; external perimeters extrusion width = 0.45mm
; perimeters extrusion width = 0.45mm
; infill extrusion width = 0.45mm
; solid infill extrusion width = 0.45mm
; top infill extrusion width = 0.40mm
; first layer extrusion width = 0.42mm

M73 P0 R128
M73 Q0 S129
M201 X1000 Y1000 Z200 E5000 ; sets maximum accelerations, mm/sec^2
M203 X200 Y200 Z12 E120 ; sets maximum feedrates, mm/sec
M204 P1250 R1250 T1250 ; sets acceleration (P, T) and retract acceleration (R), mm/sec^2
M205 X8.00 Y8.00 Z0.40 E4.50 ; sets the jerk limits, mm/sec
M205 S0 T0 ; sets the minimum extruding and travel feed rate, mm/sec
M107
;TYPE:Custom
M862.3 P "MK3" ; printer model check
M862.1 P0.4 ; nozzle diameter check
M115 U3.9.3 ; tell printer latest fw version
G90 ; use absolute coordinates
M83 ; extruder relative mode
M104 S215 ; set extruder temp
M140 S60 ; set bed temp
M190 S60 ; wait for bed temp
M109 S215 ; wait for extruder temp
G28 W ; home all without mesh bed level
G80 ; mesh bed leveling
G1 Y-3.0 F1000.0 ; go outside print area
G92 E0.0
G1 X60.0 E9.0 F1000.0 ; intro line
G1 X100.0 E12.5 F1000.0 ; intro line
G92 E0.0
M221 S95

; Don't change E values below. Excessive value can damage the printer.
M907 E430 ; set extruder motor current
G21 ; set units to millimeters
G90 ; use absolute coordinates
M83 ; use relative distances for extrusion
M900 K0.05 ; Filament gcode LA 1.5
M900 K30 ; Filament gcode LA 1.0
;LAYER_CHANGE
;Z:0.2
;HEIGHT:0.2
;BEFORE_LAYER_CHANGE
G92 E0.0
;0.2


M73 Q0 S128
G1 E-0.80000 F2100.000
G1 Z0.400 F10800.000
;AFTER_LAYER_CHANGE
;0.2
G1 X103.651 Y97.958
G1 Z0.200
G1 E0.80000 F2100.000
M204 S1000
;TYPE:Skirt
;WIDTH:0.42
G1 F1200.000
G1 X104.791 Y97.801 E0.03609
G1 X145.204 Y97.801 E1.26712
G1 X145.855 Y97.855 E0.02049
G1 X146.721 Y98.079 E0.02802
G1 X147.518 Y98.485 E0.02806
G1 X148.153 Y98.999 E0.02560
G1 X148.727 Y99.676 E0.02785
G1 X149.091 Y100.348 E0.02393
G1 X149.345 Y101.127 E0.02570
G1 X149.434 Y101.730 E0.01911
G1 X149.448 Y108.024 E0.19734
G1 X149.236 Y109.272 E0.03970
G1 X148.815 Y110.191 E0.03171
G1 X148.186 Y110.970 E0.03137
G1 X147.418 Y111.577 E0.03070
G1 X146.349 Y112.042 E0.03656
G1 X145.209 Y112.199 E0.03609
G1 X104.525 Y112.189 E1.27561
G1 X103.325 Y111.939 E0.03843
G1 X102.608 Y111.592 E0.02500
G1 X102.158 Y111.276 E0.01722
G1 X101.674 Y110.826 E0.02071
G1 X101.194 Y110.205 E0.02460
G1 X100.850 Y109.517 E0.02413
G1 X100.655 Y108.873 E0.02110
G1 X100.551 Y107.993 E0.02778
G1 X100.551 Y102.042 E0.18661
G1 X100.672 Y101.059 E0.03104
G1 X101.109 Y99.940 E0.03768
G1 X101.732 Y99.111 E0.03251
G1 X102.550 Y98.442 E0.03312
G1 X103.596 Y97.982 E0.03583
G1 X103.747 Y98.325 F10800.000
G1 F1200.000
G1 X104.791 Y98.178 E0.03308
G1 X145.204 Y98.178 E1.26711
G1 X145.784 Y98.225 E0.01824
G1 X146.582 Y98.429 E0.02583
G1 X147.315 Y98.803 E0.02581
G1 X147.900 Y99.279 E0.02365
G1 X148.423 Y99.899 E0.02543
G1 X148.753 Y100.516 E0.02196
G1 X148.981 Y101.226 E0.02337
G1 X149.058 Y101.767 E0.01714
G1 X149.071 Y108.007 E0.19565
G1 X148.884 Y109.131 E0.03572
G1 X148.502 Y109.980 E0.02920
G1 X147.931 Y110.692 E0.02860
G1 X147.231 Y111.249 E0.02806
G1 X146.242 Y111.680 E0.03383
G1 X145.209 Y111.822 E0.03270
G1 X104.561 Y111.814 E1.27448
G1 X103.464 Y111.589 E0.03509
G1 X102.399 Y110.985 E0.03838
G1 X101.955 Y110.575 E0.01896
G1 X101.511 Y110.000 E0.02279
G1 X101.196 Y109.365 E0.02223
G1 X101.016 Y108.763 E0.01969
G1 X100.928 Y107.982 E0.02463
G1 X100.928 Y102.046 E0.18612
G1 X101.029 Y101.185 E0.02718
G1 X101.434 Y100.132 E0.03537
G1 X101.999 Y99.378 E0.02954
G1 X102.746 Y98.764 E0.03031
G1 X103.692 Y98.349 E0.03239
; printing object C:/Users/User/AppData/Local/Temp/Neutron/7dd239a7-bc65-4b09-b4f1-5e18beddd5cd.stl id:0 copy 0
;WIPE_START
G1 F8640.000
G1 X104.791 Y98.178 E-0.25694
G1 X106.970 Y98.178 E-0.50306
;WIPE_END
G1 E-0.04000 F2100.000
G1 Z0.600 F10800.000
G1 X104.899 Y102.161
G1 Z0.200
G1 E0.80000 F2100.000
;TYPE:Perimeter
G1 F1200.000
G1 X145.101 Y102.161 E1.26048
G1 X145.101 Y107.839 E0.17801
G1 X104.899 Y107.849 E1.26048
G1 X104.899 Y102.221 E0.17644
G1 X104.645 Y101.829 F10800.000
;TYPE:External perimeter
G1 F1200.000
G1 X104.765 Y101.784 E0.00403
G1 X145.235 Y101.784 E1.26889
G1 X145.355 Y101.829 E0.00403
G1 X145.440 Y101.923 E0.00396
G1 X145.478 Y102.044 E0.00400
G1 X145.478 Y107.956 E0.18534
G1 X145.440 Y108.077 E0.00400
G1 X145.355 Y108.171 E0.00396
G1 X145.235 Y108.216 E0.00403
G1 X104.834 Y108.226 E1.26673
G1 X104.656 Y108.184 E0.00574
G1 X104.560 Y108.077 E0.00449
G1 X104.522 Y107.956 E0.00400
G1 X104.522 Y102.044 E0.18534
G1 X104.560 Y101.923 E0.00400
G1 X104.605 Y101.873 E0.00207
G1 X104.760 Y101.886 F10800.000
;WIPE_START
G1 F8640.000
G1 X104.765 Y101.784 E-0.04244
G1 X107.873 Y101.784 E-0.71756
;WIPE_END
G1 E-0.04000 F2100.000
G1 Z0.600 F10800.000
G1 X144.987 Y103.040
G1 Z0.200
G1 E0.80000 F2100.000
;TYPE:Solid infill
;WIDTH:0.421525
G1 F1200.000
G1 X144.392 Y102.444 E0.02653
G1 X143.856 Y102.444 E0.01686
G1 X144.818 Y103.406 E0.04281
G1 X144.818 Y103.941 E0.01686
G1 X143.321 Y102.444 E0.06665
G1 X142.785 Y102.444 E0.01686
G1 X144.818 Y104.477 E0.09049
G1 X144.818 Y105.012 E0.01686
G1 X142.250 Y102.444 E0.11432
G1 X141.715 Y102.444 E0.01686
G1 X144.818 Y105.547 E0.13816
G1 X144.818 Y106.083 E0.01686
G1 X141.179 Y102.444 E0.16200
G1 X140.644 Y102.444 E0.01686
G1 X144.818 Y106.618 E0.18584
G1 X144.818 Y107.154 E0.01686
G1 X140.108 Y102.444 E0.20967
G1 X139.573 Y102.444 E0.01686
G1 X144.685 Y107.556 E0.22758
G1 X144.149 Y107.556 E0.01685
G1 X139.037 Y102.444 E0.22759
G1 X138.502 Y102.444 E0.01686
G1 X143.614 Y107.556 E0.22759
G1 X143.079 Y107.556 E0.01685
G1 X137.967 Y102.444 E0.22760
G1 X137.431 Y102.444 E0.01686
G1 X142.543 Y107.556 E0.22760
G1 X142.008 Y107.557 E0.01685
G1 X136.896 Y102.444 E0.22761
G1 X136.360 Y102.444 E0.01686
G1 X141.473 Y107.557 E0.22762
G1 X140.938 Y107.557 E0.01685
G1 X135.825 Y102.444 E0.22762
G1 X135.289 Y102.444 E0.01686
G1 X140.402 Y107.557 E0.22763
G1 X139.867 Y107.557 E0.01685
G1 X134.754 Y102.444 E0.22763
G1 X134.219 Y102.444 E0.01686
G1 X139.332 Y107.557 E0.22764
G1 X138.796 Y107.557 E0.01685
G1 X133.683 Y102.444 E0.22765
G1 X133.148 Y102.444 E0.01686
G1 X138.261 Y107.558 E0.22765
G1 X137.726 Y107.558 E0.01685
G1 X132.612 Y102.444 E0.22766
G1 X132.077 Y102.444 E0.01686
G1 X137.190 Y107.558 E0.22766
G1 X136.655 Y107.558 E0.01685
G1 X131.541 Y102.444 E0.22767
G1 X131.006 Y102.444 E0.01686
G1 X136.120 Y107.558 E0.22768
G1 X135.585 Y107.558 E0.01685
G1 X130.471 Y102.444 E0.22768
G1 X129.935 Y102.444 E0.01686
G1 X135.049 Y107.558 E0.22769
G1 X134.514 Y107.559 E0.01685
G1 X129.400 Y102.444 E0.22769
G1 X128.864 Y102.444 E0.01686
G1 X133.979 Y107.559 E0.22770
G1 X133.443 Y107.559 E0.01685
G1 X128.329 Y102.444 E0.22771
G1 X127.793 Y102.444 E0.01686
G1 X132.908 Y107.559 E0.22771
G1 X132.373 Y107.559 E0.01685
G1 X127.258 Y102.444 E0.22772
G1 X126.723 Y102.444 E0.01686
G1 X131.838 Y107.559 E0.22772
G1 X131.302 Y107.559 E0.01685
G1 X126.187 Y102.444 E0.22773
G1 X125.652 Y102.444 E0.01686
G1 X130.767 Y107.559 E0.22774
G1 X130.232 Y107.560 E0.01685
G1 X125.116 Y102.444 E0.22774
G1 X124.581 Y102.444 E0.01686
G1 X129.696 Y107.560 E0.22775
G1 X129.161 Y107.560 E0.01685
G1 X124.045 Y102.444 E0.22775
G1 X123.510 Y102.444 E0.01686
G1 X128.626 Y107.560 E0.22776
G1 X128.090 Y107.560 E0.01685
G1 X122.975 Y102.444 E0.22777
G1 X122.439 Y102.444 E0.01686
G1 X127.555 Y107.560 E0.22777
G1 X127.020 Y107.560 E0.01685
G1 X121.904 Y102.444 E0.22778
G1 X121.368 Y102.444 E0.01686
G1 X126.485 Y107.561 E0.22778
G1 X125.949 Y107.561 E0.01685
G1 X120.833 Y102.444 E0.22779
G1 X120.297 Y102.444 E0.01686
G1 X125.414 Y107.561 E0.22780
G1 X124.879 Y107.561 E0.01685
G1 X119.762 Y102.444 E0.22780
G1 X119.227 Y102.444 E0.01686
G1 X124.343 Y107.561 E0.22781
G1 X123.808 Y107.561 E0.01685
G1 X118.691 Y102.444 E0.22781
G1 X118.156 Y102.444 E0.01686
G1 X123.273 Y107.561 E0.22782
G1 X122.738 Y107.561 E0.01685
G1 X117.620 Y102.444 E0.22783
G1 X117.085 Y102.444 E0.01686
G1 X122.202 Y107.562 E0.22783
G1 X121.667 Y107.562 E0.01685
G1 X116.549 Y102.444 E0.22784
G1 X116.014 Y102.444 E0.01686
G1 X121.132 Y107.562 E0.22784
G1 X120.596 Y107.562 E0.01685
G1 X115.479 Y102.444 E0.22785
G1 X114.943 Y102.444 E0.01686
G1 X120.061 Y107.562 E0.22786
G1 X119.526 Y107.562 E0.01685
G1 X114.408 Y102.444 E0.22786
G1 X113.872 Y102.444 E0.01686
G1 X118.990 Y107.562 E0.22787
G1 X118.455 Y107.563 E0.01685
G1 X113.337 Y102.444 E0.22787
G1 X112.801 Y102.444 E0.01686
G1 X117.920 Y107.563 E0.22788
G1 X117.385 Y107.563 E0.01685
G1 X112.266 Y102.444 E0.22789
G1 X111.731 Y102.444 E0.01686
G1 X116.849 Y107.563 E0.22789
G1 X116.314 Y107.563 E0.01685
G1 X111.195 Y102.444 E0.22790
G1 X110.660 Y102.444 E0.01686
G1 X115.779 Y107.563 E0.22790
G1 X115.243 Y107.563 E0.01685
G1 X110.124 Y102.444 E0.22791
G1 X109.589 Y102.444 E0.01686
G1 X114.708 Y107.563 E0.22792
G1 X114.173 Y107.564 E0.01685
G1 X109.053 Y102.444 E0.22792
M73 P0 R127
G1 X108.518 Y102.444 E0.01686
G1 X113.638 Y107.564 E0.22793
G1 X113.102 Y107.564 E0.01685
G1 X107.983 Y102.444 E0.22793
G1 X107.447 Y102.444 E0.01686
G1 X112.567 Y107.564 E0.22794
G1 X112.032 Y107.564 E0.01685
G1 X106.912 Y102.444 E0.22795
G1 X106.376 Y102.444 E0.01686
G1 X111.496 Y107.564 E0.22795
G1 X110.961 Y107.564 E0.01685
G1 X105.841 Y102.444 E0.22796
G1 X105.305 Y102.444 E0.01686
G1 X110.426 Y107.565 E0.22796
G1 X109.890 Y107.565 E0.01685
G1 X105.182 Y102.856 E0.20962
G1 X105.182 Y103.392 E0.01686
G1 X109.355 Y107.565 E0.18578
G1 X108.820 Y107.565 E0.01685
G1 X105.182 Y103.927 E0.16195
G1 X105.182 Y104.463 E0.01686
G1 X108.285 Y107.565 E0.13812
G1 X107.749 Y107.565 E0.01685
G1 X105.182 Y104.998 E0.11429
G1 X105.182 Y105.534 E0.01686
G1 X107.214 Y107.565 E0.09046
G1 X106.679 Y107.565 E0.01685
G1 X105.182 Y106.069 E0.06663
G1 X105.182 Y106.604 E0.01686
G1 X106.143 Y107.566 E0.04279
G1 X105.608 Y107.566 E0.01685
G1 X105.013 Y106.970 E0.02652
; stop printing object C:/Users/User/AppData/Local/Temp/Neutron/7dd239a7-bc65-4b09-b4f1-5e18beddd5cd.stl id:0 copy 0
M106 S84.15
;LAYER_CHANGE
;Z:0.4
;HEIGHT:0.2
;BEFORE_LAYER_CHANGE
G92 E0.0
;0.4


;WIPE_START
G1 F8640.000
G1 X105.608 Y107.566 E-0.19449
G1 X106.143 Y107.566 E-0.12360
G1 X105.182 Y106.604 E-0.31388
G1 X105.182 Y106.069 E-0.12363
G1 X105.196 Y106.082 E-0.00440
;WIPE_END
G1 E-0.04000 F2100.000
G1 Z0.600 F10800.000
;AFTER_LAYER_CHANGE
;0.4
M104 S210 ; set temperature
G1 X101.109 Y99.940
G1 Z0.400
G1 E0.80000 F2100.000
;TYPE:Skirt
;WIDTH:0.42
G1 F3000.000
G1 X101.732 Y99.111 E0.03251
G1 X102.550 Y98.442 E0.03312
G1 X103.651 Y97.958 E0.03771
G1 X104.791 Y97.801 E0.03609
G1 X145.204 Y97.801 E1.26712
G1 X145.855 Y97.855 E0.02049
G1 X146.721 Y98.079 E0.02802
G1 X147.518 Y98.485 E0.02806
G1 X148.153 Y98.999 E0.02560
G1 X148.727 Y99.676 E0.02785
G1 X149.091 Y100.348 E0.02393
G1 X149.345 Y101.127 E0.02570
G1 X149.434 Y101.730 E0.01911
G1 X149.448 Y108.024 E0.19734
G1 X149.236 Y109.272 E0.03970
G1 X148.815 Y110.191 E0.03171
G1 X148.186 Y110.970 E0.03137
G1 X147.418 Y111.577 E0.03070
G1 X146.349 Y112.042 E0.03656
G1 X145.209 Y112.199 E0.03609
G1 X104.525 Y112.189 E1.27561
G1 X103.325 Y111.939 E0.03843
G1 X102.608 Y111.592 E0.02500
G1 X102.158 Y111.276 E0.01722
G1 X101.674 Y110.826 E0.02071
G1 X101.194 Y110.205 E0.02460
G1 X100.850 Y109.517 E0.02413
G1 X100.655 Y108.873 E0.02110
G1 X100.551 Y107.993 E0.02778
G1 X100.551 Y102.042 E0.18661
G1 X100.672 Y101.059 E0.03104
G1 X101.087 Y99.996 E0.03580
G1 X101.434 Y100.132 F10800.000
G1 F3000.000
G1 X101.999 Y99.378 E0.02954
G1 X102.746 Y98.764 E0.03031
G1 X103.758 Y98.320 E0.03466
G1 X104.791 Y98.178 E0.03270
G1 X145.204 Y98.178 E1.26711
G1 X145.784 Y98.225 E0.01824
G1 X146.582 Y98.429 E0.02583
G1 X147.315 Y98.803 E0.02581
G1 X147.900 Y99.279 E0.02365
G1 X148.423 Y99.899 E0.02543
G1 X148.753 Y100.516 E0.02196
G1 X148.981 Y101.226 E0.02337
G1 X149.058 Y101.767 E0.01714
G1 X149.071 Y108.007 E0.19565
G1 X148.884 Y109.131 E0.03572
G1 X148.502 Y109.980 E0.02920
G1 X147.931 Y110.692 E0.02860
G1 X147.231 Y111.249 E0.02806
G1 X146.242 Y111.680 E0.03383
G1 X145.209 Y111.822 E0.03270
G1 X104.561 Y111.814 E1.27448
M73 Q0 S127
G1 X103.464 Y111.589 E0.03509
G1 X102.399 Y110.985 E0.03838
G1 X101.955 Y110.575 E0.01896
G1 X101.511 Y110.000 E0.02279
G1 X101.196 Y109.365 E0.02223
G1 X101.016 Y108.763 E0.01969
G1 X100.928 Y107.982 E0.02463
G1 X100.928 Y102.046 E0.18612
G1 X101.029 Y101.185 E0.02718
G1 X101.412 Y100.188 E0.03349
; printing object C:/Users/User/AppData/Local/Temp/Neutron/7dd239a7-bc65-4b09-b4f1-5e18beddd5cd.stl id:0 copy 0
;WIPE_START
G1 F8640.000
G1 X101.999 Y99.378 E-0.23092
G1 X102.746 Y98.764 E-0.22324
G1 X103.758 Y98.320 E-0.25528
G1 X103.975 Y98.290 E-0.05056
;WIPE_END
G1 E-0.04000 F2100.000
G1 Z0.800 F10800.000
G1 X104.298 Y101.834
G1 Z0.400
G1 E0.80000 F2100.000
M204 S800
;TYPE:Perimeter
;WIDTH:0.45
G1 F2700.000
G1 X104.369 Y101.719 E0.00459
G1 X104.471 Y101.615 E0.00494
G1 X104.645 Y101.529 E0.00656
G1 X104.842 Y101.503 E0.00671
G1 X145.228 Y101.511 E1.36704
G1 X145.378 Y101.536 E0.00515
G1 X145.526 Y101.611 E0.00561
G1 X145.631 Y101.719 E0.00510
G1 X145.704 Y101.838 E0.00473
G1 X145.741 Y101.956 E0.00421
G1 X145.738 Y108.043 E0.20602
G1 X145.702 Y108.166 E0.00434
G1 X145.631 Y108.281 E0.00459
G1 X145.529 Y108.385 E0.00494
G1 X145.355 Y108.471 E0.00656
G1 X145.158 Y108.497 E0.00672
G1 X104.842 Y108.497 E1.36468
G1 X104.646 Y108.472 E0.00668
G1 X104.465 Y108.381 E0.00684
G1 X104.370 Y108.283 E0.00464
G1 X104.296 Y108.162 E0.00479
G1 X104.264 Y108.061 E0.00358
G1 X104.262 Y101.957 E0.20663
G1 X104.281 Y101.892 E0.00229
M204 S1000
G1 X103.891 Y101.776 F10800.000
M204 S800
;TYPE:External perimeter
G1 F1500.000
G1 X103.923 Y101.667 E0.00385
G1 X104.046 Y101.466 E0.00798
G1 X104.229 Y101.280 E0.00883
G1 X104.525 Y101.134 E0.01117
G1 X104.815 Y101.095 E0.00991
G1 X145.261 Y101.104 E1.36906
G1 X145.507 Y101.144 E0.00844
G1 X145.770 Y101.279 E0.01000
G1 X145.954 Y101.466 E0.00888
G1 X146.078 Y101.668 E0.00803
G1 X146.145 Y101.883 E0.00761
G1 X146.145 Y108.102 E0.21050
G1 X146.077 Y108.333 E0.00815
G1 X145.954 Y108.534 E0.00798
G1 X145.771 Y108.720 E0.00883
G1 X145.475 Y108.866 E0.01117
G1 X145.185 Y108.905 E0.00991
G1 X104.815 Y108.905 E1.36649
G1 X104.525 Y108.866 E0.00990
G1 X104.222 Y108.714 E0.01148
G1 X104.046 Y108.534 E0.00850
G1 X103.922 Y108.332 E0.00805
G1 X103.857 Y108.123 E0.00739
G1 X103.855 Y101.898 E0.21071
G1 X103.874 Y101.834 E0.00226
M204 S1000
G1 X103.998 Y101.739 F10800.000
;WIPE_START
G1 F8640.000
G1 X103.923 Y101.667 E-0.04010
G1 X104.046 Y101.466 E-0.05443
G1 X104.229 Y101.280 E-0.06022
G1 X104.525 Y101.134 E-0.07617
G1 X104.815 Y101.095 E-0.06760
G1 X106.813 Y101.096 E-0.46148
;WIPE_END
G1 E-0.04000 F2100.000
G1 Z0.800 F10800.000
G1 X145.105 Y108.375
G1 Z0.400
G1 E0.80000 F2100.000
;TYPE:Solid infill
;WIDTH:0.452871
G1 F4800.000
G1 X145.421 Y108.041 E0.01569
G1 X145.434 Y107.466 E0.01958
G1 X144.708 Y108.192 E0.03498
G1 X144.128 Y108.192 E0.01976
G1 X145.435 Y106.886 E0.06298
G1 X145.436 Y106.305 E0.01979
G1 X143.549 Y108.192 E0.09097
G1 X142.969 Y108.192 E0.01976
G1 X145.437 Y105.725 E0.11896
G1 X145.437 Y105.144 E0.01979
G1 X142.389 Y108.192 E0.14695
G1 X141.809 Y108.192 E0.01976
G1 X145.438 Y104.563 E0.17494
G1 X145.439 Y103.983 E0.01979
G1 X141.230 Y108.192 E0.20293
G1 X140.650 Y108.192 E0.01976
G1 X145.440 Y103.402 E0.23092
G1 X145.441 Y102.821 E0.01979
G1 X140.070 Y108.192 E0.25891
G1 X139.490 Y108.192 E0.01976
G1 X145.442 Y102.241 E0.28690
G1 X145.424 Y101.965 E0.00943
G1 X145.342 Y101.860 E0.00451
G1 X145.275 Y101.828 E0.00255
G1 X138.911 Y108.192 E0.30680
G1 X138.331 Y108.192 E0.01976
G1 X144.707 Y101.816 E0.30736
G1 X144.127 Y101.816 E0.01976
G1 X137.751 Y108.192 E0.30736
G1 X137.171 Y108.192 E0.01976
G1 X143.547 Y101.816 E0.30737
G1 X142.968 Y101.816 E0.01976
G1 X136.592 Y108.192 E0.30738
G1 X136.012 Y108.192 E0.01976
G1 X142.388 Y101.816 E0.30738
G1 X141.808 Y101.816 E0.01976
G1 X135.432 Y108.192 E0.30739
G1 X134.852 Y108.192 E0.01976
G1 X141.229 Y101.816 E0.30739
G1 X140.649 Y101.816 E0.01976
G1 X134.273 Y108.192 E0.30740
