;FLAVOR:Marlin
;TIME:1093
;Filament used: 2.64788m
;Layer height: 0.3
;MINX:95.512
;MINY:90.515
;MINZ:0.3
;MAXX:149.488
;MAXY:144.485
;MAXZ:40.068
;Generated with Cura_SteamEngine 4.13.0
M140 S45
M105
M190 S45
M104 S210
M105
M109 S210
M82 ;absolute extrusion mode
G28 ;home
;M420 S1 ;BLtouch load mesh (Uncomment to enable)
G92 E0 ;Reset Extruder
G1 Z4.0 F3000 ;Move Z Axis up
G1 X1.1 Y20 Z0.28 F5000.0 ;Move to start position
G1 X1.1 Y200.0 Z0.28 F1500.0 E15 ;Draw the first line
G1 X1.4 Y200.0 Z0.28 F5000.0 ;Move to side a little
G1 X1.4 Y20 Z0.28 F1500.0 E30 ;Draw the second line
G92 E0 ;Reset Extruder
G1 Z2.0 F3000 ;Move Z Axis up
G92 E0
G92 E0
G1 F2400 E-3
;LAYER_COUNT:133
;LAYER:0
M107
M204 S1000
M205 X20 Y20
G0 F1200 X102.804 Y99.048 Z0.3
;TYPE:SKIRT
G1 F2400 E0
G1 F1200 X103.413 Y98.42 E0.08729
G1 X103.842 Y98 E0.14719
G1 X103.938 Y97.909 E0.16039
G1 X104.532 Y97.366 E0.24069
G1 X105.082 Y96.888 E0.3134
G1 X105.429 Y96.597 E0.35859
G1 X105.9 Y96.223 E0.4186
G1 X106.649 Y95.662 E0.51197
G1 X107.113 Y95.328 E0.56902
G1 X107.34 Y95.172 E0.5965
G1 X107.911 Y94.795 E0.66478
G1 X108.489 Y94.435 E0.73272
G1 X108.797 Y94.25 E0.76857
G1 X109.505 Y93.845 E0.84996
G1 X110.053 Y93.552 E0.91196
G1 X110.168 Y93.493 E0.92486
G1 X110.871 Y93.147 E1.00304
G1 X110.991 Y93.09 E1.0163
G1 X111.754 Y92.744 E1.09989
G1 X111.871 Y92.693 E1.11263
G1 X112.338 Y92.498 E1.16312
G1 X112.469 Y92.446 E1.17718
G1 X113.396 Y92.095 E1.27609
G1 X113.529 Y92.047 E1.2902
G1 X114.16 Y91.834 E1.35665
G1 X114.956 Y91.588 E1.43978
G1 X115.616 Y91.406 E1.5081
G1 X115.736 Y91.375 E1.52046
G1 X116.733 Y91.135 E1.62278
G1 X117.155 Y91.046 E1.66582
G1 X117.293 Y91.02 E1.67983
G1 X118.299 Y90.844 E1.78173
G1 X118.735 Y90.779 E1.82572
G1 X118.873 Y90.761 E1.83961
G1 X120.004 Y90.631 E1.9532
G1 X120.432 Y90.593 E1.99607
G1 X121.003 Y90.553 E2.05319
G1 X121.472 Y90.532 E2.10003
G1 X122.341 Y90.516 E2.18676
G1 X122.443 Y90.515 E2.19693
G1 X123.152 Y90.52 E2.26768
G1 X123.313 Y90.524 E2.28375
G1 X124.06 Y90.558 E2.35836
G1 X124.956 Y90.624 E2.44801
G1 X125.095 Y90.637 E2.46194
G1 X125.807 Y90.716 E2.53342
G1 X126.722 Y90.845 E2.62562
G1 X126.851 Y90.865 E2.63865
G1 X127.308 Y90.944 E2.68492
G1 X127.447 Y90.971 E2.69905
G1 X128.626 Y91.217 E2.81922
G1 X128.977 Y91.301 E2.85524
G1 X129.101 Y91.333 E2.86801
G1 X130.068 Y91.596 E2.96801
G1 X130.201 Y91.635 E2.98184
G1 X130.811 Y91.824 E3.04556
G1 X131.627 Y92.102 E3.13157
G1 X131.745 Y92.144 E3.14407
G1 X132.194 Y92.312 E3.19191
G1 X132.326 Y92.364 E3.20606
G1 X133.195 Y92.723 E3.29988
G1 X133.317 Y92.776 E3.31315
G1 X133.785 Y92.987 E3.36438
G1 X133.9 Y93.041 E3.37705
G1 X134.841 Y93.5 E3.48152
G1 X134.973 Y93.567 E3.49629
G1 X135.394 Y93.791 E3.54387
G1 X136.175 Y94.236 E3.63356
G1 X136.687 Y94.543 E3.69313
G1 X137.159 Y94.838 E3.74867
G1 X137.619 Y95.145 E3.80385
G1 X138.302 Y95.627 E3.88726
G1 X138.783 Y95.979 E3.94674
G1 X139.043 Y96.177 E3.97935
G1 X139.578 Y96.604 E4.04765
G1 X140.248 Y97.168 E4.13503
G1 X140.411 Y97.311 E4.15667
G1 X140.825 Y97.687 E4.21247
G1 X140.92 Y97.776 E4.22546
G1 X141.55 Y98.385 E4.31289
G1 X141.642 Y98.477 E4.32587
G1 X142.066 Y98.913 E4.38656
G1 X142.157 Y99.01 E4.39983
G1 X142.701 Y99.606 E4.48035
G1 X142.788 Y99.704 E4.49342
G1 X143.221 Y100.212 E4.56003
G1 X143.831 Y100.968 E4.65695
G1 X143.92 Y101.082 E4.67138
G1 X144.207 Y101.464 E4.71906
G1 X144.288 Y101.576 E4.73285
G1 X144.888 Y102.432 E4.83715
G1 X145.143 Y102.814 E4.88298
G1 X145.225 Y102.941 E4.89807
G1 X145.762 Y103.816 E5.00051
G1 X145.831 Y103.933 E5.01406
G1 X146.055 Y104.326 E5.0592
G1 X146.472 Y105.11 E5.1478
G1 X146.724 Y105.612 E5.20385
G1 X146.785 Y105.738 E5.21782
G1 X147.296 Y106.854 E5.34029
G1 X147.362 Y107.008 E5.35701
G1 X147.647 Y107.705 E5.43214
G1 X147.83 Y108.189 E5.48377
G1 X148.104 Y108.981 E5.56739
G1 X148.314 Y109.632 E5.63565
G1 X148.413 Y109.963 E5.67012
G1 X148.633 Y110.769 E5.75349
G1 X148.805 Y111.467 E5.82522
G1 X148.836 Y111.602 E5.83904
G1 X148.956 Y112.169 E5.89687
G1 X148.985 Y112.318 E5.91201
G1 X149.167 Y113.363 E6.01785
G1 X149.267 Y114.056 E6.08772
G1 X149.357 Y114.84 E6.16646
G1 X149.371 Y114.975 E6.18
G1 X149.413 Y115.499 E6.23245
G1 X149.475 Y116.727 E6.35514
G1 X149.481 Y116.897 E6.37211
G1 X149.488 Y117.524 E6.43468
G1 X149.477 Y118.289 E6.51102
G1 X149.473 Y118.422 E6.5243
G1 X149.449 Y118.945 E6.57654
G1 X149.441 Y119.073 E6.58933
G1 X149.363 Y120.091 E6.69121
G1 X149.35 Y120.228 E6.70494
G1 X149.304 Y120.647 E6.747
G1 X149.288 Y120.773 E6.75967
G1 X149.142 Y121.804 E6.86357
G1 X149.06 Y122.282 E6.91196
G1 X149.035 Y122.413 E6.92527
G1 X148.838 Y123.374 E7.02315
G1 X148.747 Y123.772 E7.06389
G1 X148.598 Y124.374 E7.12577
G1 X148.463 Y124.863 E7.17639
G1 X148.196 Y125.737 E7.26757
G1 X147.953 Y126.472 E7.34482
G1 X147.901 Y126.618 E7.36028
G1 X147.612 Y127.387 E7.44225
G1 X147.275 Y128.204 E7.53044
G1 X147.218 Y128.335 E7.54469
G1 X146.895 Y129.045 E7.62252
G1 X146.716 Y129.418 E7.6638
G1 X146.522 Y129.8 E7.70655
G1 X146.245 Y130.327 E7.76596
G1 X146.177 Y130.45 E7.77998
G1 X145.732 Y131.232 E7.86976
G1 X145.665 Y131.346 E7.88295
G1 X145.331 Y131.889 E7.94656
G1 X144.809 Y132.687 E8.04171
G1 X144.728 Y132.806 E8.05607
G1 X144.381 Y133.296 E8.11599
G1 X143.799 Y134.074 E8.21293
G1 X143.722 Y134.174 E8.22553
G1 X143.441 Y134.527 E8.27054
G1 X143.346 Y134.641 E8.28535
G1 X142.599 Y135.512 E8.39985
G1 X142.288 Y135.854 E8.44597
G1 X142.196 Y135.952 E8.45938
G1 X141.587 Y136.58 E8.54667
G1 X141.158 Y137 E8.60657
G1 X141.059 Y137.093 E8.62013
G1 X140.378 Y137.714 E8.71209
G1 X139.991 Y138.049 E8.76316
G1 X139.636 Y138.35 E8.8096
G1 X139.535 Y138.433 E8.82265
G1 X139.101 Y138.777 E8.8779
G1 X138.348 Y139.341 E8.97178
G1 X137.898 Y139.664 E9.02705
G1 X137.658 Y139.83 E9.05617
G1 X136.985 Y140.272 E9.13651
G1 X136.32 Y140.682 E9.21446
G1 X136.142 Y140.787 E9.23508
G1 X135.531 Y141.135 E9.30524
G1 X135.03 Y141.404 E9.36198
G1 X134.687 Y141.579 E9.4004
G1 X134.136 Y141.85 E9.46167
G1 X134.02 Y141.905 E9.47448
G1 X133.25 Y142.255 E9.55887
G1 X133.117 Y142.312 E9.57331
G1 X132.514 Y142.56 E9.63837
G1 X131.625 Y142.898 E9.73327
G1 X131.485 Y142.948 E9.7481
G1 X130.839 Y143.166 E9.81613
G1 X129.962 Y143.435 E9.90766
G1 X129.433 Y143.581 E9.96242
G1 X128.384 Y143.838 E10.07019
G1 X128.251 Y143.869 E10.08381
G1 X127.841 Y143.955 E10.12561
G1 X126.823 Y144.136 E10.22878
G1 X126.255 Y144.222 E10.2861
G1 X126.119 Y144.24 E10.29979
G1 X124.996 Y144.369 E10.41258
G1 X124.568 Y144.407 E10.45546
G1 X123.997 Y144.447 E10.51257
G1 X123.529 Y144.468 E10.55932
G1 X122.659 Y144.484 E10.64614
G1 X122.557 Y144.485 E10.65632
G1 X121.848 Y144.48 E10.72706
G1 X121.687 Y144.476 E10.74313
G1 X120.94 Y144.442 E10.81775
G1 X120.044 Y144.376 E10.90739
G1 X119.905 Y144.363 E10.92132
G1 X119.193 Y144.284 E10.9928
G1 X118.278 Y144.155 E11.085
G1 X118.149 Y144.135 E11.09803
G1 X117.692 Y144.056 E11.1443
G1 X117.553 Y144.029 E11.15843
G1 X116.38 Y143.784 E11.278
G1 X116.027 Y143.7 E11.31421
G1 X115.895 Y143.666 E11.32781
G1 X114.821 Y143.372 E11.43892
G1 X114.312 Y143.216 E11.49204
G1 X114.186 Y143.175 E11.50526
G1 X113.392 Y142.904 E11.58897
G1 X112.834 Y142.697 E11.64835
G1 X112.702 Y142.646 E11.66247
G1 X111.784 Y142.268 E11.76153
G1 X111.21 Y142.01 E11.82433
G1 X111.099 Y141.959 E11.83652
G1 X110.097 Y141.47 E11.94777
G1 X109.958 Y141.399 E11.96334
G1 X109.451 Y141.126 E12.0208
G1 X109.007 Y140.872 E12.07184
G1 X108.256 Y140.422 E12.15919
G1 X107.841 Y140.162 E12.20806
G1 X107.384 Y139.857 E12.26288
G1 X106.675 Y139.358 E12.34939
G1 X106.199 Y139.008 E12.40834
G1 X105.959 Y138.824 E12.43852
G1 X105.328 Y138.319 E12.51916
G1 X104.662 Y137.754 E12.60631
G1 X104.157 Y137.296 E12.67433
G1 X104.063 Y137.208 E12.68718
G1 X103.449 Y136.614 E12.77242
G1 X103.355 Y136.52 E12.78569
G1 X102.926 Y136.078 E12.84715
G1 X102.299 Y135.394 E12.93973
G1 X102.208 Y135.292 E12.95337
G1 X101.857 Y134.882 E13.00723
G1 X101.779 Y134.788 E13.01942
G1 X101.169 Y134.032 E13.11634
G1 X101.08 Y133.918 E13.13077
G1 X100.793 Y133.536 E13.17845
G1 X100.712 Y133.424 E13.19224
G1 X100.055 Y132.484 E13.30667
G1 X99.858 Y132.188 E13.34215
G1 X99.774 Y132.057 E13.35768
G1 X99.238 Y131.183 E13.45998
G1 X99.171 Y131.07 E13.47309
G1 X98.946 Y130.676 E13.51836
G1 X98.881 Y130.558 E13.5318
G1 X98.447 Y129.738 E13.62438
G1 X98.389 Y129.624 E13.63714
G1 X98.171 Y129.18 E13.68649
G1 X98.114 Y129.059 E13.69984
G1 X97.753 Y128.258 E13.78751
G1 X97.501 Y127.665 E13.8518
G1 X97.31 Y127.189 E13.90297
G1 X97.139 Y126.723 E13.9525
G1 X96.852 Y125.887 E14.0407
G1 X96.653 Y125.259 E14.10643
G1 X96.582 Y125.019 E14.1314
G1 X96.366 Y124.227 E14.21332
G1 X96.195 Y123.53 E14.28492
G1 X96.164 Y123.396 E14.29865
G1 X96.044 Y122.827 E14.35667
G1 X96.017 Y122.685 E14.3711
G1 X95.834 Y121.641 E14.47685
G1 X95.812 Y121.504 E14.4907
G1 X95.715 Y120.806 E14.56102
G1 X95.639 Y120.131 E14.62879
G1 X95.626 Y119.994 E14.64252
G1 X95.583 Y119.453 E14.69668
G1 X95.575 Y119.325 E14.70947
G1 X95.524 Y118.279 E14.81397
G1 X95.519 Y118.127 E14.82914
G1 X95.512 Y117.459 E14.8958
G1 X95.523 Y116.723 E14.96924
G1 X95.551 Y116.063 E15.03516
G1 X95.559 Y115.929 E15.04855
G1 X95.639 Y114.892 E15.15233
G1 X95.696 Y114.356 E15.20612
G1 X95.712 Y114.225 E15.21929
G1 X95.857 Y113.194 E15.32317
G1 X95.881 Y113.044 E15.33833
G1 X95.99 Y112.438 E15.39977
G1 X96.144 Y111.701 E15.47489
G1 X96.239 Y111.281 E15.51786
G1 X96.398 Y110.641 E15.58366
G1 X96.572 Y110.019 E15.64811
G1 X96.826 Y109.19 E15.73462
G1 X97.019 Y108.611 E15.79552
G1 X97.12 Y108.326 E15.82569
G1 X97.392 Y107.606 E15.90249
G1 X97.697 Y106.86 E15.9829
G1 X97.782 Y106.667 E16.00394
G1 X98.042 Y106.095 E16.06664
G1 X98.469 Y105.221 E16.1637
G1 X98.755 Y104.674 E16.22529
G1 X98.823 Y104.55 E16.2394
G1 X99.335 Y103.653 E16.34246
G1 X99.606 Y103.21 E16.39427
G1 X100.192 Y102.312 E16.50127
G1 X100.272 Y102.194 E16.51549
G1 X100.619 Y101.704 E16.5754
G1 X101.201 Y100.926 E16.67235
G1 X101.563 Y100.47 E16.73044
G1 X101.652 Y100.362 E16.74441
G1 X102.315 Y99.586 E16.84625
G1 X102.401 Y99.488 E16.85926
G1 X102.712 Y99.146 E16.90538
G1 X102.804 Y99.048 E16.9188
G0 X103.378 Y99.605
G1 X104.056 Y98.908 E17.01582
G1 X104.4 Y98.573 E17.06373
G1 X105.139 Y97.896 E17.16373
G1 X105.599 Y97.499 E17.22436
G1 X105.929 Y97.222 E17.26735
G1 X106.297 Y96.928 E17.31435
G1 X107.071 Y96.346 E17.41098
G1 X107.515 Y96.024 E17.4657
G1 X107.781 Y95.84 E17.49798
G1 X108.434 Y95.41 E17.57599
G1 X108.959 Y95.085 E17.6376
G1 X109.263 Y94.905 E17.67285
G1 X109.993 Y94.489 E17.75669
G1 X110.522 Y94.21 E17.81636
G1 X111.225 Y93.864 E17.89455
G1 X112.085 Y93.473 E17.98881
G1 X112.646 Y93.237 E18.04954
G1 X112.752 Y93.194 E18.06095
G1 X113.679 Y92.843 E18.15986
G1 X113.787 Y92.804 E18.17131
G1 X114.304 Y92.628 E18.22581
G1 X115.192 Y92.353 E18.31856
G1 X115.3 Y92.321 E18.3298
G1 X115.924 Y92.152 E18.39431
G1 X116.898 Y91.918 E18.49426
G1 X117.32 Y91.829 E18.5373
G1 X118.328 Y91.65 E18.63945
G1 X118.417 Y91.635 E18.64845
G1 X118.965 Y91.555 E18.70371
G1 X120.076 Y91.428 E18.81529
G1 X120.49 Y91.391 E18.85676
G1 X121.039 Y91.352 E18.91168
G1 X121.508 Y91.331 E18.95853
G1 X122.437 Y91.315 E19.05123
G1 X123.146 Y91.32 E19.12198
G1 X123.277 Y91.324 E19.13506
G1 X124.124 Y91.364 E19.21967
G1 X125.008 Y91.432 E19.30813
G1 X125.696 Y91.508 E19.3772
G1 X126.611 Y91.637 E19.4694
G1 X127.172 Y91.733 E19.52619
G1 X127.284 Y91.754 E19.53756
G1 X128.439 Y91.995 E19.65529
G1 X128.891 Y92.105 E19.70171
G1 X129.858 Y92.368 E19.8017
G1 X129.965 Y92.399 E19.81282
G1 X130.456 Y92.55 E19.86407
G1 X131.369 Y92.86 E19.96028
G1 X131.913 Y93.062 E20.01818
G1 X132.02 Y93.104 E20.02965
G1 X132.988 Y93.505 E20.1342
G1 X133.55 Y93.76 E20.19578
G1 X134.491 Y94.219 E20.30025
G1 X134.597 Y94.273 E20.31212
G1 X135.105 Y94.545 E20.36961
G1 X135.764 Y94.922 E20.44537
G1 X136.264 Y95.222 E20.50355
G1 X136.717 Y95.505 E20.55685
G1 X137.159 Y95.8 E20.60987
G1 X137.83 Y96.273 E20.69178
G1 X138.301 Y96.618 E20.75004
G1 X138.544 Y96.803 E20.78051
G1 X139.151 Y97.289 E20.8581
G1 X139.724 Y97.773 E20.93294
G1 X139.873 Y97.903 E20.95267
G1 X140.364 Y98.351 E21.01899
G1 X140.994 Y98.96 E21.10642
G1 X141.492 Y99.471 E21.17762
G1 X141.566 Y99.549 E21.18835
G1 X142.181 Y100.225 E21.27954
G1 X142.598 Y100.714 E21.34366
G1 X143.208 Y101.47 E21.44059
G1 X143.567 Y101.945 E21.5
G1 X143.633 Y102.035 E21.51114
G1 X144.281 Y102.961 E21.62391
G1 X144.477 Y103.256 E21.65925
G1 X144.543 Y103.36 E21.67154
G1 X145.136 Y104.329 E21.78489
G1 X145.36 Y104.722 E21.83003
G1 X145.804 Y105.558 E21.92448
G1 X146.009 Y105.969 E21.97031
G1 X146.568 Y107.188 E22.10412
G1 X146.622 Y107.312 E22.11762
G1 X146.898 Y107.988 E22.19047
G1 X147.116 Y108.567 E22.25221
G1 X147.371 Y109.311 E22.33068
G1 X147.568 Y109.929 E22.3954
G1 X147.642 Y110.174 E22.42094
G1 X147.834 Y110.873 E22.49327
G1 X148.028 Y111.659 E22.57405
G1 X148.053 Y111.768 E22.58521
G1 X148.197 Y112.456 E22.65535
G1 X148.379 Y113.501 E22.76119
G1 X148.475 Y114.169 E22.82852
G1 X148.488 Y114.265 E22.83819
G1 X148.563 Y114.929 E22.90487
G1 X148.615 Y115.563 E22.96834
G1 X148.622 Y115.674 E22.97944
G1 X148.681 Y116.908 E23.10271
G1 X148.688 Y117.513 E23.16308
G1 X148.677 Y118.278 E23.23942
G1 X148.649 Y118.908 E23.30234
G1 X148.643 Y119.012 E23.31274
G1 X148.555 Y120.141 E23.42573
G1 X148.509 Y120.56 E23.46779
G1 X148.369 Y121.566 E23.56913
G1 X148.271 Y122.147 E23.62793
G1 X148.251 Y122.253 E23.63869
G1 X148.057 Y123.198 E23.73495
G1 X147.97 Y123.581 E23.77414
G1 X147.826 Y124.161 E23.83377
G1 X147.664 Y124.743 E23.89405
G1 X147.408 Y125.576 E23.981
G1 X147.194 Y126.22 E24.04871
G1 X147.152 Y126.338 E24.06121
G1 X146.914 Y126.975 E24.12906
G1 X146.535 Y127.898 E24.22862
G1 X146.489 Y128.005 E24.24024
G1 X146.173 Y128.701 E24.31651
G1 X146.003 Y129.056 E24.35579
G1 X145.814 Y129.428 E24.39742
G1 X145.537 Y129.955 E24.45683
G1 X145.482 Y130.055 E24.46822
G1 X144.983 Y130.929 E24.56864
G1 X144.717 Y131.364 E24.61951
G1 X144.139 Y132.249 E24.72498
G1 X144.074 Y132.345 E24.73655
G1 X143.741 Y132.817 E24.79419
G1 X143.159 Y133.595 E24.89114
G1 X142.815 Y134.029 E24.94639
G1 X142.739 Y134.121 E24.9583
G1 X142.076 Y134.896 E25.06007
G1 X141.696 Y135.315 E25.11651
G1 X141.622 Y135.395 E25.12738
G1 X140.944 Y136.092 E25.2244
G1 X140.6 Y136.427 E25.27232
G1 X139.913 Y137.056 E25.36526
G1 X139.507 Y137.411 E25.41907
G1 X139.119 Y137.74 E25.46983
G1 X138.699 Y138.076 E25.5235
G1 X137.88 Y138.692 E25.62575
G1 X137.44 Y139.008 E25.67981
G1 X137.218 Y139.162 E25.70676
G1 X136.646 Y139.539 E25.77512
G1 X135.974 Y139.956 E25.85403
G1 X135.746 Y140.091 E25.88047
G1 X135.062 Y140.479 E25.95894
G1 X134.667 Y140.691 E26.00367
G1 X134.334 Y140.861 E26.04098
G1 X133.783 Y141.132 E26.10224
G1 X132.919 Y141.526 E26.197
G1 X132.811 Y141.573 E26.20875
G1 X132.229 Y141.812 E26.27153
G1 X131.34 Y142.15 E26.36643
G1 X131.227 Y142.191 E26.37842
G1 X130.603 Y142.402 E26.44415
G1 X129.848 Y142.635 E26.52299
G1 X129.221 Y142.809 E26.58791
G1 X129.121 Y142.835 E26.59822
G1 X128.087 Y143.086 E26.70439
G1 X127.677 Y143.172 E26.74619
G1 X126.684 Y143.348 E26.84682
G1 X126.137 Y143.431 E26.90202
G1 X126.027 Y143.446 E26.9131
G1 X124.924 Y143.572 E27.02387
G1 X124.51 Y143.609 E27.06535
G1 X123.961 Y143.648 E27.12027
G1 X123.493 Y143.669 E27.16701
G1 X122.563 Y143.685 E27.25982
G1 X121.854 Y143.68 E27.33057
G1 X121.723 Y143.676 E27.34364
G1 X120.876 Y143.636 E27.42825
G1 X119.992 Y143.568 E27.51672
G1 X119.304 Y143.492 E27.58578
G1 X118.389 Y143.363 E27.67799
G1 X117.828 Y143.267 E27.73478
G1 X117.716 Y143.246 E27.74615
G1 X116.565 Y143.006 E27.86346
G1 X116.212 Y142.922 E27.89967
