;FLAVOR:Marlin
;TIME:343
;Filament used: 0.563844m
;Layer height: 0.3
;MINX:95.513
;MINY:91.342
;MINZ:0.25
;MAXX:149.487
;MAXY:143.746
;MAXZ:2.05
;Generated with Cura_SteamEngine 4.13.0
M140 S45
M105
M190 S45
M104 S210
M105
M109 S210
M82 ;absolute extrusion mode
G28 ;home
;M420 S1 ;BLtouch load mesh (Uncomment to enable)
G92 E0 ;Reset Extruder
G1 Z4.0 F3000 ;Move Z Axis up
G1 X1.1 Y20 Z0.28 F5000.0 ;Move to start position
G1 X1.1 Y200.0 Z0.28 F1500.0 E15 ;Draw the first line
G1 X1.4 Y200.0 Z0.28 F5000.0 ;Move to side a little
G1 X1.4 Y20 Z0.28 F1500.0 E30 ;Draw the second line
G92 E0 ;Reset Extruder
G1 Z2.0 F3000 ;Move Z Axis up
G92 E0
G92 E0
G1 F2400 E-3
;LAYER_COUNT:7
;LAYER:0
M107
M204 S5000
M205 X30 Y30
G0 F1680 X103.188 Y97.916 Z0.25
M204 S1000
M205 X20 Y20
;TYPE:SKIRT
G1 F2400 E0
G1 F1200 X103.372 Y97.73 E0.01958
G1 X104.292 Y96.86 E0.11434
G1 X104.731 Y96.461 E0.15873
G1 X105.14 Y96.102 E0.19946
G1 X105.338 Y95.939 E0.21865
G1 X106.276 Y95.212 E0.30746
G1 X106.826 Y94.804 E0.35871
G1 X107.441 Y94.372 E0.41495
G1 X108.569 Y93.663 E0.51466
G1 X109.046 Y93.378 E0.55624
G1 X109.511 Y93.109 E0.59644
G1 X109.74 Y92.986 E0.61589
G1 X110.87 Y92.424 E0.71034
G1 X111.37 Y92.187 E0.75175
G1 X112.062 Y91.872 E0.80865
G1 X112.589 Y91.664 E0.85104
G1 X112.898 Y91.559 E0.87547
G1 X113.458 Y91.411 E0.91881
G1 X114.033 Y91.342 E0.96215
G1 X114.529 Y91.345 E0.99927
G1 X115.985 Y91.443 E1.10848
G1 X116.328 Y91.47 E1.13423
G1 X119.07 Y91.609 E1.33969
G1 X121.765 Y91.669 E1.54142
G1 X124.493 Y91.652 E1.74557
G1 X127.147 Y91.56 E1.94431
G1 X129.8 Y91.383 E2.14329
G1 X130.51 Y91.342 E2.19651
G1 X131.089 Y91.349 E2.23984
G1 X131.662 Y91.435 E2.2832
G1 X132.15 Y91.574 E2.32117
G1 X132.755 Y91.803 E2.36958
G1 X133.953 Y92.339 E2.4678
G1 X134.446 Y92.574 E2.50867
G1 X134.935 Y92.813 E2.5494
G1 X135.178 Y92.941 E2.56996
G1 X136.275 Y93.57 E2.66459
G1 X136.77 Y93.867 E2.70779
G1 X137.425 Y94.281 E2.76578
G1 X138.543 Y95.077 E2.86848
G1 X138.936 Y95.368 E2.90508
G1 X139.374 Y95.703 E2.94634
G1 X139.579 Y95.871 E2.96618
G1 X140.559 Y96.724 E3.06341
G1 X140.923 Y97.055 E3.10022
G1 X141.342 Y97.446 E3.14311
G1 X141.529 Y97.631 E3.1628
G1 X142.399 Y98.551 E3.25755
G1 X142.798 Y98.99 E3.30195
G1 X143.157 Y99.399 E3.34268
G1 X143.32 Y99.597 E3.36187
G1 X144.047 Y100.535 E3.45068
G1 X144.455 Y101.085 E3.50193
G1 X144.887 Y101.7 E3.55817
G1 X145.597 Y102.83 E3.65804
G1 X145.864 Y103.278 E3.69707
G1 X146.147 Y103.766 E3.73929
G1 X146.272 Y103.998 E3.75901
G1 X146.839 Y105.136 E3.85416
G1 X147.066 Y105.618 E3.89403
G1 X147.306 Y106.145 E3.93736
G1 X147.407 Y106.385 E3.95685
G1 X147.842 Y107.522 E4.04795
G1 X148.059 Y108.129 E4.09619
G1 X148.286 Y108.795 E4.14885
G1 X148.433 Y109.29 E4.18749
G1 X148.755 Y110.571 E4.28633
G1 X148.897 Y111.171 E4.33248
G1 X148.951 Y111.437 E4.35279
G1 X149.172 Y112.75 E4.45243
G1 X149.244 Y113.239 E4.48942
G1 X149.317 Y113.778 E4.53012
G1 X149.345 Y114.046 E4.55029
G1 X149.434 Y115.324 E4.64616
G1 X149.463 Y115.935 E4.69193
G1 X149.487 Y116.629 E4.7439
G1 X149.479 Y117.272 E4.79202
G1 X149.418 Y118.524 E4.88583
G1 X149.382 Y119.082 E4.92767
G1 X149.357 Y119.34 E4.94707
G1 X149.193 Y120.631 E5.04446
G1 X149.125 Y121.087 E5.07896
G1 X149.023 Y121.714 E5.1265
G1 X148.972 Y121.972 E5.14618
G1 X148.685 Y123.23 E5.24274
G1 X148.557 Y123.738 E5.28195
G1 X148.416 Y124.272 E5.32328
G1 X148.338 Y124.533 E5.34367
G1 X147.918 Y125.783 E5.44235
G1 X147.725 Y126.323 E5.48526
G1 X147.463 Y127.001 E5.53966
G1 X146.916 Y128.22 E5.63965
G1 X146.663 Y128.754 E5.68387
G1 X146.322 Y129.429 E5.74046
G1 X145.699 Y130.516 E5.83422
G1 X145.392 Y131.029 E5.87896
G1 X144.978 Y131.684 E5.93695
G1 X144.182 Y132.802 E6.03965
G1 X143.891 Y133.195 E6.07625
G1 X143.556 Y133.633 E6.11751
G1 X143.388 Y133.838 E6.13735
G1 X142.535 Y134.818 E6.23458
G1 X142.204 Y135.182 E6.2714
G1 X141.813 Y135.601 E6.31428
G1 X141.628 Y135.788 E6.33397
G1 X140.645 Y136.716 E6.43513
G1 X140.292 Y137.035 E6.47074
G1 X139.862 Y137.413 E6.51359
G1 X139.662 Y137.579 E6.53304
G1 X138.724 Y138.306 E6.62185
G1 X138.174 Y138.714 E6.67309
G1 X137.559 Y139.146 E6.72934
G1 X136.429 Y139.856 E6.82921
G1 X135.981 Y140.123 E6.86824
G1 X135.493 Y140.406 E6.91045
G1 X135.26 Y140.532 E6.93028
G1 X134.128 Y141.095 E7.02489
G1 X133.641 Y141.325 E7.06519
G1 X133.117 Y141.564 E7.10829
G1 X132.871 Y141.667 E7.12825
G1 X131.663 Y142.127 E7.22499
G1 X131.142 Y142.314 E7.26641
G1 X130.423 Y142.551 E7.32306
G1 X129.096 Y142.912 E7.42598
G1 X128.634 Y143.027 E7.46161
G1 X128.088 Y143.156 E7.50359
G1 X127.822 Y143.21 E7.52391
G1 X126.509 Y143.431 E7.62355
G1 X126.012 Y143.504 E7.66114
G1 X125.458 Y143.578 E7.70297
G1 X125.198 Y143.605 E7.72253
G1 X123.935 Y143.693 E7.81727
G1 X123.324 Y143.722 E7.86305
G1 X122.63 Y143.746 E7.91502
G1 X121.987 Y143.738 E7.96314
G1 X120.735 Y143.677 E8.05694
G1 X120.177 Y143.641 E8.09879
G1 X119.919 Y143.616 E8.11819
G1 X118.625 Y143.451 E8.21581
G1 X118.124 Y143.376 E8.25372
G1 X117.542 Y143.281 E8.29785
G1 X117.287 Y143.231 E8.3173
G1 X116.031 Y142.945 E8.4137
G1 X115.504 Y142.812 E8.45437
G1 X114.98 Y142.672 E8.49496
G1 X114.737 Y142.599 E8.51395
G1 X113.545 Y142.202 E8.60797
G1 X112.982 Y142 E8.65273
G1 X112.476 Y141.811 E8.69315
G1 X112.226 Y141.709 E8.71336
G1 X111.068 Y141.188 E8.80838
G1 X110.504 Y140.922 E8.85505
G1 X109.841 Y140.587 E8.91064
G1 X108.705 Y139.936 E9.00862
G1 X108.23 Y139.651 E9.05008
G1 X107.575 Y139.237 E9.10806
G1 X106.457 Y138.441 E9.21077
G1 X106.063 Y138.149 E9.24747
G1 X105.624 Y137.813 E9.28884
G1 X105.42 Y137.647 E9.30852
G1 X104.441 Y136.794 E9.40569
G1 X104.077 Y136.463 E9.44251
G1 X103.658 Y136.072 E9.4854
G1 X103.471 Y135.887 E9.50509
G1 X102.601 Y134.967 E9.59984
G1 X102.202 Y134.528 E9.64424
G1 X101.843 Y134.119 E9.68496
G1 X101.68 Y133.921 E9.70416
G1 X100.953 Y132.983 E9.79297
G1 X100.546 Y132.435 E9.84405
G1 X100.111 Y131.816 E9.90067
G1 X99.454 Y130.772 E9.99298
G1 X99.135 Y130.239 E10.03947
G1 X98.851 Y129.749 E10.08185
G1 X98.727 Y129.518 E10.10147
G1 X98.161 Y128.382 E10.19645
G1 X97.936 Y127.905 E10.23592
G1 X97.697 Y127.382 E10.27895
G1 X97.593 Y127.133 E10.29914
G1 X97.123 Y125.9 E10.39789
G1 X96.952 Y125.422 E10.43588
G1 X96.779 Y124.914 E10.47604
G1 X96.704 Y124.667 E10.49536
G1 X96.347 Y123.359 E10.59683
G1 X96.232 Y122.893 E10.63275
G1 X96.103 Y122.347 E10.67473
G1 X96.049 Y122.081 E10.69504
G1 X95.828 Y120.768 E10.79468
G1 X95.755 Y120.271 E10.83228
G1 X95.681 Y119.717 E10.8741
G1 X95.654 Y119.457 E10.89366
G1 X95.566 Y118.194 E10.98841
G1 X95.537 Y117.583 E11.03419
G1 X95.513 Y116.889 E11.08615
G1 X95.521 Y116.246 E11.13428
G1 X95.582 Y114.994 E11.22808
G1 X95.618 Y114.436 E11.26993
G1 X95.643 Y114.178 E11.28932
G1 X95.808 Y112.884 E11.38694
G1 X95.883 Y112.383 E11.42486
G1 X95.978 Y111.801 E11.46899
G1 X96.028 Y111.546 E11.48843
G1 X96.315 Y110.288 E11.58499
G1 X96.445 Y109.772 E11.62482
G1 X96.635 Y109.055 E11.68032
G1 X96.813 Y108.488 E11.7248
G1 X97.262 Y107.231 E11.82469
G1 X97.442 Y106.749 E11.86319
G1 X97.544 Y106.501 E11.88326
G1 X98.078 Y105.312 E11.9808
G1 X98.337 Y104.764 E12.02616
G1 X98.678 Y104.089 E12.08275
G1 X99.301 Y103.002 E12.17651
G1 X99.608 Y102.489 E12.22125
G1 X100.022 Y101.834 E12.27924
G1 X100.818 Y100.716 E12.38194
G1 X101.109 Y100.323 E12.41854
G1 X101.444 Y99.885 E12.45981
G1 X101.612 Y99.68 E12.47964
G1 X102.466 Y98.699 E12.57697
G1 X102.809 Y98.322 E12.61512
G1 X103.188 Y97.916 E12.65668
M204 S5000
M205 X30 Y30
G0 F1680 X103.773 Y98.462
M204 S1000
M205 X20 Y20
G1 F1200 X103.922 Y98.312 E12.6725
G1 X104.893 Y97.394 E12.7725
G1 X105.259 Y97.063 E12.80943
G1 X105.668 Y96.704 E12.85016
G1 X105.828 Y96.572 E12.86568
G1 X106.823 Y95.801 E12.95988
G1 X107.292 Y95.454 E13.00354
G1 X107.867 Y95.049 E13.05617
G1 X108.98 Y94.349 E13.15457
G1 X109.446 Y94.071 E13.19517
G1 X109.911 Y93.802 E13.23538
G1 X110.097 Y93.702 E13.25118
G1 X111.213 Y93.147 E13.34445
G1 X111.701 Y92.916 E13.38486
G1 X112.393 Y92.601 E13.44176
G1 X113.155 Y92.317 E13.50261
G1 X113.66 Y92.187 E13.54164
G1 X114.179 Y92.137 E13.58066
G1 X114.475 Y92.144 E13.60281
G1 X115.923 Y92.24 E13.71141
G1 X116.298 Y92.269 E13.73956
G1 X119.048 Y92.408 E13.94562
G1 X121.752 Y92.469 E14.14803
G1 X124.491 Y92.452 E14.353
G1 X127.229 Y92.357 E14.55803
G1 X129.846 Y92.182 E14.75431
G1 X130.556 Y92.141 E14.80753
G1 X131.077 Y92.151 E14.84653
G1 X131.59 Y92.24 E14.88549
G1 X132.173 Y92.431 E14.9314
G1 X132.428 Y92.533 E14.95195
G1 X133.61 Y93.062 E15.04886
G1 X134.095 Y93.292 E15.08903
G1 X134.584 Y93.531 E15.12976
G1 X134.78 Y93.635 E15.14637
G1 X135.864 Y94.257 E15.2399
G1 X136.351 Y94.548 E15.28235
G1 X136.961 Y94.933 E15.33633
G1 X138.067 Y95.72 E15.43792
G1 X138.45 Y96.003 E15.47355
G1 X138.888 Y96.338 E15.51482
G1 X139.054 Y96.474 E15.53088
G1 X140.022 Y97.317 E15.62694
G1 X140.378 Y97.64 E15.66291
G1 X140.797 Y98.031 E15.7058
G1 X140.947 Y98.181 E15.72168
G1 X141.865 Y99.152 E15.82167
G1 X142.196 Y99.518 E15.8586
G1 X142.555 Y99.927 E15.89933
G1 X142.687 Y100.087 E15.91485
G1 X143.458 Y101.082 E16.00905
G1 X143.805 Y101.551 E16.05271
G1 X144.21 Y102.126 E16.10534
G1 X144.91 Y103.24 E16.2038
G1 X145.172 Y103.679 E16.24206
G1 X145.455 Y104.167 E16.28428
G1 X145.556 Y104.355 E16.30025
G1 X146.116 Y105.478 E16.39416
G1 X146.338 Y105.95 E16.43319
G1 X146.578 Y106.477 E16.47653
G1 X146.66 Y106.671 E16.49229
G1 X147.12 Y107.877 E16.58888
G1 X147.302 Y108.387 E16.62941
G1 X147.529 Y109.053 E16.68206
G1 X147.689 Y109.607 E16.72521
G1 X147.99 Y110.809 E16.81794
G1 X148.119 Y111.355 E16.85993
G1 X148.162 Y111.571 E16.87641
G1 X148.381 Y112.866 E16.9747
G1 X148.451 Y113.347 E17.01107
G1 X148.524 Y113.886 E17.05178
G1 X148.547 Y114.102 E17.06803
G1 X148.635 Y115.363 E17.16263
G1 X148.664 Y115.962 E17.20751
G1 X148.688 Y116.656 E17.25948
G1 X148.679 Y117.252 E17.30408
G1 X148.616 Y118.535 E17.40021
G1 X148.564 Y119.24 E17.45311
G1 X148.401 Y120.514 E17.54923
G1 X148.335 Y120.959 E17.5829
G1 X148.233 Y121.586 E17.63044
G1 X148.192 Y121.794 E17.6463
G1 X147.909 Y123.035 E17.74156
G1 X147.783 Y123.534 E17.78007
G1 X147.642 Y124.068 E17.8214
G1 X147.579 Y124.279 E17.83788
G1 X147.165 Y125.514 E17.93536
G1 X146.975 Y126.043 E17.97742
G1 X146.733 Y126.674 E18.028
G1 X146.193 Y127.878 E18.12675
G1 X145.945 Y128.401 E18.17006
G1 X145.628 Y129.032 E18.22291
G1 X145.013 Y130.106 E18.31553
G1 X144.711 Y130.61 E18.3595
G1 X144.326 Y131.22 E18.41348
G1 X143.539 Y132.326 E18.51506
G1 X143.256 Y132.709 E18.5507
G1 X142.921 Y133.147 E18.59196
G1 X142.785 Y133.313 E18.60802
G1 X141.942 Y134.281 E18.70408
G1 X141.619 Y134.637 E18.74006
G1 X141.228 Y135.056 E18.78294
G1 X141.078 Y135.206 E18.79882
G1 X140.107 Y136.124 E18.89882
G1 X139.764 Y136.435 E18.93347
G1 X139.334 Y136.813 E18.97631
G1 X139.172 Y136.946 E18.992
G1 X138.177 Y137.717 E19.0862
G1 X137.708 Y138.064 E19.12986
G1 X137.133 Y138.469 E19.18249
G1 X136.019 Y139.169 E19.28095
G1 X135.58 Y139.431 E19.31921
G1 X135.092 Y139.714 E19.36142
G1 X134.903 Y139.816 E19.37749
G1 X133.786 Y140.372 E19.47087
G1 X133.309 Y140.597 E19.51034
G1 X132.785 Y140.836 E19.55344
G1 X132.586 Y140.92 E19.5696
G1 X131.393 Y141.374 E19.66513
G1 X130.884 Y141.557 E19.7056
G1 X130.212 Y141.779 E19.75857
G1 X128.902 Y142.136 E19.86018
G1 X128.45 Y142.249 E19.89504
G1 X127.904 Y142.378 E19.93703
G1 X127.688 Y142.421 E19.95351
G1 X126.393 Y142.64 E20.0518
G1 X125.906 Y142.711 E20.08863
G1 X125.352 Y142.785 E20.13045
G1 X125.142 Y142.807 E20.14626
G1 X123.896 Y142.894 E20.23973
G1 X123.297 Y142.923 E20.28461
G1 X122.603 Y142.947 E20.33657
G1 X122.007 Y142.938 E20.38118
G1 X120.724 Y142.875 E20.47731
G1 X120.019 Y142.823 E20.53021
G1 X118.743 Y142.66 E20.62648
G1 X118.253 Y142.587 E20.66355
G1 X117.671 Y142.492 E20.70768
G1 X117.465 Y142.451 E20.7234
G1 X116.226 Y142.169 E20.81849
G1 X115.71 Y142.039 E20.85831
G1 X115.186 Y141.899 E20.8989
G1 X114.99 Y141.84 E20.91422
G1 X113.722 Y141.417 E21.01425
G1 X113.262 Y141.251 E21.05085
G1 X112.756 Y141.062 E21.09127
G1 X112.553 Y140.979 E21.10768
G1 X111.41 Y140.465 E21.20147
G1 X110.856 Y140.203 E21.24733
G1 X110.239 Y139.893 E21.29901
G1 X109.117 Y139.25 E21.39578
G1 X108.649 Y138.97 E21.4366
G1 X108.039 Y138.585 E21.49058
G1 X106.933 Y137.798 E21.59216
G1 X106.55 Y137.514 E21.62784
G1 X106.111 Y137.178 E21.66921
G1 X105.945 Y137.043 E21.68523
G1 X104.978 Y136.201 E21.78118
G1 X104.622 Y135.878 E21.81715
G1 X104.203 Y135.487 E21.86004
G1 X104.053 Y135.337 E21.87592
G1 X103.135 Y134.366 E21.97591
G1 X102.804 Y134 E22.01284
G1 X102.445 Y133.591 E22.05357
G1 X102.313 Y133.431 E22.06909
G1 X101.542 Y132.436 E22.16329
G1 X101.196 Y131.968 E22.20685
G1 X100.788 Y131.39 E22.25979
G1 X100.131 Y130.346 E22.3521
G1 X99.827 Y129.838 E22.39641
G1 X99.543 Y129.348 E22.43879
G1 X99.443 Y129.161 E22.45466
G1 X98.884 Y128.04 E22.5484
G1 X98.664 Y127.572 E22.5871
G1 X98.425 Y127.049 E22.63013
G1 X98.34 Y126.848 E22.64647
G1 X97.876 Y125.629 E22.74407
G1 X97.71 Y125.164 E22.78102
G1 X97.537 Y124.656 E22.82118
G1 X97.475 Y124.456 E22.83685
G1 X97.124 Y123.166 E22.9369
G1 X97.01 Y122.709 E22.97215
G1 X96.881 Y122.163 E23.01413
G1 X96.838 Y121.947 E23.03062
G1 X96.619 Y120.652 E23.1289
G1 X96.548 Y120.165 E23.16573
G1 X96.474 Y119.611 E23.20756
G1 X96.452 Y119.401 E23.22336
G1 X96.365 Y118.155 E23.31683
G1 X96.336 Y117.556 E23.36171
G1 X96.312 Y116.862 E23.41368
G1 X96.321 Y116.266 E23.45829
G1 X96.384 Y114.983 E23.55442
G1 X96.436 Y114.278 E23.60732
G1 X96.599 Y113.002 E23.70358
G1 X96.672 Y112.512 E23.74066
G1 X96.767 Y111.93 E23.78479
G1 X96.808 Y111.724 E23.80051
G1 X97.091 Y110.483 E23.89576
G1 X97.218 Y109.977 E23.9348
G1 X97.408 Y109.26 E23.99031
G1 X97.574 Y108.737 E24.03137
G1 X97.996 Y107.554 E24.12537
G1 X98.192 Y107.029 E24.16731
G1 X98.274 Y106.828 E24.18355
G1 X98.801 Y105.653 E24.27992
G1 X99.055 Y105.117 E24.32431
G1 X99.372 Y104.486 E24.37715
G1 X99.987 Y103.412 E24.46977
G1 X100.289 Y102.908 E24.51374
G1 X100.674 Y102.298 E24.56772
G1 X101.461 Y101.192 E24.66931
G1 X101.744 Y100.809 E24.70494
G1 X102.079 Y100.371 E24.74621
G1 X102.215 Y100.205 E24.76227
G1 X103.059 Y99.236 E24.85844
G1 X103.394 Y98.868 E24.89568
G1 X103.773 Y98.462 E24.93724
M204 S5000
M205 X30 Y30
G1 F2400 E21.93724
;MESH:lamp spacer 2.stl
G0 F1680 X106.878 Y101.276
G0 X107.227 Y101.486
M204 S1000
M205 X20 Y20
;TYPE:WALL-INNER
G1 F2400 E24.93724
G1 F900 X108.799 Y100.063 E25.09592
G1 X110.495 Y98.804 E25.25399
G1 X112.316 Y97.714 E25.41281
G1 X113.047 Y97.368 E25.47334
G1 X113.047 Y117.324 E26.96675
G1 X113.098 Y117.735 E26.99774
G1 X113.222 Y118.567 E27.06069
G1 X113.238 Y118.645 E27.06665
G1 X113.449 Y119.49 E27.13183
G1 X113.772 Y120.392 E27.20353
G1 X114.157 Y121.206 E27.27091
G1 X114.647 Y122.022 E27.34214
G1 X115.182 Y122.744 E27.40939
G1 X115.788 Y123.414 E27.477
G1 X115.845 Y123.471 E27.48303
G1 X116.515 Y124.077 E27.55064
G1 X117.237 Y124.612 E27.61789
G1 X118.053 Y125.102 E27.68912
G1 X118.87 Y125.489 E27.75677
G1 X119.706 Y125.788 E27.82321
G1 X119.78 Y125.812 E27.82903
G1 X120.614 Y126.021 E27.89338
G1 X120.692 Y126.037 E27.89933
G1 X121.531 Y126.162 E27.96281
G1 X121.609 Y126.17 E27.96868
G1 X122.461 Y126.211 E28.03252
G1 X122.539 Y126.211 E28.03835
G1 X123.391 Y126.17 E28.10219
G1 X123.469 Y126.162 E28.10805
G1 X124.308 Y126.037 E28.17153
G1 X124.386 Y126.021 E28.17749
G1 X125.231 Y125.81 E28.24267
G1 X126.133 Y125.487 E28.31437
G1 X126.947 Y125.102 E28.38175
G1 X127.763 Y124.612 E28.45298
G1 X128.485 Y124.077 E28.52023
G1 X129.155 Y123.471 E28.58784
G1 X129.212 Y123.414 E28.59387
G1 X129.818 Y122.744 E28.66148
G1 X130.353 Y122.022 E28.72873
