;FLAVOR:Marlin
;TIME:340
;Filament used: 0.566735m
;Layer height: 0.3
;MINX:96.131
;MINY:91.985
;MINZ:0.25
;MAXX:148.869
;MAXY:143.128
;MAXZ:1.15
;Generated with Cura_SteamEngine 4.13.0
M140 S45
M105
M190 S45
M104 S210
M105
M109 S210
M82 ;absolute extrusion mode
G28 ;home
;M420 S1 ;BLtouch load mesh (Uncomment to enable)
G92 E0 ;Reset Extruder
G1 Z4.0 F3000 ;Move Z Axis up
G1 X1.1 Y20 Z0.28 F5000.0 ;Move to start position
G1 X1.1 Y200.0 Z0.28 F1500.0 E15 ;Draw the first line
G1 X1.4 Y200.0 Z0.28 F5000.0 ;Move to side a little
G1 X1.4 Y20 Z0.28 F1500.0 E30 ;Draw the second line
G92 E0 ;Reset Extruder
G1 Z2.0 F3000 ;Move Z Axis up
G92 E0
G92 E0
G1 F2400 E-3
;LAYER_COUNT:4
;LAYER:0
M107
M204 S5000
M205 X30 Y30
G0 F1680 X103.763 Y98.195 Z0.25
M204 S1000
M205 X20 Y20
;TYPE:SKIRT
G1 F2400 E0
G1 F1200 X104.098 Y97.866 E0.03514
G1 X105.124 Y96.931 E0.13902
G1 X105.509 Y96.592 E0.17741
G1 X105.71 Y96.426 E0.19692
G1 X106.751 Y95.619 E0.29549
G1 X107.221 Y95.271 E0.33925
G1 X107.779 Y94.881 E0.3902
G1 X108.914 Y94.168 E0.49051
G1 X109.291 Y93.943 E0.52336
G1 X109.776 Y93.661 E0.56535
G1 X110.011 Y93.534 E0.58534
G1 X111.203 Y92.94 E0.685
G1 X111.645 Y92.732 E0.72156
G1 X112.289 Y92.44 E0.77447
G1 X112.806 Y92.239 E0.81599
G1 X113.063 Y92.156 E0.8362
G1 X113.629 Y92.031 E0.87957
G1 X114.206 Y91.985 E0.92289
G1 X114.53 Y91.994 E0.94715
G1 X115.982 Y92.093 E1.05606
G1 X116.166 Y92.108 E1.06988
G1 X118.861 Y92.249 E1.27183
G1 X121.594 Y92.316 E1.47642
G1 X124.291 Y92.304 E1.67825
G1 X126.991 Y92.217 E1.88041
G1 X129.646 Y92.042 E2.07953
G1 X130.52 Y91.993 E2.14504
G1 X131.099 Y92 E2.18837
G1 X131.672 Y92.087 E2.23174
G1 X132.165 Y92.23 E2.27016
G1 X132.666 Y92.419 E2.31023
G1 X133.088 Y92.606 E2.34477
G1 X134.208 Y93.135 E2.43747
G1 X134.856 Y93.461 E2.49175
G1 X136.018 Y94.127 E2.59198
G1 X136.392 Y94.353 E2.62468
G1 X136.883 Y94.656 E2.66786
G1 X137.108 Y94.805 E2.68805
G1 X138.156 Y95.55 E2.78428
G1 X138.576 Y95.863 E2.82348
G1 X138.977 Y96.169 E2.86123
G1 X139.183 Y96.337 E2.88112
G1 X140.148 Y97.176 E2.97681
G1 X140.509 Y97.502 E3.01321
G1 X141.063 Y98.019 E3.06992
G1 X141.385 Y98.349 E3.10443
G1 X141.766 Y98.765 E3.14664
G1 X142.323 Y99.379 E3.20868
G1 X142.663 Y99.764 E3.24712
G1 X142.833 Y99.969 E3.26705
G1 X143.64 Y101.011 E3.36568
G1 X143.979 Y101.469 E3.40832
G1 X144.379 Y102.039 E3.46043
G1 X145.034 Y103.08 E3.55247
G1 X145.328 Y103.569 E3.59517
G1 X145.61 Y104.056 E3.63729
G1 X145.733 Y104.286 E3.6568
G1 X146.307 Y105.438 E3.75312
G1 X146.524 Y105.898 E3.79119
G1 X146.737 Y106.367 E3.82973
G1 X146.837 Y106.606 E3.84912
G1 X147.306 Y107.838 E3.94777
G1 X147.432 Y108.189 E3.97568
G1 X147.637 Y108.79 E4.0232
G1 X147.714 Y109.041 E4.04285
G1 X148.063 Y110.325 E4.14242
G1 X148.173 Y110.763 E4.17622
G1 X148.295 Y111.278 E4.21583
G1 X148.349 Y111.546 E4.23629
G1 X148.571 Y112.86 E4.33601
G1 X148.629 Y113.25 E4.36552
G1 X148.708 Y113.835 E4.4097
G1 X148.736 Y114.103 E4.42986
G1 X148.829 Y115.444 E4.53046
G1 X148.847 Y115.83 E4.55937
G1 X148.868 Y116.432 E4.60445
G1 X148.869 Y116.696 E4.62421
G1 X148.831 Y118.028 E4.72393
G1 X148.811 Y118.443 E4.75502
G1 X148.763 Y119.199 E4.81171
G1 X148.688 Y119.838 E4.85986
G1 X148.638 Y120.199 E4.88713
G1 X148.517 Y121.017 E4.94901
G1 X148.432 Y121.553 E4.98963
G1 X148.377 Y121.836 E5.0112
G1 X148.075 Y123.147 E5.11188
G1 X147.972 Y123.561 E5.14381
G1 X147.825 Y124.115 E5.1867
G1 X147.748 Y124.37 E5.20663
G1 X147.347 Y125.567 E5.30111
G1 X147.184 Y126.022 E5.33727
G1 X146.993 Y126.535 E5.37824
G1 X146.89 Y126.788 E5.39868
G1 X146.357 Y127.974 E5.49599
G1 X146.13 Y128.454 E5.53572
G1 X145.801 Y129.108 E5.59051
G1 X145.13 Y130.278 E5.69144
G1 X144.902 Y130.66 E5.72474
G1 X144.609 Y131.135 E5.7665
G1 X144.457 Y131.364 E5.78707
G1 X143.715 Y132.406 E5.8828
G1 X143.396 Y132.835 E5.92281
G1 X143.09 Y133.236 E5.96055
G1 X142.923 Y133.441 E5.98034
G1 X142.068 Y134.424 E6.07784
G1 X141.763 Y134.76 E6.1118
G1 X141.237 Y135.323 E6.16946
G1 X140.905 Y135.648 E6.20422
G1 X139.888 Y136.576 E6.30725
G1 X139.492 Y136.925 E6.34676
G1 X139.29 Y137.092 E6.36637
G1 X138.248 Y137.899 E6.465
G1 X137.793 Y138.236 E6.50737
G1 X137.221 Y138.637 E6.55965
G1 X136.089 Y139.348 E6.65969
G1 X135.717 Y139.571 E6.69214
G1 X135.223 Y139.858 E6.7349
G1 X134.989 Y139.984 E6.75479
G1 X133.797 Y140.578 E6.85445
G1 X133.357 Y140.785 E6.89084
G1 X132.89 Y140.997 E6.92922
G1 X132.65 Y141.097 E6.94868
G1 X131.427 Y141.563 E7.04662
G1 X130.944 Y141.736 E7.08502
G1 X130.467 Y141.898 E7.12272
G1 X130.222 Y141.973 E7.14189
G1 X128.963 Y142.316 E7.23954
G1 X128.496 Y142.432 E7.27555
G1 X127.981 Y142.554 E7.31516
G1 X127.713 Y142.608 E7.33562
G1 X126.387 Y142.832 E7.43626
G1 X125.992 Y142.89 E7.46613
G1 X125.425 Y142.967 E7.50895
G1 X125.154 Y142.995 E7.52934
G1 X123.809 Y143.088 E7.63024
G1 X123.4 Y143.107 E7.66088
G1 X122.826 Y143.127 E7.70386
G1 X122.562 Y143.128 E7.72361
G1 X121.227 Y143.09 E7.82356
G1 X120.805 Y143.069 E7.85518
G1 X120.061 Y143.022 E7.91097
G1 X119.421 Y142.947 E7.95919
G1 X119.06 Y142.897 E7.98646
G1 X118.213 Y142.772 E8.05054
G1 X117.704 Y142.691 E8.08911
G1 X117.423 Y142.636 E8.11053
G1 X116.107 Y142.333 E8.21159
G1 X115.69 Y142.228 E8.24377
G1 X115.146 Y142.084 E8.28589
G1 X114.889 Y142.007 E8.30596
G1 X113.69 Y141.605 E8.4006
G1 X113.205 Y141.432 E8.43914
G1 X112.721 Y141.252 E8.47778
G1 X112.465 Y141.147 E8.49849
G1 X111.289 Y140.618 E8.59499
G1 X110.804 Y140.389 E8.63512
G1 X110.144 Y140.056 E8.69045
G1 X108.974 Y139.386 E8.79134
G1 X108.608 Y139.165 E8.82334
G1 X108.117 Y138.862 E8.86652
G1 X107.892 Y138.713 E8.88671
G1 X106.844 Y137.968 E8.98294
G1 X106.423 Y137.654 E9.02224
G1 X106.021 Y137.347 E9.06009
G1 X105.818 Y137.181 E9.07972
G1 X104.835 Y136.328 E9.17712
G1 X104.489 Y136.013 E9.21213
G1 X103.935 Y135.495 E9.26889
G1 X103.607 Y135.161 E9.30392
G1 X102.672 Y134.135 E9.4078
G1 X102.333 Y133.75 E9.44619
G1 X102.167 Y133.549 E9.4657
G1 X101.36 Y132.507 E9.56433
G1 X101.022 Y132.051 E9.60681
G1 X100.62 Y131.477 E9.65925
G1 X99.919 Y130.36 E9.75794
G1 X99.672 Y129.948 E9.79389
G1 X99.389 Y129.459 E9.83617
G1 X99.266 Y129.23 E9.85562
G1 X98.693 Y128.08 E9.95177
G1 X98.477 Y127.622 E9.98967
G1 X98.26 Y127.145 E10.02888
G1 X98.159 Y126.903 E10.04851
G1 X97.703 Y125.705 E10.14444
G1 X97.522 Y125.199 E10.18465
G1 X97.286 Y124.481 E10.24121
G1 X96.943 Y123.222 E10.33886
G1 X96.827 Y122.755 E10.37487
G1 X96.705 Y122.24 E10.41448
G1 X96.651 Y121.972 E10.43494
G1 X96.427 Y120.646 E10.53558
G1 X96.369 Y120.251 E10.56545
G1 X96.292 Y119.684 E10.60828
G1 X96.264 Y119.413 E10.62866
G1 X96.176 Y118.16 E10.72266
G1 X96.152 Y117.653 E10.76065
G1 X96.132 Y117.089 E10.80288
G1 X96.131 Y116.822 E10.82286
G1 X96.169 Y115.486 E10.92288
G1 X96.19 Y115.065 E10.95443
G1 X96.237 Y114.319 E11.01037
G1 X96.312 Y113.677 E11.05874
G1 X96.362 Y113.319 E11.08579
G1 X96.488 Y112.468 E11.15017
G1 X96.571 Y111.95 E11.18943
G1 X96.625 Y111.673 E11.21055
G1 X96.925 Y110.371 E11.31053
G1 X97.034 Y109.934 E11.34424
G1 X97.175 Y109.406 E11.38514
G1 X97.25 Y109.159 E11.40445
G1 X97.674 Y107.892 E11.50444
G1 X97.832 Y107.453 E11.53935
G1 X98.008 Y106.981 E11.57705
G1 X98.11 Y106.73 E11.59733
G1 X98.612 Y105.61 E11.68918
G1 X98.87 Y105.064 E11.73437
G1 X99.199 Y104.41 E11.78916
G1 X99.83 Y103.307 E11.88425
G1 X100.117 Y102.828 E11.92604
G1 X100.39 Y102.385 E11.96498
G1 X100.543 Y102.154 E11.98572
G1 X101.284 Y101.114 E12.08128
G1 X101.617 Y100.665 E12.12311
G1 X102.077 Y100.077 E12.17898
G1 X102.936 Y99.089 E12.27696
G1 X103.266 Y98.727 E12.31361
G1 X103.763 Y98.195 E12.3681
M204 S5000
M205 X30 Y30
G0 F1680 X104.347 Y98.741
M204 S1000
M205 X20 Y20
G1 F1200 X104.637 Y98.457 E12.39847
G1 X105.653 Y97.531 E12.50135
G1 X106.038 Y97.192 E12.53974
G1 X106.201 Y97.058 E12.55553
G1 X107.228 Y96.262 E12.65276
G1 X107.688 Y95.921 E12.69562
G1 X108.205 Y95.558 E12.74289
G1 X109.325 Y94.854 E12.84189
G1 X109.693 Y94.635 E12.87394
G1 X110.178 Y94.353 E12.91592
G1 X110.369 Y94.25 E12.93216
G1 X111.546 Y93.663 E13.03059
G1 X111.975 Y93.46 E13.0661
G1 X112.619 Y93.168 E13.11902
G1 X113.272 Y92.928 E13.17108
G1 X113.798 Y92.815 E13.21135
G1 X114.476 Y92.793 E13.26211
G1 X115.917 Y92.89 E13.37019
G1 X116.129 Y92.907 E13.38611
G1 X118.836 Y93.049 E13.58897
G1 X121.578 Y93.116 E13.79423
G1 X124.32 Y93.104 E13.99943
G1 X127.011 Y93.018 E14.20091
G1 X129.691 Y92.84 E14.40191
G1 X130.565 Y92.791 E14.46742
G1 X131.086 Y92.802 E14.50642
G1 X131.599 Y92.892 E14.54539
G1 X132.127 Y93.065 E14.58697
G1 X132.655 Y93.287 E14.62984
G1 X133.82 Y93.836 E14.72622
G1 X134.458 Y94.155 E14.7796
G1 X135.605 Y94.813 E14.87855
G1 X135.972 Y95.034 E14.91061
G1 X136.463 Y95.337 E14.95379
G1 X136.645 Y95.458 E14.97015
G1 X137.679 Y96.192 E15.06504
G1 X138.091 Y96.499 E15.10349
G1 X138.492 Y96.805 E15.14124
G1 X138.658 Y96.941 E15.1573
G1 X139.612 Y97.77 E15.25188
G1 X139.963 Y98.087 E15.28728
G1 X140.517 Y98.604 E15.34398
G1 X140.796 Y98.89 E15.37388
G1 X141.174 Y99.302 E15.41573
G1 X141.723 Y99.908 E15.47692
G1 X142.063 Y100.293 E15.51536
G1 X142.201 Y100.46 E15.53157
G1 X142.997 Y101.487 E15.62881
G1 X143.329 Y101.935 E15.67054
G1 X143.702 Y102.465 E15.71904
G1 X144.395 Y103.569 E15.81658
G1 X144.635 Y103.97 E15.85156
G1 X144.917 Y104.457 E15.89367
G1 X145.017 Y104.643 E15.90947
G1 X145.584 Y105.78 E16.00455
G1 X145.796 Y106.229 E16.04171
G1 X146.009 Y106.698 E16.08026
G1 X146.089 Y106.892 E16.09596
G1 X146.554 Y108.109 E16.19346
G1 X146.675 Y108.447 E16.22033
G1 X146.88 Y109.048 E16.26785
G1 X146.942 Y109.252 E16.2838
G1 X147.287 Y110.52 E16.38214
G1 X147.394 Y110.947 E16.41509
G1 X147.516 Y111.462 E16.45469
G1 X147.56 Y111.679 E16.47126
G1 X147.78 Y112.98 E16.57001
G1 X147.836 Y113.357 E16.59853
G1 X147.915 Y113.942 E16.64271
G1 X147.938 Y114.159 E16.65904
G1 X148.03 Y115.484 E16.75843
G1 X148.048 Y115.857 E16.78638
G1 X148.069 Y116.459 E16.83146
G1 X148.07 Y116.673 E16.84747
G1 X148.032 Y117.989 E16.94599
G1 X148.012 Y118.392 E16.97619
G1 X147.964 Y119.148 E17.03288
G1 X147.895 Y119.734 E17.07704
G1 X147.847 Y120.082 E17.10333
G1 X147.727 Y120.892 E17.1646
G1 X147.642 Y121.428 E17.20522
G1 X147.598 Y121.656 E17.22259
G1 X147.299 Y122.953 E17.3222
G1 X147.198 Y123.356 E17.35329
G1 X147.051 Y123.91 E17.39619
G1 X146.989 Y124.117 E17.41236
G1 X146.593 Y125.298 E17.50557
G1 X146.434 Y125.743 E17.54094
G1 X146.243 Y126.256 E17.5819
G1 X146.16 Y126.461 E17.59845
G1 X145.634 Y127.632 E17.69452
G1 X145.411 Y128.103 E17.73352
G1 X145.106 Y128.71 E17.78436
G1 X144.443 Y129.868 E17.88421
G1 X144.221 Y130.24 E17.91663
G1 X143.928 Y130.715 E17.9584
G1 X143.805 Y130.901 E17.97508
G1 X143.113 Y131.874 E18.06444
G1 X142.76 Y132.35 E18.10879
G1 X142.454 Y132.751 E18.14653
G1 X142.319 Y132.916 E18.16249
G1 X141.476 Y133.887 E18.25872
G1 X141.178 Y134.214 E18.29183
G1 X140.652 Y134.777 E18.34948
G1 X140.366 Y135.057 E18.37944
G1 X139.359 Y135.976 E18.48146
G1 X138.963 Y136.325 E18.52096
G1 X138.799 Y136.46 E18.53686
G1 X137.772 Y137.256 E18.6341
G1 X137.326 Y137.586 E18.67562
G1 X136.795 Y137.96 E18.72422
G1 X135.678 Y138.662 E18.82295
G1 X135.315 Y138.879 E18.8546
G1 X134.821 Y139.166 E18.89735
G1 X134.631 Y139.268 E18.91349
G1 X133.454 Y139.855 E19.01192
G1 X133.026 Y140.057 E19.04734
G1 X132.559 Y140.269 E19.08572
G1 X132.365 Y140.35 E19.10145
G1 X131.157 Y140.81 E19.19818
G1 X130.686 Y140.978 E19.23561
G1 X130.209 Y141.14 E19.2733
G1 X130.012 Y141.201 E19.28874
G1 X128.769 Y141.539 E19.38514
G1 X128.312 Y141.653 E19.42038
G1 X127.797 Y141.775 E19.45999
G1 X127.58 Y141.819 E19.47656
G1 X126.27 Y142.04 E19.57598
G1 X125.885 Y142.097 E19.60511
G1 X125.318 Y142.174 E19.64793
G1 X125.098 Y142.197 E19.66448
G1 X123.771 Y142.289 E19.76402
G1 X123.372 Y142.308 E19.79392
G1 X122.798 Y142.328 E19.8369
G1 X122.585 Y142.329 E19.85284
G1 X121.266 Y142.291 E19.95159
G1 X120.856 Y142.27 E19.98231
G1 X120.112 Y142.223 E20.0381
G1 X119.525 Y142.154 E20.08233
G1 X119.177 Y142.106 E20.10862
G1 X118.339 Y141.982 E20.17201
G1 X117.83 Y141.901 E20.21058
G1 X117.603 Y141.857 E20.22789
G1 X116.301 Y141.557 E20.32788
G1 X115.895 Y141.455 E20.3592
G1 X115.351 Y141.311 E20.40132
G1 X115.142 Y141.248 E20.41765
G1 X113.959 Y140.852 E20.51101
G1 X113.484 Y140.682 E20.54877
G1 X113 Y140.502 E20.58741
G1 X112.793 Y140.417 E20.60416
G1 X111.63 Y139.894 E20.69958
G1 X111.156 Y139.67 E20.73882
G1 X110.542 Y139.362 E20.79022
G1 X109.386 Y138.7 E20.88991
G1 X109.028 Y138.484 E20.9212
G1 X108.537 Y138.181 E20.96438
G1 X108.355 Y138.06 E20.98074
G1 X107.321 Y137.326 E21.07563
G1 X106.908 Y137.018 E21.11419
G1 X106.506 Y136.711 E21.15204
G1 X106.342 Y136.577 E21.16789
G1 X105.373 Y135.735 E21.26396
G1 X105.035 Y135.428 E21.29813
G1 X104.481 Y134.91 E21.35488
G1 X104.198 Y134.622 E21.3851
G1 X103.272 Y133.606 E21.48798
G1 X102.933 Y133.221 E21.52636
G1 X102.799 Y133.058 E21.54215
G1 X102.003 Y132.031 E21.63939
G1 X101.672 Y131.584 E21.68102
G1 X101.297 Y131.051 E21.72979
G1 X100.605 Y129.949 E21.82717
G1 X100.364 Y129.547 E21.86224
G1 X100.081 Y129.058 E21.90452
G1 X99.982 Y128.873 E21.92023
G1 X99.416 Y127.738 E22.01514
G1 X99.205 Y127.291 E22.05213
G1 X98.988 Y126.814 E22.09135
G1 X98.906 Y126.618 E22.10725
G1 X98.456 Y125.435 E22.20197
G1 X98.279 Y124.941 E22.24124
G1 X98.058 Y124.271 E22.29403
G1 X97.72 Y123.028 E22.39043
G1 X97.606 Y122.571 E22.42568
G1 X97.484 Y122.056 E22.46529
G1 X97.44 Y121.839 E22.48186
G1 X97.219 Y120.529 E22.58127
G1 X97.162 Y120.144 E22.6104
G1 X97.085 Y119.577 E22.65322
G1 X97.062 Y119.357 E22.66977
G1 X96.974 Y118.104 E22.76377
G1 X96.951 Y117.624 E22.79974
G1 X96.931 Y117.06 E22.84197
G1 X96.93 Y116.845 E22.85806
G1 X96.968 Y115.525 E22.95688
G1 X96.989 Y115.115 E22.98761
G1 X97.036 Y114.369 E23.04354
G1 X97.105 Y113.782 E23.08777
G1 X97.153 Y113.436 E23.11392
G1 X97.278 Y112.594 E23.17762
G1 X97.361 Y112.076 E23.21688
G1 X97.404 Y111.852 E23.23395
G1 X97.701 Y110.564 E23.33286
G1 X97.807 Y110.141 E23.3655
G1 X97.948 Y109.613 E23.4064
G1 X98.008 Y109.412 E23.42209
G1 X98.427 Y108.161 E23.52082
G1 X98.581 Y107.732 E23.55493
G1 X98.757 Y107.26 E23.59263
G1 X98.84 Y107.057 E23.60904
G1 X99.371 Y105.875 E23.70602
G1 X99.589 Y105.415 E23.74411
G1 X99.894 Y104.808 E23.79495
G1 X100.56 Y103.645 E23.89524
G1 X100.798 Y103.247 E23.92994
G1 X101.071 Y102.804 E23.96889
G1 X101.195 Y102.617 E23.98568
G1 X101.927 Y101.59 E24.08006
G1 X102.252 Y101.151 E24.12093
G1 X102.681 Y100.602 E24.17307
G1 X103.528 Y99.627 E24.26973
G1 X103.85 Y99.273 E24.30554
G1 X104.347 Y98.741 E24.36002
M204 S5000
M205 X30 Y30
G1 F2400 E21.36002
;MESH:lamp spacer 1.stl
G0 F1680 X107.39 Y101.649
G0 X107.653 Y101.925
M204 S1000
M205 X20 Y20
;TYPE:WALL-INNER
G1 F2400 E24.36002
G1 F900 X107.831 Y101.766 E24.37788
G1 X109.18 Y100.541 E24.51425
G1 X110.842 Y99.309 E24.66907
G1 X112.609 Y98.25 E24.82323
G1 X113.048 Y98.042 E24.85958
G1 X113.048 Y117.323 E26.30248
G1 X113.098 Y117.733 E26.33339
G1 X113.222 Y118.567 E26.39649
G1 X113.238 Y118.645 E26.40245
G1 X113.449 Y119.49 E26.46763
G1 X113.772 Y120.392 E26.53933
G1 X114.157 Y121.206 E26.60671
G1 X114.647 Y122.022 E26.67794
G1 X115.182 Y122.744 E26.74519
G1 X115.788 Y123.414 E26.8128
G1 X115.845 Y123.471 E26.81883
G1 X116.515 Y124.077 E26.88644
G1 X117.237 Y124.612 E26.95368
G1 X118.053 Y125.102 E27.02491
G1 X118.87 Y125.489 E27.09257
G1 X119.706 Y125.788 E27.15901
G1 X119.78 Y125.812 E27.16483
G1 X120.614 Y126.021 E27.22917
G1 X120.692 Y126.037 E27.23513
G1 X121.531 Y126.162 E27.29861
G1 X121.609 Y126.17 E27.30448
G1 X122.461 Y126.211 E27.36831
G1 X122.539 Y126.211 E27.37415
G1 X123.391 Y126.17 E27.43799
G1 X123.469 Y126.162 E27.44385
