; HEADER_BLOCK_START
; generated by OrcaSlicer 2.0.0-rc on 2024-03-25 at 13:11:38
; total layer number: 25
; filament_density: 1.24
; filament_diameter: 1.75
; max_z_height: 5.00
; HEADER_BLOCK_END

; THUMBNAIL_BLOCK_START

;
; THUMBNAIL_BLOCK_END

; external perimeters extrusion width = 0.40mm
; perimeters extrusion width = 0.45mm
; infill extrusion width = 0.45mm
; solid infill extrusion width = 0.40mm
; top infill extrusion width = 0.40mm
; first layer extrusion width = 0.50mm

; EXECUTABLE_BLOCK_START
M73 P0 R51
;TYPE:Custom
M190 S60
M109 S220
PRINT_START EXTRUDER=220 BED=60
G90
G21
M83 ; use relative distances for extrusion
; filament start gcode
M106 S0
;LAYER_CHANGE
;Z:0.2
;HEIGHT:0.2
;BEFORE_LAYER_CHANGE
;0.2
G92 E0

G1 E-.8 F1800
;AFTER_LAYER_CHANGE
;0.2
;_SET_FAN_SPEED_CHANGING_LAYER
SET_VELOCITY_LIMIT ACCEL=500 ACCEL_TO_DECEL=250
G1 Z.4 F24000
G1 X22.891 Y43.102
G1 Z.4
G1 Z.2
G1 E.8 F1800
;TYPE:Skirt
;WIDTH:0.5
G1 F2400
G1 X25.069 Y42.236 E.08728
G1 X26.5 Y42.086 E.05361
G1 X208.5 Y42.086 E6.77881
G1 X210.809 Y42.483 E.08728
G1 X212.854 Y43.629 E.08728
G1 X214.398 Y45.391 E.08728
G1 X215.264 Y47.569 E.08728
G1 X215.414 Y49 E.05361
G1 X215.414 Y181 E4.9165
G1 X215.017 Y183.309 E.08728
G1 X213.871 Y185.354 E.08728
G1 X212.109 Y186.898 E.08728
G1 X209.931 Y187.764 E.08728
G1 X208.5 Y187.914 E.05361
G1 X26.5 Y187.914 E6.77881
G1 X24.191 Y187.517 E.08728
G1 X22.146 Y186.371 E.08728
G1 X20.602 Y184.609 E.08728
G1 X19.736 Y182.431 E.08728
G1 X19.586 Y181 E.05361
G1 X19.586 Y49 E4.9165
G1 X19.983 Y46.691 E.08728
G1 X21.129 Y44.646 E.08728
G1 X22.861 Y43.129 E.08579
G1 X23.172 Y43.505 F24000
G1 F2400
G1 X23.328 Y43.376 E.00757
G1 X26.5 Y42.543 E.12214
G1 X208.5 Y42.543 E6.77881
G1 X210.729 Y42.94 E.08433
G1 X212.684 Y44.082 E.08433
G1 X214.124 Y45.828 E.08433
G1 X214.957 Y49 E.12214
G1 X214.957 Y181 E4.9165
G1 X214.56 Y183.229 E.08433
G1 X213.418 Y185.184 E.08433
G1 X211.672 Y186.624 E.08433
G1 X208.5 Y187.457 E.12214
G1 X26.5 Y187.457 E6.77881
G1 X24.271 Y187.06 E.08433
G1 X22.316 Y185.918 E.08433
G1 X20.876 Y184.172 E.08433
G1 X20.043 Y181 E.12214
G1 X20.043 Y49 E4.9165
M73 P1 R51
G1 X20.44 Y46.771 E.08433
G1 X21.582 Y44.816 E.08433
G1 X23.141 Y43.53 E.07527
G1 E-.56 F1800
;WIPE_START
G1 F2400
G1 X23.328 Y43.376 E-.05835
G1 X24.06 Y43.183 E-.18165
;WIPE_END
G1 Z.6 F24000
G1 X207.336 Y50.164 Z.6
G1 Z.2
G1 E.8 F1800
;TYPE:Inner wall
;WIDTH:0.499999
G1 F2400
G1 X207.336 Y179.836 E4.82977
G1 X27.664 Y179.836 E6.69208
G1 X27.664 Y50.164 E4.82977
G1 X207.296 Y50.164 E6.69059
G1 X207.793 Y49.707 F24000
G1 F2400
G1 X207.793 Y180.293 E4.86382
M73 P1 R50
G1 X27.207 Y180.293 E6.72613
G1 X27.207 Y49.707 E4.86382
M73 P2 R50
G1 X207.753 Y49.707 E6.72464
G1 X208.25 Y49.25 F24000
;TYPE:Outer wall
G1 F2400
G1 X208.25 Y180.75 E4.89787
G1 X26.75 Y180.75 E6.76018
G1 X26.75 Y49.25 E4.89787
G1 X208.21 Y49.25 E6.75869
G1 E-.56 F1800
;WIPE_START
G1 F2400
G1 X208.21 Y50.25 E-.24
;WIPE_END
G1 Z.6 F24000
G1 X202.972 Y117.458 Z.6
G1 Z.2
G1 E.8 F1800
;TYPE:Inner wall
G1 F2400
G1 X202.666 Y117.687 E.01424
G1 X202.174 Y117.935 E.02053
G1 X201.647 Y118.095 E.02053
G1 X201.1 Y118.16 E.02052
G1 X200.549 Y118.129 E.02053
G1 X200.013 Y118.003 E.02053
G1 X199.506 Y117.786 E.02053
G1 X199.045 Y117.485 E.02053
G1 X198.648 Y117.112 E.02026
G1 X198.316 Y116.669 E.02064
G1 X198.065 Y116.174 E.02067
G1 X197.905 Y115.647 E.02052
G1 X197.843 Y115.131 E.01937
G1 X197.871 Y114.549 E.02167
G1 X197.997 Y114.013 E.02053
G1 X198.214 Y113.506 E.02052
G1 X198.515 Y113.045 E.02052
G1 X198.893 Y112.643 E.02053
G1 X199.334 Y112.313 E.02052
G1 X199.826 Y112.065 E.02053
G1 X200.353 Y111.905 E.02053
G1 X200.893 Y111.841 E.02026
G1 X201.447 Y111.87 E.02064
G1 X201.987 Y111.997 E.02067
G1 X202.494 Y112.214 E.02053
G1 X202.955 Y112.515 E.02053
G1 X203.357 Y112.893 E.02052
G1 X203.687 Y113.334 E.02053
G1 X203.935 Y113.826 E.02052
G1 X204.095 Y114.353 E.02052
G1 X204.16 Y114.9 E.02053
G1 X204.129 Y115.451 E.02053
G1 X204.003 Y115.987 E.02053
G1 X203.786 Y116.494 E.02052
G1 X203.485 Y116.955 E.02052
G1 X203.107 Y117.357 E.02053
G1 X203.004 Y117.434 E.0048
G1 X202.747 Y117.058 F24000
G1 F2400
G1 X202.693 Y117.11 E.00282
G1 X202.301 Y117.372 E.01756
G1 X201.869 Y117.562 E.01756
G1 X201.411 Y117.674 E.01756
G1 X200.94 Y117.705 E.01756
G1 X200.472 Y117.653 E.01756
G1 X200.019 Y117.521 E.01756
G1 X199.596 Y117.312 E.01756
G1 X199.216 Y117.033 E.01756
G1 X198.896 Y116.7 E.01722
G1 X198.628 Y116.301 E.0179
G1 X198.438 Y115.869 E.01756
G1 X198.326 Y115.411 E.01756
G1 X198.298 Y115.091 E.01197
G1 X198.326 Y114.589 E.01871
G1 X198.447 Y114.101 E.01872
G1 X198.658 Y113.642 E.01883
G1 X198.954 Y113.229 E.01893
G1 X199.307 Y112.89 E.01823
G1 X199.699 Y112.628 E.01756
G1 X200.131 Y112.438 E.01756
G1 X200.589 Y112.326 E.01756
G1 X201.05 Y112.296 E.01722
G1 X201.528 Y112.347 E.0179
G1 X201.981 Y112.479 E.01757
G1 X202.404 Y112.688 E.01756
G1 X202.784 Y112.967 E.01756
G1 X203.11 Y113.307 E.01756
G1 X203.372 Y113.699 E.01756
G1 X203.562 Y114.131 E.01756
G1 X203.674 Y114.589 E.01756
G1 X203.705 Y115.06 E.01756
G1 X203.653 Y115.529 E.01756
G1 X203.521 Y115.981 E.01756
G1 X203.312 Y116.404 E.01756
G1 X203.033 Y116.784 E.01756
G1 X202.776 Y117.03 E.01326
G1 X202.435 Y116.731 F24000
;TYPE:Outer wall
G1 F2400
G1 X202.431 Y116.736 E.00025
G1 X202.107 Y116.958 E.0146
G1 X201.751 Y117.12 E.0146
G1 X201.371 Y117.218 E.0146
G1 X200.98 Y117.249 E.0146
G1 X200.59 Y117.212 E.0146
G1 X200.212 Y117.107 E.0146
G1 X199.858 Y116.938 E.0146
G1 X199.539 Y116.71 E.0146
G1 X199.27 Y116.436 E.01431
G1 X199.042 Y116.107 E.01489
G1 X198.88 Y115.751 E.0146
G1 X198.781 Y115.371 E.0146
G1 X198.753 Y115.051 E.01197
G1 X198.788 Y114.59 E.01722
G1 X198.893 Y114.212 E.0146
G1 X199.062 Y113.858 E.0146
G1 X199.29 Y113.539 E.0146
G1 X199.569 Y113.264 E.0146
G1 X199.893 Y113.042 E.0146
G1 X200.249 Y112.88 E.0146
G1 X200.629 Y112.782 E.0146
G1 X201.012 Y112.751 E.01431
G1 X201.41 Y112.788 E.01489
G1 X201.788 Y112.893 E.01461
G1 X202.142 Y113.062 E.0146
G1 X202.461 Y113.29 E.0146
G1 X202.736 Y113.569 E.0146
G1 X202.958 Y113.893 E.0146
G1 X203.12 Y114.249 E.0146
G1 X203.219 Y114.629 E.0146
G1 X203.249 Y115.02 E.0146
G1 X203.212 Y115.41 E.0146
G1 X203.107 Y115.788 E.0146
G1 X202.938 Y116.142 E.0146
G1 X202.71 Y116.461 E.0146
G1 X202.464 Y116.703 E.01286
G1 E-.56 F1800
;WIPE_START
G1 F2400
G1 X202.431 Y116.736 E-.01122
G1 X202.107 Y116.958 E-.0941
G1 X201.751 Y117.12 E-.0941
G1 X201.587 Y117.163 E-.04058
;WIPE_END
G1 Z.6 F24000
G1 X117.431 Y176.651 Z.6
G1 Z.2
G1 E.8 F1800
;TYPE:Inner wall
G1 F2400
G1 X117.049 Y176.629 E.01425
G1 X116.513 Y176.503 E.02053
G1 X116.006 Y176.286 E.02053
G1 X115.545 Y175.985 E.02053
G1 X115.143 Y175.607 E.02053
G1 X114.813 Y175.166 E.02053
G1 X114.565 Y174.674 E.02053
G1 X114.405 Y174.147 E.02052
G1 X114.34 Y173.6 E.02053
G1 X114.371 Y173.049 E.02052
G1 X114.497 Y172.513 E.02053
G1 X114.714 Y172.006 E.02053
G1 X115.015 Y171.545 E.02053
G1 X115.393 Y171.143 E.02053
G1 X115.834 Y170.813 E.02053
G1 X116.326 Y170.565 E.02053
G1 X116.853 Y170.405 E.02052
G1 X117.393 Y170.341 E.02027
G1 X117.947 Y170.37 E.02064
G1 X118.487 Y170.497 E.02067
G1 X118.966 Y170.701 E.01937
G1 X119.455 Y171.015 E.02167
G1 X119.857 Y171.393 E.02053
G1 X120.187 Y171.834 E.02053
G1 X120.432 Y172.319 E.02026
G1 X120.594 Y172.849 E.02064
G1 X120.66 Y173.4 E.02067
G1 X120.629 Y173.951 E.02052
G1 X120.503 Y174.487 E.02053
G1 X120.286 Y174.994 E.02053
G1 X119.985 Y175.455 E.02053
G1 X119.607 Y175.857 E.02053
G1 X119.166 Y176.187 E.02053
G1 X118.681 Y176.432 E.02026
G1 X118.151 Y176.594 E.02064
G1 X117.6 Y176.66 E.02067
G1 X117.471 Y176.653 E.00479
G1 X117.516 Y176.2 F24000
G1 F2400
G1 X117.44 Y176.205 E.00283
G1 X116.971 Y176.153 E.01756
G1 X116.519 Y176.021 E.01756
G1 X116.096 Y175.812 E.01756
G1 X115.716 Y175.533 E.01756
G1 X115.39 Y175.193 E.01756
G1 X115.128 Y174.801 E.01756
G1 X114.938 Y174.369 E.01756
G1 X114.826 Y173.911 E.01756
G1 X114.795 Y173.56 E.01312
G1 X114.835 Y173.027 E.0199
G1 X114.979 Y172.519 E.01967
G1 X115.188 Y172.096 E.01756
G1 X115.467 Y171.716 E.01756
G1 X115.807 Y171.39 E.01756
G1 X116.199 Y171.128 E.01756
G1 X116.631 Y170.938 E.01756
G1 X117.089 Y170.826 E.01756
G1 X117.55 Y170.796 E.01722
G1 X118.028 Y170.847 E.01791
G1 X118.481 Y170.979 E.01756
G1 X118.904 Y171.188 E.01756
G1 X119.284 Y171.467 E.01756
G1 X119.61 Y171.807 E.01756
G1 X119.872 Y172.199 E.01756
G1 X120.058 Y172.623 E.01722
G1 X120.174 Y173.089 E.01791
G1 X120.205 Y173.56 E.01756
G1 X120.153 Y174.029 E.01756
G1 X120.021 Y174.481 E.01756
G1 X119.812 Y174.904 E.01756
G1 X119.533 Y175.284 E.01756
G1 X119.193 Y175.61 E.01756
G1 X118.801 Y175.872 E.01756
G1 X118.377 Y176.058 E.01722
G1 X117.911 Y176.174 E.0179
G1 X117.556 Y176.197 E.01325
G1 X117.487 Y175.749 F24000
;TYPE:Outer wall
G1 F2400
G1 X117.48 Y175.749 E.00026
G1 X117.09 Y175.712 E.0146
G1 X116.712 Y175.607 E.0146
G1 X116.358 Y175.438 E.0146
G1 X116.039 Y175.21 E.0146
G1 X115.764 Y174.931 E.0146
G1 X115.542 Y174.607 E.0146
G1 X115.38 Y174.251 E.0146
G1 X115.281 Y173.871 E.0146
G1 X115.251 Y173.52 E.01312
G1 X115.288 Y173.09 E.01608
G1 X115.393 Y172.712 E.0146
G1 X115.562 Y172.358 E.0146
G1 X115.79 Y172.039 E.0146
G1 X116.069 Y171.764 E.0146
G1 X116.393 Y171.542 E.0146
G1 X116.749 Y171.38 E.0146
G1 X117.129 Y171.281 E.0146
G1 X117.512 Y171.251 E.01431
G1 X117.91 Y171.288 E.01489
G1 X118.288 Y171.393 E.0146
G1 X118.642 Y171.562 E.0146
G1 X118.961 Y171.79 E.0146
G1 X119.236 Y172.069 E.0146
G1 X119.458 Y172.393 E.0146
G1 X119.617 Y172.742 E.01431
G1 X119.719 Y173.129 E.01489
G1 X119.749 Y173.52 E.0146
G1 X119.712 Y173.91 E.0146
G1 X119.607 Y174.288 E.0146
G1 X119.438 Y174.642 E.0146
G1 X119.21 Y174.961 E.0146
G1 X118.931 Y175.236 E.0146
G1 X118.607 Y175.458 E.0146
G1 X118.258 Y175.617 E.01431
G1 X117.871 Y175.718 E.01489
G1 X117.527 Y175.746 E.01285
G1 E-.56 F1800
;WIPE_START
G1 F2400
G1 X117.48 Y175.749 E-.01128
G1 X117.09 Y175.712 E-.0941
G1 X116.712 Y175.607 E-.0941
G1 X116.56 Y175.534 E-.04052
;WIPE_END
G1 Z.6 F24000
G1 X120.026 Y175.888 Z.6
G1 Z.2
G1 E.8 F1800
;TYPE:Sparse infill
;WIDTH:0.5
G1 F2400
G1 X120.243 Y175.64 E.01226
G1 X120.449 Y175.345 E.01342
G1 X120.573 Y175.132 E.00919
G1 X120.725 Y174.805 E.01342
G1 X120.831 Y174.491 E.01235
G1 X121.073 Y174.556 E.00933
G1 X123.456 Y172.174 E.12547
G1 X122.766 Y169.601 E.09921
G1 X125.148 Y167.219 E.12547
G1 X127.721 Y167.908 E.09921
G1 X130.103 Y165.526 E.12547
G1 X129.414 Y162.953 E.09921
G1 X131.796 Y160.571 E.12547
G1 X134.369 Y161.261 E.09921
G1 X136.751 Y158.879 E.12547
G1 X136.061 Y156.306 E.09921
G1 X138.443 Y153.924 E.12547
G1 X141.016 Y154.613 E.09921
G1 X143.398 Y152.231 E.12547
G1 X142.709 Y149.658 E.09921
G1 X145.091 Y147.276 E.12547
G1 X147.664 Y147.966 E.09921
G1 X150.046 Y145.584 E.12547
G1 X149.356 Y143.011 E.09921
G1 X151.738 Y140.629 E.12547
G1 X154.311 Y141.318 E.09921
G1 X156.693 Y138.936 E.12547
G1 X156.004 Y136.363 E.09921
G1 X158.386 Y133.981 E.12547
G1 X160.959 Y134.67 E.09921
G1 X163.341 Y132.288 E.12547
G1 X162.652 Y129.716 E.09921
G1 X165.034 Y127.334 E.12547
G1 X167.606 Y128.023 E.09921
G1 X169.988 Y125.641 E.12547
G1 X169.299 Y123.068 E.09921
G1 X171.681 Y120.686 E.12547
G1 X174.254 Y121.375 E.09921
G1 X176.636 Y118.993 E.12547
G1 X175.947 Y116.42 E.09921
G1 X178.329 Y114.038 E.12547
G1 X180.902 Y114.728 E.09921
M73 P3 R50
G1 X183.284 Y112.346 E.12547
G1 X182.594 Y109.773 E.09921
G1 X184.976 Y107.391 E.12547
G1 X187.549 Y108.08 E.09921
G1 X189.931 Y105.698 E.12547
G1 X189.242 Y103.125 E.09921
G1 X191.624 Y100.743 E.12547
G1 X194.197 Y101.433 E.09921
G1 X196.579 Y99.051 E.12547
G1 X195.889 Y96.478 E.09921
G1 X198.271 Y94.096 E.12547
G1 X200.844 Y94.785 E.09921
G1 X203.226 Y92.403 E.12547
G1 X202.537 Y89.83 E.09921
G1 X204.919 Y87.448 E.12547
G1 X207.018 Y88.011 E.08094
G1 X207.018 Y92.449 E.16533
G1 X206.087 Y93.38 E.04904
G1 X203.514 Y92.691 E.09921
G1 X201.132 Y95.073 E.12547
G1 X201.822 Y97.646 E.09921
G1 X199.44 Y100.028 E.12547
G1 X196.867 Y99.338 E.09921
G1 X194.485 Y101.72 E.12547
G1 X195.174 Y104.293 E.09921
G1 X192.792 Y106.675 E.12547
G1 X190.219 Y105.986 E.09921
G1 X187.837 Y108.368 E.12547
G1 X188.526 Y110.941 E.09921
G1 X186.144 Y113.323 E.12547
G1 X183.571 Y112.634 E.09921
G1 X181.189 Y115.016 E.12547
G1 X181.879 Y117.589 E.09921
G1 X179.497 Y119.971 E.12547
G1 X176.924 Y119.281 E.09921
G1 X174.542 Y121.663 E.12547
G1 X175.231 Y124.236 E.09921
G1 X172.849 Y126.618 E.12547
G1 X170.276 Y125.929 E.09921
G1 X167.894 Y128.311 E.12547
G1 X168.584 Y130.884 E.09921
G1 X166.202 Y133.266 E.12547
G1 X163.629 Y132.576 E.09921
G1 X161.247 Y134.958 E.12547
G1 X161.936 Y137.531 E.09921
G1 X159.554 Y139.913 E.12547
G1 X156.981 Y139.224 E.09921
G1 X154.599 Y141.606 E.12547
G1 X155.289 Y144.179 E.09921
G1 X152.907 Y146.561 E.12547
G1 X150.334 Y145.871 E.09921
G1 X147.952 Y148.253 E.12547
G1 X148.641 Y150.826 E.09921
G1 X146.259 Y153.208 E.12547
G1 X143.686 Y152.519 E.09921
G1 X141.304 Y154.901 E.12547
G1 X141.993 Y157.474 E.09921
G1 X139.611 Y159.856 E.12547
G1 X137.038 Y159.167 E.09921
G1 X134.656 Y161.549 E.12547
G1 X135.346 Y164.122 E.09921
G1 X132.964 Y166.504 E.12547
G1 X130.391 Y165.814 E.09921
G1 X128.009 Y168.196 E.12547
G1 X128.698 Y170.769 E.09921
G1 X126.316 Y173.151 E.12547
G1 X123.743 Y172.462 E.09921
G1 X121.361 Y174.844 E.12547
G1 X122.051 Y177.417 E.09921
G1 X119.949 Y179.518 E.11069
G1 X120.525 Y179.518 E.02144
G1 X122.339 Y177.704 E.09553
G1 X124.911 Y178.394 E.09921
G1 X127.293 Y176.012 E.12547
G1 X126.604 Y173.439 E.09921
G1 X128.986 Y171.057 E.12547
G1 X131.559 Y171.746 E.09921
G1 X133.941 Y169.364 E.12547
G1 X133.252 Y166.791 E.09921
G1 X135.634 Y164.409 E.12547
G1 X138.207 Y165.099 E.09921
G1 X140.589 Y162.717 E.12547
G1 X139.899 Y160.144 E.09921
G1 X142.281 Y157.762 E.12547
G1 X144.854 Y158.451 E.09921
G1 X147.236 Y156.069 E.12547
G1 X146.547 Y153.496 E.09921
G1 X148.929 Y151.114 E.12547
G1 X151.502 Y151.804 E.09921
G1 X153.884 Y149.422 E.12547
G1 X153.194 Y146.849 E.09921
G1 X155.576 Y144.467 E.12547
G1 X158.149 Y145.156 E.09921
G1 X160.531 Y142.774 E.12547
G1 X159.842 Y140.201 E.09921
G1 X162.224 Y137.819 E.12547
G1 X164.797 Y138.508 E.09921
G1 X167.179 Y136.126 E.12547
G1 X166.489 Y133.554 E.09921
G1 X168.872 Y131.172 E.12547
G1 X171.444 Y131.861 E.09921
G1 X173.826 Y129.479 E.12547
G1 X173.137 Y126.906 E.09921
G1 X175.519 Y124.524 E.12547
G1 X178.092 Y125.213 E.09921
G1 X180.474 Y122.831 E.12547
G1 X179.785 Y120.258 E.09921
G1 X182.167 Y117.876 E.12547
G1 X184.74 Y118.566 E.09921
G1 X187.122 Y116.184 E.12547
G1 X186.432 Y113.611 E.09921
G1 X188.814 Y111.229 E.12547
G1 X191.387 Y111.918 E.09921
G1 X193.769 Y109.536 E.12547
G1 X193.08 Y106.963 E.09921
G1 X195.462 Y104.581 E.12547
G1 X198.035 Y105.271 E.09921
G1 X200.417 Y102.889 E.12547
G1 X199.727 Y100.316 E.09921
G1 X202.109 Y97.934 E.12547
G1 X204.682 Y98.623 E.09921
G1 X207.018 Y96.287 E.12303
G1 X207.018 Y96.068 E.00816
G1 X206.375 Y93.668 E.09255
G1 X207.018 Y93.025 E.03388
G1 X207.018 Y94.653 E.06065
G1 E-.56 F1800
;WIPE_START
G1 F2400
G1 X207.018 Y93.653 E-.24
;WIPE_END
G1 Z.6 F24000
G1 X207.018 Y84.02 Z.6
G1 Z.2
G1 E.8 F1800
G1 F2400
G1 X207.018 Y82.391 E.06065
G1 X206.324 Y82.205 E.02677
G1 X203.942 Y84.587 E.12547
G1 X204.631 Y87.16 E.09921
G1 X202.249 Y89.542 E.12547
G1 X199.676 Y88.853 E.09921
G1 X197.294 Y91.235 E.12547
G1 X197.984 Y93.808 E.09921
G1 X195.602 Y96.19 E.12547
G1 X193.029 Y95.5 E.09921
G1 X190.647 Y97.883 E.12547
G1 X191.336 Y100.455 E.09921
G1 X188.954 Y102.837 E.12547
G1 X186.381 Y102.148 E.09921
G1 X183.999 Y104.53 E.12547
G1 X184.688 Y107.103 E.09921
G1 X182.306 Y109.485 E.12547
G1 X179.734 Y108.796 E.09921
G1 X177.351 Y111.178 E.12547
G1 X178.041 Y113.751 E.09921
G1 X175.659 Y116.133 E.12547
G1 X173.086 Y115.443 E.09921
G1 X170.704 Y117.825 E.12547
G1 X171.393 Y120.398 E.09921
G1 X169.011 Y122.78 E.12547
G1 X166.438 Y122.091 E.09921
G1 X164.056 Y124.473 E.12547
G1 X164.746 Y127.046 E.09921
G1 X162.364 Y129.428 E.12547
G1 X159.791 Y128.738 E.09921
G1 X157.409 Y131.12 E.12547
G1 X158.098 Y133.693 E.09921
G1 X155.716 Y136.075 E.12547
G1 X153.143 Y135.386 E.09921
G1 X150.761 Y137.768 E.12547
