; generated by PrusaSlicer 2.6.0-alpha4+win64 on 2023-04-27 at 01:52:37 UTC

; 

; external perimeters extrusion width = 0.50mm
; perimeters extrusion width = 0.50mm
; infill extrusion width = 0.50mm
; solid infill extrusion width = 0.50mm
; top infill extrusion width = 0.50mm
; first layer extrusion width = 0.50mm

M201 X500 Y500 Z100 E5000 ; sets maximum accelerations, mm/sec^2
M203 X500 Y500 Z10 E60 ; sets maximum feedrates, mm / sec
M204 P500 R1000 T500 ; sets acceleration (P, T) and retract acceleration (R), mm/sec^2
M205 X8.00 Y8.00 Z0.40 E5.00 ; sets the jerk limits, mm/sec
M205 S0 T0 ; sets the minimum extruding and travel feed rate, mm/sec
M107
;TYPE:Custom
G90 ; use absolute coordinates
M83 ; extruder relative mode
M104 S150 ; set temporary nozzle temp to prevent oozing during homing
M140 S75 ; set final bed temp
G4 S30 ; allow partial nozzle warmup
G28 ; home all axis
G1 Z50 F240
G1 X2.0 Y10 F3000
M104 S210 ; set final nozzle temp
M190 S75 ; wait for bed temp to stabilize
M109 S210 ; wait for nozzle temp to stabilize
G1 Z0.28 F240
G92 E0
G1 X2.0 Y140 E10 F1500 ; prime the nozzle
G1 X2.3 Y140 F5000
G92 E0
G1 X2.3 Y10 E10 F1200 ; prime the nozzle
G92 E0
G21 ; set units to millimeters
G90 ; use absolute coordinates
M83 ; use relative distances for extrusion
; Filament gcode
M107
;LAYER_CHANGE
;Z:0.2
;HEIGHT:0.2
;BEFORE_LAYER_CHANGE
G92 E0
;0.2


G1 E-5 F3600
G1 Z.2 F9000
;AFTER_LAYER_CHANGE

G1 X5 Y215
G1 F1000 X0
G4 P700
G1 F9000 X5

;0.2
G1 Z.6
G1 X72.827 Y59.616
G1 Z.2
G1 E5 F2400
M204 S500
;TYPE:Skirt/Brim
;WIDTH:0.5
G1 F1200
G1 X73.593 Y58.742 E.04417
G1 X74.403 Y57.998 E.0418
G1 X75.494 Y57.212 E.05111
G1 X76.522 Y56.646 E.0446
G1 X77.785 Y56.14 E.05171
G1 X79.089 Y55.807 E.05115
G1 X80.175 Y55.662 E.04164
G1 X139.095 Y55.63 E2.23933
G1 X140.247 Y55.705 E.04388
G1 X141.149 Y55.855 E.03475
G1 X142.871 Y56.379 E.06841
G1 X144.652 Y57.305 E.07629
G1 X146.076 Y58.419 E.06871
G1 X147.285 Y59.763 E.06871
G1 X147.93 Y60.726 E.04405
G1 X148.354 Y61.522 E.03428
G1 X148.992 Y63.224 E.06908
G1 X149.339 Y65.191 E.07591
G1 X149.37 Y154.095 E3.37891
G1 X149.269 Y155.448 E.05157
G1 X148.992 Y156.776 E.05156
G1 X148.544 Y158.056 E.05154
G1 X147.933 Y159.268 E.05159
G1 X147.169 Y160.389 E.05156
G1 X146.4 Y161.265 E.0443
G1 X145.389 Y162.169 E.05154
G1 X144.268 Y162.933 E.05156
G1 X143.296 Y163.439 E.04165
G1 X142.027 Y163.919 E.05156
G1 X140.707 Y164.229 E.05153
G1 X139.548 Y164.356 E.04431
G1 X80.643 Y164.364 E2.23876
G1 X79.293 Y164.229 E.05156
G1 X78.224 Y163.992 E.04162
G1 X76.949 Y163.546 E.05134
G1 X75.732 Y162.933 E.05179
G1 X74.611 Y162.169 E.05156
G1 X73.735 Y161.4 E.0443
G1 X72.838 Y160.398 E.05111
G1 X72.069 Y159.27 E.05189
G1 X71.457 Y158.06 E.05154
G1 X71.009 Y156.778 E.05161
G1 X70.733 Y155.46 E.05118
G1 X70.636 Y154.363 E.04186
G1 X70.63 Y65.905 E3.36196
G1 X70.729 Y64.568 E.05095
G1 X71.004 Y63.24 E.05154
G1 X71.453 Y61.949 E.05195
G1 X72.067 Y60.732 E.05181
G1 X72.785 Y59.678 E.04847
G1 X73.162 Y59.934 F9000
G1 F1200
G1 X73.923 Y59.058 E.0441
G1 X74.689 Y58.355 E.03951
G1 X75.732 Y57.602 E.04889
G1 X76.724 Y57.056 E.04304
G1 X77.933 Y56.573 E.04948
G1 X79.179 Y56.255 E.04887
G1 X80.205 Y56.119 E.03934
G1 X139.085 Y56.087 E2.23781
G1 X141.06 Y56.303 E.07551
G1 X142.706 Y56.805 E.0654
G1 X144.398 Y57.685 E.07248
G1 X145.76 Y58.749 E.06569
G1 X146.917 Y60.033 E.06569
G1 X147.944 Y61.724 E.07519
G1 X148.553 Y63.352 E.06606
G1 X148.883 Y65.221 E.07213
G1 X148.913 Y154.085 E3.37739
G1 X148.817 Y155.379 E.04932
G1 X148.553 Y156.648 E.04926
G1 X148.126 Y157.872 E.04927
G1 X147.542 Y159.031 E.04933
G1 X146.813 Y160.102 E.04924
G1 X145.949 Y161.07 E.04931
G1 X145.103 Y161.813 E.04279
G1 X144.031 Y162.542 E.04927
G1 X143.112 Y163.021 E.03939
G1 X141.9 Y163.48 E.04926
G1 X140.637 Y163.777 E.04931
G1 X139.518 Y163.9 E.04279
G1 X80.915 Y163.913 E2.22728
G1 X79.621 Y163.817 E.04932
G1 X78.352 Y163.553 E.04926
G1 X77.133 Y163.128 E.04906
G1 X75.969 Y162.542 E.04953
G1 X74.897 Y161.813 E.04927
G1 X74.051 Y161.07 E.04279
G1 X73.195 Y160.112 E.04883
G1 X72.459 Y159.033 E.04964
G1 X71.875 Y157.875 E.04929
G1 X71.447 Y156.65 E.04932
G1 X71.185 Y155.39 E.04891
G1 X71.093 Y154.353 E.03957
G1 X71.087 Y65.915 E3.3612
G1 X71.181 Y64.637 E.0487
G1 X71.443 Y63.367 E.04928
G1 X71.872 Y62.133 E.04965
G1 X72.458 Y60.969 E.04953
G1 X73.12 Y59.996 E.04473
G1 X73.497 Y60.252 F9000
G1 F1200
G1 X74.254 Y59.373 E.04409
G1 X74.975 Y58.711 E.0372
G1 X75.97 Y57.993 E.04663
G1 X76.926 Y57.466 E.04149
G1 X78.08 Y57.006 E.04722
G1 X79.268 Y56.704 E.04659
G1 X80.236 Y56.575 E.03712
G1 X139.075 Y56.544 E2.23625
G1 X140.971 Y56.751 E.07249
G1 X142.54 Y57.231 E.06236
G1 X144.144 Y58.065 E.06871
G1 X145.444 Y59.079 E.06266
G1 X146.548 Y60.303 E.06265
G1 X147.534 Y61.926 E.07218
G1 X148.115 Y63.48 E.06305
G1 X148.427 Y65.251 E.06835
G1 X148.456 Y154.075 E3.37587
G1 X148.366 Y155.309 E.04702
G1 X148.115 Y156.52 E.047
G1 X147.708 Y157.688 E.04701
G1 X147.152 Y158.793 E.04701
G1 X146.456 Y159.816 E.04703
G1 X145.74 Y160.633 E.04129
G1 X144.816 Y161.456 E.04703
G1 X143.793 Y162.152 E.04703
G1 X142.928 Y162.602 E.03706
G1 X141.772 Y163.041 E.047
G1 X140.716 Y163.299 E.04132
G1 X139.488 Y163.444 E.047
G1 X80.925 Y163.456 E2.22576
G1 X79.691 Y163.366 E.04702
G1 X78.48 Y163.115 E.047
G1 X77.316 Y162.71 E.04684
G1 X76.207 Y162.152 E.04718
G1 X75.184 Y161.456 E.04703
G1 X74.367 Y160.74 E.04129
G1 X73.551 Y159.826 E.04657
G1 X72.85 Y158.796 E.04735
G1 X72.294 Y157.691 E.04701
G1 X71.886 Y156.522 E.04706
G1 X71.636 Y155.321 E.04662
G1 X71.55 Y154.342 E.03735
G1 X71.544 Y65.925 E3.36041
G1 X71.633 Y64.706 E.04645
G1 X71.882 Y63.495 E.04699
G1 X72.29 Y62.316 E.04742
G1 X72.848 Y61.207 E.04718
G1 X73.455 Y60.314 E.04104
; printing object Bottom.stl id:0 copy 0
G1 E-3.5 F3600
;WIPE_START
G1 F7200
G1 X74.254 Y59.373 E-.58637
G1 X74.975 Y58.711 E-.46494
G1 X75.741 Y58.158 E-.44869
;WIPE_END
G1 Z.6 F9000
G1 X76.856 Y157.112
G1 Z.2
G1 E5 F2400
;TYPE:Perimeter
;WIDTH:0.499999
G1 F1200
G1 X76.747 Y156.978 E.00656
G1 X76.505 Y156.579 E.01774
G1 X76.206 Y155.994 E.02497
G1 X75.986 Y155.344 E.02608
G1 X75.853 Y154.678 E.02581
G1 X75.807 Y153.976 E.02674
G1 X75.807 Y66.2 E3.33604
G1 X75.831 Y65.661 E.02051
G1 X75.919 Y64.989 E.02576
G1 X76.062 Y64.412 E.02259
G1 X76.291 Y63.814 E.02434
G1 X76.622 Y63.211 E.02614
G1 X77.023 Y62.663 E.02581
G1 X77.346 Y62.326 E.01774
G1 X77.833 Y61.886 E.02494
G1 X78.404 Y61.504 E.02611
G1 X79.013 Y61.204 E.0258
G1 X79.455 Y61.054 E.01774
G1 X80.091 Y60.888 E.02498
G1 X80.781 Y60.813 E.02638
G1 X139.225 Y60.813 E2.22124
G1 X139.907 Y60.893 E.0261
G1 X140.561 Y61.048 E.02554
G1 X141.166 Y61.287 E.02472
G1 X141.738 Y61.602 E.02482
G1 X142.18 Y61.902 E.0203
G1 X142.671 Y62.329 E.02473
G1 X143.119 Y62.847 E.02603
G1 X143.497 Y63.404 E.02558
G1 X143.781 Y63.989 E.02472
G1 X144.001 Y64.645 E.0263
G1 X144.148 Y65.322 E.02633
G1 X144.187 Y65.989 E.02539
G1 X144.193 Y153.799 E3.33733
G1 X144.169 Y154.339 E.02054
G1 X144.081 Y155.011 E.02576
G1 X143.939 Y155.587 E.02255
G1 X143.709 Y156.187 E.02442
G1 X143.378 Y156.789 E.02611
G1 X142.977 Y157.337 E.02581
G1 X142.507 Y157.827 E.02581
G1 X142.143 Y158.12 E.01776
G1 X141.603 Y158.492 E.02492
G1 X140.987 Y158.796 E.02611
G1 X140.545 Y158.946 E.01774
G1 X139.909 Y159.112 E.02498
G1 X139.219 Y159.187 E.02638
G1 X81.201 Y159.193 E2.20505
G1 X80.661 Y159.169 E.02054
G1 X79.989 Y159.081 E.02576
G1 X79.413 Y158.939 E.02255
G1 X78.813 Y158.709 E.02442
G1 X78.211 Y158.378 E.02611
G1 X77.663 Y157.977 E.02581
G1 X77.173 Y157.507 E.02581
G1 X76.903 Y157.171 E.01638
G1 X76.499 Y157.398 F9000
;TYPE:External perimeter
G1 F1200
G1 X76.372 Y157.24 E.0077
G1 X76.115 Y156.816 E.01884
G1 X75.781 Y156.165 E.02781
G1 X75.543 Y155.462 E.02821
G1 X75.399 Y154.737 E.02809
G1 X75.35 Y153.991 E.02841
G1 X75.35 Y66.009 E3.34387
G1 X75.399 Y65.263 E.02841
G1 X75.49 Y64.802 E.01786
G1 X75.626 Y64.275 E.02069
G1 X75.878 Y63.616 E.02681
G1 X76.235 Y62.965 E.02822
G1 X76.672 Y62.369 E.02809
G1 X77.016 Y62.01 E.0189
G1 X77.559 Y61.52 E.0278
G1 X78.175 Y61.107 E.02819
G1 X78.838 Y60.781 E.02808
G1 X79.308 Y60.621 E.01887
G1 X80.016 Y60.437 E.0278
G1 X80.756 Y60.356 E.02829
G1 X139.245 Y60.356 E2.22295
G1 X139.977 Y60.441 E.02801
G1 X140.472 Y60.551 E.01927
G1 X140.957 Y60.706 E.01935
G1 X141.606 Y60.987 E.02688
G1 X142.242 Y61.373 E.02828
G1 X142.793 Y61.82 E.02697
G1 X143.154 Y62.179 E.01935
G1 X143.478 Y62.564 E.01912
G1 X143.766 Y62.977 E.01914
G1 X144.02 Y63.419 E.01938
G1 X144.308 Y64.065 E.02688
G1 X144.516 Y64.779 E.02826
G1 X144.62 Y65.48 E.02693
G1 X144.644 Y65.989 E.01937
G1 X144.65 Y153.991 E3.34463
G1 X144.601 Y154.737 E.02841
G1 X144.51 Y155.198 E.01786
G1 X144.375 Y155.725 E.02068
G1 X144.121 Y156.385 E.02688
G1 X143.765 Y157.035 E.02817
G1 X143.328 Y157.631 E.02809
G1 X142.817 Y158.165 E.02809
G1 X142.429 Y158.476 E.0189
G1 X141.827 Y158.891 E.02779
G1 X141.162 Y159.219 E.02818
G1 X140.692 Y159.379 E.01887
G1 X139.984 Y159.563 E.0278
G1 X139.244 Y159.644 E.02829
G1 X81.009 Y159.65 E2.2133
G1 X80.263 Y159.601 E.02841
G1 X79.802 Y159.51 E.01786
G1 X79.275 Y159.375 E.02068
G1 X78.615 Y159.121 E.02688
G1 X77.965 Y158.765 E.02817
G1 X77.369 Y158.328 E.02809
G1 X76.835 Y157.817 E.02809
G1 X76.546 Y157.457 E.01755
G1 X76.568 Y157.208 F9000
G1 E-5 F3600
G1 Z.6 F9000
G1 X140.338 Y61.14
G1 Z.2
G1 E5 F2400
;TYPE:Solid infill
;WIDTH:0.500053
G1 F1200
G1 X143.548 Y64.35 E.17255
G1 X143.727 Y64.963 E.02427
G1 X143.772 Y65.221 E.00995
G1 X139.779 Y61.228 E.21465
G1 X139.632 Y61.201 E.00568
G1 X139.07 Y61.165 E.02141
G1 X143.835 Y65.93 E.25614
G1 X143.835 Y66.576 E.02455
G1 X138.424 Y61.165 E.29087
G1 X137.777 Y61.165 E.02459
G1 X143.835 Y67.223 E.32565
G1 X143.835 Y67.869 E.02455
G1 X137.131 Y61.165 E.36038
G1 X136.484 Y61.165 E.02459
G1 X143.836 Y68.516 E.39518
G1 X143.836 Y69.163 E.02459
G1 X135.838 Y61.165 E.42994
G1 X135.191 Y61.165 E.02459
G1 X143.836 Y69.809 E.46469
G1 X143.836 Y70.456 E.02459
G1 X134.545 Y61.165 E.49944
G1 X133.898 Y61.165 E.02459
G1 X143.836 Y71.102 E.53419
G1 X143.836 Y71.749 E.02459
G1 X133.252 Y61.165 E.56895
G1 X132.605 Y61.165 E.02459
G1 X143.836 Y72.395 E.6037
G1 X143.836 Y73.042 E.02459
G1 X131.959 Y61.165 E.63845
G1 X131.312 Y61.165 E.02459
G1 X143.836 Y73.688 E.6732
G1 X143.836 Y74.335 E.02459
G1 X130.666 Y61.165 E.70796
G1 X130.019 Y61.165 E.02459
G1 X143.836 Y74.981 E.74271
G1 X143.836 Y75.628 E.02459
G1 X129.373 Y61.165 E.77746
G1 X128.726 Y61.165 E.02459
G1 X143.836 Y76.274 E.81222
G1 X143.836 Y76.921 E.02459
G1 X128.08 Y61.165 E.84697
G1 X127.433 Y61.165 E.02459
G1 X143.836 Y77.567 E.88172
G1 X143.836 Y78.214 E.02459
G1 X126.787 Y61.165 E.91647
G1 X126.14 Y61.165 E.02459
G1 X143.836 Y78.86 E.95123
G1 X143.836 Y79.507 E.02459
G1 X125.494 Y61.165 E.98598
G1 X124.847 Y61.165 E.02459
G1 X143.836 Y80.153 E1.02073
G1 X143.836 Y80.8 E.02459
G1 X124.201 Y61.165 E1.05549
G1 X123.555 Y61.165 E.02455
G1 X143.836 Y81.446 E1.09021
G1 X143.836 Y82.093 E.02459
G1 X122.908 Y61.165 E1.12499
G1 X122.262 Y61.165 E.02455
G1 X143.836 Y82.74 E1.15974
G1 X143.836 Y83.386 E.02455
G1 X121.615 Y61.165 E1.1945
G1 X120.969 Y61.165 E.02455
G1 X143.837 Y84.033 E1.22928
G1 X143.837 Y84.679 E.02455
G1 X120.322 Y61.165 E1.26403
G1 X119.676 Y61.165 E.02455
G1 X143.837 Y85.326 E1.29878
G1 X143.837 Y85.972 E.02455
G1 X119.029 Y61.165 E1.33354
G1 X118.383 Y61.165 E.02455
G1 X143.837 Y86.619 E1.36829
G1 X143.837 Y87.265 E.02455
G1 X117.736 Y61.165 E1.40304
G1 X117.09 Y61.165 E.02455
G1 X143.837 Y87.912 E1.43779
G1 X143.837 Y88.558 E.02455
G1 X116.443 Y61.165 E1.47255
G1 X115.797 Y61.165 E.02455
G1 X143.837 Y89.205 E1.5073
G1 X143.837 Y89.851 E.02455
G1 X115.15 Y61.165 E1.54205
G1 X114.504 Y61.165 E.02455
G1 X143.837 Y90.498 E1.57681
G1 X143.837 Y91.144 E.02455
G1 X113.857 Y61.165 E1.61156
G1 X113.211 Y61.165 E.02455
G1 X143.837 Y91.791 E1.64631
G1 X143.837 Y92.437 E.02455
G1 X112.564 Y61.165 E1.68106
G1 X111.918 Y61.165 E.02455
G1 X143.837 Y93.084 E1.71582
G1 X143.837 Y93.73 E.02455
G1 X111.271 Y61.165 E1.75057
G1 X110.625 Y61.165 E.02455
G1 X143.837 Y94.377 E1.78532
G1 X143.837 Y95.024 E.02459
G1 X109.978 Y61.165 E1.8201
G1 X109.332 Y61.165 E.02455
G1 X143.837 Y95.67 E1.85483
G1 X143.837 Y96.317 E.02459
G1 X108.685 Y61.165 E1.88961
G1 X108.039 Y61.165 E.02455
G1 X143.837 Y96.963 E1.92433
G1 X143.837 Y97.61 E.02459
G1 X107.392 Y61.165 E1.95911
G1 X106.746 Y61.165 E.02455
G1 X143.837 Y98.256 E1.99384
G1 X143.837 Y98.903 E.02459
G1 X106.099 Y61.165 E2.02862
G1 X105.453 Y61.165 E.02455
G1 X143.838 Y99.549 E2.06337
G1 X143.838 Y100.196 E.02459
G1 X104.806 Y61.165 E2.09815
G1 X104.16 Y61.165 E.02455
G1 X143.838 Y100.842 E2.13288
G1 X143.838 Y101.489 E.02459
G1 X103.514 Y61.165 E2.16763
G1 X102.867 Y61.165 E.02459
G1 X143.838 Y102.135 E2.20238
G1 X143.838 Y102.782 E.02459
G1 X102.221 Y61.165 E2.23714
G1 X101.574 Y61.165 E.02459
G1 X143.838 Y103.428 E2.27189
G1 X143.838 Y104.075 E.02459
G1 X100.928 Y61.165 E2.30664
G1 X100.281 Y61.165 E.02459
G1 X143.838 Y104.721 E2.34139
G1 X143.838 Y105.368 E.02459
G1 X99.635 Y61.165 E2.37615
G1 X98.988 Y61.165 E.02459
G1 X143.838 Y106.014 E2.4109
G1 X143.838 Y106.661 E.02459
G1 X98.342 Y61.165 E2.44565
G1 X97.695 Y61.165 E.02459
G1 X143.838 Y107.307 E2.48041
G1 X143.838 Y107.954 E.02459
G1 X97.049 Y61.165 E2.51516
G1 X96.402 Y61.165 E.02459
G1 X143.838 Y108.601 E2.54994
G1 X143.838 Y109.247 E.02455
G1 X95.756 Y61.165 E2.58466
G1 X95.109 Y61.165 E.02459
G1 X143.838 Y109.894 E2.61944
G1 X143.838 Y110.54 E.02455
G1 X94.463 Y61.165 E2.65417
G1 X93.816 Y61.165 E.02459
G1 X143.838 Y111.187 E2.68895
G1 X143.838 Y111.833 E.02455
G1 X93.17 Y61.165 E2.72368
G1 X92.523 Y61.165 E.02459
G1 X143.838 Y112.48 E2.75845
G1 X143.838 Y113.126 E.02455
G1 X91.877 Y61.165 E2.79318
G1 X91.23 Y61.165 E.02459
G1 X143.838 Y113.773 E2.82796
G1 X143.838 Y114.419 E.02455
G1 X90.584 Y61.165 E2.86269
G1 X89.937 Y61.165 E.02459
G1 X143.838 Y115.066 E2.89747
G1 X143.839 Y115.712 E.02455
G1 X89.291 Y61.165 E2.93222
G1 X88.644 Y61.165 E.02459
G1 X143.839 Y116.359 E2.967
G1 X143.839 Y117.005 E.02455
G1 X87.998 Y61.165 E3.00172
G1 X87.351 Y61.165 E.02459
G1 X143.839 Y117.652 E3.0365
G1 X143.839 Y118.298 E.02455
G1 X86.705 Y61.165 E3.07123
G1 X86.058 Y61.165 E.02459
G1 X143.839 Y118.945 E3.10601
G1 X143.839 Y119.591 E.02455
G1 X85.412 Y61.165 E3.14074
G1 X84.765 Y61.165 E.02459
G1 X143.839 Y120.238 E3.17552
G1 X143.839 Y120.885 E.02459
G1 X84.119 Y61.165 E3.21027
G1 X83.473 Y61.165 E.02455
G1 X143.839 Y121.531 E3.24499
G1 X143.839 Y122.178 E.02459
G1 X82.826 Y61.165 E3.27977
G1 X82.18 Y61.165 E.02455
G1 X143.839 Y122.824 E3.3145
G1 X143.839 Y123.471 E.02459
G1 X81.533 Y61.165 E3.34928
G1 X80.887 Y61.165 E.02455
G1 X143.839 Y124.117 E3.38401
G1 X143.839 Y124.764 E.02459
G1 X80.295 Y61.22 E3.41583
G1 X79.753 Y61.324 E.02098
G1 X143.839 Y125.41 E3.44496
G1 X143.839 Y126.057 E.02459
G1 X79.271 Y61.488 E3.4709
G1 X78.825 Y61.689 E.01859
G1 X143.839 Y126.703 E3.49485
G1 X143.839 Y127.35 E.02459
G1 X78.412 Y61.922 E3.51708
G1 X78.026 Y62.183 E.01771
G1 X143.839 Y127.996 E3.5378
G1 X143.839 Y128.643 E.02459
G1 X77.681 Y62.485 E3.55635
G1 X77.365 Y62.815 E.01737
G1 X143.839 Y129.289 E3.57333
G1 X143.839 Y129.936 E.02459
G1 X77.082 Y63.178 E3.58857
G1 X76.919 Y63.4 E.01047
G1 X76.826 Y63.569 E.00733
G1 X143.839 Y130.582 E3.60231
G1 X143.84 Y131.229 E.02459
G1 X76.599 Y63.989 E3.61454
G1 X76.418 Y64.453 E.01893
G1 X143.84 Y131.875 E3.62429
G1 X143.84 Y132.522 E.02459
G1 X76.283 Y64.965 E3.63155
G1 X76.203 Y65.368 E.01562
G1 X76.193 Y65.522 E.00587
G1 X143.84 Y133.168 E3.63636
G1 X143.84 Y133.815 E.02459
G1 X76.159 Y66.134 E3.63821
G1 X76.159 Y66.781 E.02459
G1 X143.84 Y134.462 E3.63821
G1 X143.84 Y135.108 E.02455
G1 X76.159 Y67.427 E3.63821
G1 X76.159 Y68.074 E.02459
G1 X143.84 Y135.755 E3.63821
G1 X143.84 Y136.401 E.02455
G1 X76.159 Y68.72 E3.63821
G1 X76.159 Y69.367 E.02459
G1 X143.84 Y137.048 E3.63821
G1 X143.84 Y137.694 E.02455
G1 X76.159 Y70.013 E3.63821
G1 X76.159 Y70.66 E.02459
G1 X143.84 Y138.341 E3.63821
G1 X143.84 Y138.987 E.02455
G1 X76.159 Y71.306 E3.63821
G1 X76.159 Y71.953 E.02459
G1 X143.84 Y139.634 E3.63821
