; generated by PrusaSlicer 2.6.0-alpha4+win64 on 2023-04-28 at 00:44:10 UTC

; 

; external perimeters extrusion width = 0.50mm
; perimeters extrusion width = 0.50mm
; infill extrusion width = 0.50mm
; solid infill extrusion width = 0.50mm
; top infill extrusion width = 0.50mm
; first layer extrusion width = 0.50mm

M201 X500 Y500 Z100 E5000 ; sets maximum accelerations, mm/sec^2
M203 X500 Y500 Z10 E60 ; sets maximum feedrates, mm / sec
M204 P500 R1000 T500 ; sets acceleration (P, T) and retract acceleration (R), mm/sec^2
M205 X8.00 Y8.00 Z0.40 E5.00 ; sets the jerk limits, mm/sec
M205 S0 T0 ; sets the minimum extruding and travel feed rate, mm/sec
M107
;TYPE:Custom
G90 ; use absolute coordinates
M83 ; extruder relative mode
M104 S150 ; set temporary nozzle temp to prevent oozing during homing
M140 S75 ; set final bed temp
G4 S30 ; allow partial nozzle warmup
G28 ; home all axis
G1 Z50 F240
G1 X2.0 Y10 F3000
M104 S210 ; set final nozzle temp
M190 S75 ; wait for bed temp to stabilize
M109 S210 ; wait for nozzle temp to stabilize
G1 Z0.28 F240
G92 E0
G1 X2.0 Y140 E10 F1500 ; prime the nozzle
G1 X2.3 Y140 F5000
G92 E0
G1 X2.3 Y10 E10 F1200 ; prime the nozzle
G92 E0
G21 ; set units to millimeters
G90 ; use absolute coordinates
M83 ; use relative distances for extrusion
; Filament gcode
M107
;LAYER_CHANGE
;Z:0.2
;HEIGHT:0.2
;BEFORE_LAYER_CHANGE
G92 E0
;0.2


G1 E-5 F3600
G1 Z.2 F9000
;AFTER_LAYER_CHANGE

G1 X5 Y215
G1 F1000 X0
G4 P700
G1 F9000 X5

;0.2
G1 Z.6
G1 X72.715 Y59.763
G1 Z.2
G1 E5 F2400
M204 S500
;TYPE:Skirt/Brim
;WIDTH:0.5
G1 F1200
G1 X73.6 Y58.735 E.05155
G1 X74.407 Y57.995 E.04161
G1 X75.508 Y57.203 E.05155
G1 X76.531 Y56.642 E.04434
G1 X77.774 Y56.144 E.05089
G1 X79.066 Y55.812 E.0507
G1 X80.191 Y55.661 E.04314
G1 X139.095 Y55.63 E2.23872
G1 X140.895 Y55.804 E.06873
G1 X141.776 Y56.008 E.03437
G1 X142.871 Y56.379 E.04394
G1 X144.636 Y57.295 E.07558
G1 X146.063 Y58.407 E.06876
G1 X147.285 Y59.763 E.06938
G1 X147.797 Y60.509 E.03439
G1 X148.358 Y61.531 E.04431
G1 X149.042 Y63.408 E.07593
G1 X149.339 Y65.191 E.0687
G1 X149.37 Y154.095 E3.37891
G1 X149.271 Y155.43 E.05088
G1 X148.992 Y156.776 E.05224
G1 X148.544 Y158.057 E.05158
G1 X147.933 Y159.268 E.05155
G1 X147.169 Y160.389 E.05156
G1 X146.4 Y161.265 E.0443
G1 X145.593 Y162.005 E.04161
G1 X144.492 Y162.797 E.05155
G1 X143.469 Y163.358 E.04434
G1 X142.209 Y163.862 E.05158
G1 X140.895 Y164.196 E.05153
G1 X139.558 Y164.355 E.05117
G1 X80.643 Y164.364 E2.23914
G1 X79.293 Y164.229 E.05156
G1 X78.224 Y163.992 E.04162
G1 X76.943 Y163.544 E.05158
G1 X75.732 Y162.933 E.05155
G1 X74.611 Y162.169 E.05156
G1 X73.6 Y161.265 E.05154
G1 X72.831 Y160.389 E.0443
G1 X72.072 Y159.277 E.05117
G1 X71.463 Y158.073 E.05128
G1 X71.081 Y157.027 E.04232
G1 X70.774 Y155.725 E.05084
G1 X70.636 Y154.376 E.05154
G1 X70.63 Y65.905 E3.36246
G1 X70.731 Y64.552 E.05157
G1 X71.008 Y63.224 E.05156
G1 X71.449 Y61.96 E.05088
G1 X72.057 Y60.749 E.0515
G1 X72.673 Y59.825 E.04221
G1 X73.053 Y60.078 F9000
G1 F1200
G1 X73.93 Y59.051 E.05133
G1 X74.693 Y58.351 E.03935
G1 X75.731 Y57.603 E.04863
G1 X76.733 Y57.052 E.04346
G1 X77.921 Y56.577 E.04863
G1 X79.156 Y56.26 E.04846
G1 X80.204 Y56.119 E.04019
G1 X139.085 Y56.087 E2.23785
G1 X141.032 Y56.297 E.07443
G1 X142.699 Y56.802 E.0662
G1 X144.383 Y57.676 E.07211
G1 X145.748 Y58.737 E.06571
G1 X146.917 Y60.033 E.06633
G1 X147.948 Y61.733 E.07556
G1 X148.598 Y63.517 E.07216
G1 X148.883 Y65.221 E.06566
G1 X148.913 Y154.085 E3.37739
G1 X148.819 Y155.362 E.04867
G1 X148.553 Y156.648 E.04991
G1 X148.126 Y157.872 E.04927
G1 X147.542 Y159.031 E.04933
G1 X146.917 Y159.967 E.04278
G1 X146.07 Y160.949 E.04929
G1 X145.307 Y161.649 E.03935
G1 X144.254 Y162.407 E.04931
G1 X143.112 Y163.021 E.04928
G1 X142.062 Y163.429 E.04281
G1 X140.806 Y163.748 E.04925
G1 X139.528 Y163.899 E.04891
G1 X80.915 Y163.913 E2.22766
G1 X79.639 Y163.82 E.04862
G1 X78.352 Y163.553 E.04996
G1 X77.128 Y163.126 E.04927
G1 X75.969 Y162.542 E.04933
G1 X74.897 Y161.813 E.04927
G1 X73.93 Y160.949 E.04929
G1 X73.187 Y160.102 E.04282
G1 X72.467 Y159.045 E.04861
G1 X71.987 Y158.128 E.03934
G1 X71.525 Y156.916 E.0493
G1 X71.226 Y155.654 E.04929
G1 X71.093 Y154.365 E.04925
G1 X71.087 Y65.915 E3.36166
G1 X71.181 Y64.639 E.04863
G1 X71.447 Y63.352 E.04995
G1 X71.868 Y62.143 E.04866
G1 X72.449 Y60.985 E.04924
G1 X73.012 Y60.141 E.03856
G1 X73.392 Y60.394 F9000
G1 F1200
G1 X74.26 Y59.367 E.05111
G1 X74.979 Y58.708 E.03707
G1 X75.968 Y57.993 E.04638
G1 X76.935 Y57.462 E.04193
G1 X78.069 Y57.009 E.04641
G1 X79.246 Y56.708 E.04617
G1 X80.235 Y56.575 E.03793
G1 X139.075 Y56.544 E2.23629
G1 X140.942 Y56.745 E.07137
G1 X142.534 Y57.229 E.06324
G1 X144.13 Y58.056 E.06832
G1 X145.432 Y59.068 E.06267
G1 X146.548 Y60.303 E.06326
G1 X147.538 Y61.935 E.07255
G1 X148.154 Y63.625 E.06836
G1 X148.427 Y65.251 E.06266
G1 X148.456 Y154.075 E3.37587
G1 X148.368 Y155.293 E.04641
G1 X148.115 Y156.52 E.04761
G1 X147.708 Y157.688 E.04701
G1 X147.152 Y158.793 E.04701
G1 X146.456 Y159.816 E.04703
G1 X145.74 Y160.633 E.04129
G1 X145.021 Y161.292 E.03707
G1 X144.017 Y162.016 E.04704
G1 X143.065 Y162.538 E.04126
G1 X141.915 Y162.996 E.04705
G1 X140.716 Y163.299 E.047
G1 X139.498 Y163.443 E.04661
G1 X80.925 Y163.456 E2.22614
G1 X79.708 Y163.368 E.04637
G1 X78.48 Y163.115 E.04765
G1 X77.312 Y162.708 E.04701
G1 X76.207 Y162.152 E.04701
G1 X75.184 Y161.456 E.04703
G1 X74.26 Y160.633 E.04703
G1 X73.544 Y159.816 E.04129
G1 X72.857 Y158.808 E.04636
G1 X72.405 Y157.943 E.03709
G1 X71.964 Y156.787 E.04702
G1 X71.677 Y155.584 E.047
G1 X71.55 Y154.354 E.047
G1 X71.544 Y65.925 E3.36086
G1 X71.632 Y64.707 E.04641
G1 X71.885 Y63.48 E.04761
G1 X72.286 Y62.327 E.0464
G1 X72.84 Y61.221 E.04701
G1 X73.35 Y60.456 E.03494
; printing object Part Studio 1 - Top.stl id:0 copy 0
G1 E-3.5 F3600
;WIPE_START
G1 F7200
G1 X74.26 Y59.367 E-.6741
G1 X74.979 Y58.708 E-.46328
G1 X75.598 Y58.261 E-.36262
;WIPE_END
G1 Z.6 F9000
G1 X75.994 Y155.3
G1 Z.2
G1 E5 F2400
;TYPE:Perimeter
;WIDTH:0.499999
G1 F1200
G1 X75.871 Y154.728 E.02224
G1 X75.807 Y153.984 E.02838
G1 X75.807 Y66.2 E3.33634
G1 X75.831 Y65.661 E.02051
G1 X75.919 Y64.989 E.02576
G1 X76.061 Y64.413 E.02255
G1 X76.291 Y63.813 E.02442
G1 X76.622 Y63.211 E.02611
G1 X77.023 Y62.663 E.02581
G1 X77.347 Y62.325 E.01779
G1 X77.833 Y61.886 E.02489
G1 X78.404 Y61.504 E.02611
G1 X79.013 Y61.204 E.0258
G1 X79.457 Y61.053 E.01782
G1 X80.091 Y60.888 E.0249
G1 X80.781 Y60.813 E.02638
G1 X138.931 Y60.813 E2.21006
G1 X139.456 Y60.833 E.01997
G1 X140.124 Y60.931 E.02566
G1 X140.748 Y61.116 E.02474
G1 X141.342 Y61.379 E.02469
G1 X141.807 Y61.638 E.02023
G1 X142.337 Y62.023 E.0249
G1 X142.827 Y62.498 E.02594
G1 X143.253 Y63.022 E.02567
G1 X143.604 Y63.61 E.02603
G1 X143.879 Y64.224 E.02557
G1 X144.058 Y64.849 E.02471
G1 X144.156 Y65.496 E.02487
G1 X144.187 Y66.068 E.02177
G1 X144.193 Y153.799 E3.33433
G1 X144.169 Y154.339 E.02054
G1 X144.081 Y155.011 E.02576
G1 X143.939 Y155.587 E.02255
G1 X143.709 Y156.187 E.02442
G1 X143.378 Y156.789 E.02611
G1 X142.977 Y157.337 E.02581
G1 X142.507 Y157.827 E.02581
G1 X142.142 Y158.12 E.01779
G1 X141.603 Y158.492 E.02489
G1 X140.987 Y158.796 E.02611
G1 X140.543 Y158.947 E.01782
G1 X139.909 Y159.112 E.0249
G1 X139.219 Y159.187 E.02638
G1 X81.024 Y159.193 E2.21178
G1 X80.322 Y159.147 E.02674
G1 X79.649 Y159.013 E.02608
G1 X79.041 Y158.803 E.02445
G1 X78.508 Y158.542 E.02256
G1 X77.937 Y158.178 E.02574
G1 X77.418 Y157.742 E.02576
G1 X76.96 Y157.242 E.02577
G1 X76.571 Y156.687 E.02576
G1 X76.258 Y156.086 E.02575
G1 X76.01 Y155.373 E.02869
G1 X75.534 Y155.393 F9000
;TYPE:External perimeter
G1 F1200
G1 X75.484 Y155.223 E.00673
G1 X75.419 Y154.798 E.01634
G1 X75.35 Y153.993 E.03071
G1 X75.35 Y66.009 E3.34394
G1 X75.399 Y65.263 E.02841
G1 X75.49 Y64.802 E.01786
G1 X75.625 Y64.275 E.02068
G1 X75.879 Y63.615 E.02688
G1 X76.235 Y62.965 E.02817
G1 X76.672 Y62.369 E.02809
G1 X77.017 Y62.009 E.01895
G1 X77.559 Y61.52 E.02774
G1 X78.175 Y61.107 E.02819
G1 X78.838 Y60.781 E.02808
G1 X79.31 Y60.621 E.01894
G1 X80.016 Y60.437 E.02773
G1 X80.756 Y60.356 E.02829
G1 X138.931 Y60.355 E2.21101
G1 X139.478 Y60.376 E.0208
G1 X139.991 Y60.443 E.01966
G1 X140.488 Y60.555 E.01936
G1 X141.16 Y60.779 E.02692
G1 X141.82 Y61.105 E.02798
G1 X142.418 Y61.508 E.02741
G1 X142.817 Y61.842 E.01978
G1 X143.328 Y62.368 E.02787
G1 X143.759 Y62.965 E.02798
G1 X144.009 Y63.399 E.01904
G1 X144.309 Y64.068 E.02787
G1 X144.504 Y64.75 E.02696
G1 X144.61 Y65.446 E.02676
G1 X144.644 Y66.068 E.02368
G1 X144.65 Y153.991 E3.34163
G1 X144.601 Y154.737 E.02841
G1 X144.51 Y155.198 E.01786
G1 X144.375 Y155.725 E.02068
G1 X144.121 Y156.385 E.02688
G1 X143.765 Y157.035 E.02817
G1 X143.328 Y157.631 E.02809
G1 X142.817 Y158.165 E.02809
G1 X142.428 Y158.477 E.01895
G1 X141.827 Y158.891 E.02774
G1 X141.162 Y159.219 E.02818
G1 X140.69 Y159.379 E.01894
G1 X139.984 Y159.563 E.02773
G1 X139.244 Y159.644 E.02829
G1 X81.009 Y159.65 E2.2133
G1 X80.263 Y159.601 E.02841
G1 X79.802 Y159.51 E.01786
G1 X79.275 Y159.375 E.02068
G1 X78.615 Y159.121 E.02688
G1 X77.965 Y158.765 E.02817
G1 X77.369 Y158.328 E.02809
G1 X76.835 Y157.817 E.02809
G1 X76.372 Y157.24 E.02812
G1 X75.989 Y156.609 E.02805
G1 X75.691 Y155.932 E.02811
G1 X75.555 Y155.465 E.01849
G1 X75.654 Y155.262 F9000
G1 E-5 F3600
G1 Z.6 F9000
G1 X143.865 Y64.667
G1 Z.2
G1 E5 F2400
;TYPE:Solid infill
;WIDTH:0.500053
G1 F1200
G1 X140.655 Y61.457 E.17255
G1 X140.048 Y61.275 E.02409
G1 X139.779 Y61.228 E.01038
G1 X143.772 Y65.22 E.21462
G1 X143.835 Y65.93 E.02709
G1 X139.07 Y61.164 E.25617
G1 X138.423 Y61.164 E.02459
G1 X143.835 Y66.576 E.29092
G1 X143.835 Y67.223 E.02459
G1 X137.777 Y61.164 E.32568
G1 X137.131 Y61.164 E.02455
G1 X143.835 Y67.869 E.3604
G1 X143.836 Y68.516 E.02459
G1 X136.484 Y61.164 E.39521
G1 X135.838 Y61.164 E.02455
G1 X143.836 Y69.163 E.42996
G1 X143.836 Y69.809 E.02455
G1 X135.191 Y61.164 E.46471
G1 X134.545 Y61.164 E.02455
G1 X143.836 Y70.456 E.49947
G1 X143.836 Y71.102 E.02455
G1 X133.898 Y61.164 E.53422
G1 X133.252 Y61.164 E.02455
G1 X143.836 Y71.749 E.56897
G1 X143.836 Y72.395 E.02455
G1 X132.605 Y61.164 E.60373
G1 X131.959 Y61.165 E.02455
G1 X143.836 Y73.042 E.63845
G1 X143.836 Y73.688 E.02455
G1 X131.312 Y61.165 E.6732
G1 X130.666 Y61.165 E.02455
G1 X143.836 Y74.335 E.70796
G1 X143.836 Y74.981 E.02455
G1 X130.019 Y61.165 E.74271
G1 X129.373 Y61.165 E.02455
G1 X143.836 Y75.628 E.77746
G1 X143.836 Y76.274 E.02455
G1 X128.726 Y61.165 E.81222
G1 X128.08 Y61.165 E.02455
G1 X143.836 Y76.921 E.84697
G1 X143.836 Y77.567 E.02455
G1 X127.433 Y61.165 E.88172
G1 X126.787 Y61.165 E.02455
G1 X143.836 Y78.214 E.91647
G1 X143.836 Y78.86 E.02455
G1 X126.14 Y61.165 E.95123
G1 X125.494 Y61.165 E.02455
G1 X143.836 Y79.507 E.98598
G1 X143.836 Y80.153 E.02455
G1 X124.847 Y61.165 E1.02073
G1 X124.201 Y61.165 E.02455
G1 X143.836 Y80.8 E1.05549
G1 X143.836 Y81.446 E.02455
G1 X123.554 Y61.165 E1.09024
G1 X122.908 Y61.165 E.02455
G1 X143.836 Y82.093 E1.12499
G1 X143.836 Y82.74 E.02459
G1 X122.261 Y61.165 E1.15977
G1 X121.615 Y61.165 E.02455
G1 X143.836 Y83.386 E1.1945
G1 X143.837 Y84.033 E.02459
G1 X120.968 Y61.165 E1.2293
G1 X120.322 Y61.165 E.02455
G1 X143.837 Y84.679 E1.26403
G1 X143.837 Y85.326 E.02459
G1 X119.675 Y61.165 E1.29881
G1 X119.029 Y61.165 E.02455
G1 X143.837 Y85.972 E1.33354
G1 X143.837 Y86.619 E.02459
G1 X118.383 Y61.165 E1.36829
G1 X117.736 Y61.165 E.02459
G1 X143.837 Y87.265 E1.40304
G1 X143.837 Y87.912 E.02459
G1 X117.09 Y61.165 E1.43779
G1 X116.443 Y61.165 E.02459
G1 X143.837 Y88.558 E1.47255
G1 X143.837 Y89.205 E.02459
G1 X115.797 Y61.165 E1.5073
G1 X115.15 Y61.165 E.02459
G1 X143.837 Y89.851 E1.54205
G1 X143.837 Y90.498 E.02459
G1 X114.504 Y61.165 E1.57681
G1 X113.857 Y61.165 E.02459
G1 X143.837 Y91.144 E1.61156
G1 X143.837 Y91.791 E.02459
G1 X113.211 Y61.165 E1.64631
G1 X112.564 Y61.165 E.02459
G1 X143.837 Y92.437 E1.68106
G1 X143.837 Y93.084 E.02459
G1 X111.918 Y61.165 E1.71582
G1 X111.271 Y61.165 E.02459
G1 X143.837 Y93.73 E1.75057
G1 X143.837 Y94.377 E.02459
G1 X110.625 Y61.165 E1.78532
G1 X109.978 Y61.165 E.02459
G1 X143.837 Y95.024 E1.8201
G1 X143.837 Y95.67 E.02455
G1 X109.332 Y61.165 E1.85483
G1 X108.685 Y61.165 E.02459
G1 X143.837 Y96.317 E1.88961
G1 X143.837 Y96.963 E.02455
G1 X108.039 Y61.165 E1.92433
G1 X107.392 Y61.165 E.02459
G1 X143.837 Y97.61 E1.95911
G1 X143.837 Y98.256 E.02455
G1 X106.746 Y61.165 E1.99384
G1 X106.099 Y61.165 E.02459
G1 X143.837 Y98.903 E2.02862
G1 X143.838 Y99.549 E.02455
G1 X105.453 Y61.165 E2.06337
G1 X104.806 Y61.165 E.02459
G1 X143.838 Y100.196 E2.09815
G1 X143.838 Y100.842 E.02455
G1 X104.16 Y61.165 E2.13288
G1 X103.513 Y61.165 E.02459
G1 X143.838 Y101.489 E2.16766
G1 X143.838 Y102.135 E.02455
G1 X102.867 Y61.165 E2.20238
G1 X102.22 Y61.165 E.02459
G1 X143.838 Y102.782 E2.23716
G1 X143.838 Y103.428 E.02455
G1 X101.574 Y61.165 E2.27189
G1 X100.928 Y61.165 E.02455
G1 X143.838 Y104.075 E2.30664
G1 X143.838 Y104.721 E.02455
G1 X100.281 Y61.165 E2.34139
G1 X99.635 Y61.165 E.02455
G1 X143.838 Y105.368 E2.37615
G1 X143.838 Y106.014 E.02455
G1 X98.988 Y61.165 E2.4109
G1 X98.342 Y61.165 E.02455
G1 X143.838 Y106.661 E2.44565
G1 X143.838 Y107.307 E.02455
G1 X97.695 Y61.165 E2.48041
G1 X97.049 Y61.165 E.02455
G1 X143.838 Y107.954 E2.51516
G1 X143.838 Y108.601 E.02459
G1 X96.402 Y61.165 E2.54994
G1 X95.756 Y61.165 E.02455
G1 X143.838 Y109.247 E2.58466
G1 X143.838 Y109.894 E.02459
G1 X95.109 Y61.165 E2.61944
G1 X94.463 Y61.165 E.02455
G1 X143.838 Y110.54 E2.65417
G1 X143.838 Y111.187 E.02459
G1 X93.816 Y61.165 E2.68895
G1 X93.17 Y61.165 E.02455
G1 X143.838 Y111.833 E2.72368
G1 X143.838 Y112.48 E.02459
G1 X92.523 Y61.165 E2.75845
G1 X91.877 Y61.165 E.02455
G1 X143.838 Y113.126 E2.79318
G1 X143.838 Y113.773 E.02459
G1 X91.23 Y61.165 E2.82796
G1 X90.584 Y61.165 E.02455
G1 X143.838 Y114.419 E2.86269
G1 X143.838 Y115.066 E.02459
G1 X89.937 Y61.165 E2.89747
G1 X89.291 Y61.165 E.02455
G1 X143.839 Y115.712 E2.93222
G1 X143.839 Y116.359 E.02459
G1 X88.644 Y61.165 E2.967
G1 X87.998 Y61.165 E.02455
G1 X143.839 Y117.005 E3.00172
G1 X143.839 Y117.652 E.02459
G1 X87.351 Y61.165 E3.0365
G1 X86.705 Y61.165 E.02455
G1 X143.839 Y118.298 E3.07123
G1 X143.839 Y118.945 E.02459
G1 X86.058 Y61.165 E3.10601
G1 X85.412 Y61.165 E.02455
G1 X143.839 Y119.591 E3.14074
G1 X143.839 Y120.238 E.02459
G1 X84.765 Y61.165 E3.17552
G1 X84.119 Y61.165 E.02455
G1 X143.839 Y120.885 E3.21027
G1 X143.839 Y121.531 E.02455
G1 X83.473 Y61.165 E3.24499
G1 X82.826 Y61.165 E.02459
G1 X143.839 Y122.178 E3.27977
G1 X143.839 Y122.824 E.02455
G1 X82.18 Y61.165 E3.3145
G1 X81.533 Y61.165 E.02459
G1 X143.839 Y123.471 E3.34928
G1 X143.839 Y124.117 E.02455
G1 X80.887 Y61.165 E3.38401
G1 X80.295 Y61.22 E.0226
G1 X143.839 Y124.764 E3.41583
G1 X143.839 Y125.41 E.02455
G1 X79.753 Y61.324 E3.44496
G1 X79.271 Y61.488 E.01935
G1 X143.839 Y126.057 E3.4709
G1 X143.839 Y126.703 E.02455
G1 X78.825 Y61.689 E3.49485
G1 X78.581 Y61.81 E.01035
G1 X78.412 Y61.922 E.00771
G1 X143.839 Y127.35 E3.51708
G1 X143.839 Y127.996 E.02455
G1 X78.026 Y62.183 E3.5378
G1 X77.681 Y62.485 E.01743
G1 X143.839 Y128.643 E3.55635
G1 X143.839 Y129.289 E.02455
G1 X77.365 Y62.815 E3.57333
G1 X77.082 Y63.178 E.0175
G1 X143.839 Y129.936 E3.58857
G1 X143.839 Y130.582 E.02455
G1 X76.826 Y63.569 E3.60231
G1 X76.599 Y63.989 E.01815
G1 X143.84 Y131.229 E3.61454
G1 X143.84 Y131.875 E.02455
G1 X76.418 Y64.453 E3.62429
G1 X76.328 Y64.736 E.01129
G1 X76.283 Y64.965 E.00887
G1 X143.84 Y132.522 E3.63155
G1 X143.84 Y133.168 E.02455
G1 X76.193 Y65.522 E3.63636
G1 X76.159 Y66.134 E.0233
G1 X143.84 Y133.815 E3.63821
G1 X143.84 Y134.462 E.02459
G1 X76.159 Y66.781 E3.63821
G1 X76.159 Y67.427 E.02455
G1 X143.84 Y135.108 E3.63821
G1 X143.84 Y135.755 E.02459
G1 X76.159 Y68.074 E3.63821
G1 X76.159 Y68.72 E.02455
G1 X143.84 Y136.401 E3.63821
G1 X143.84 Y137.048 E.02459
G1 X76.159 Y69.367 E3.63821
G1 X76.159 Y70.013 E.02455
G1 X143.84 Y137.694 E3.63821
G1 X143.84 Y138.341 E.02459
G1 X76.159 Y70.66 E3.63821
G1 X76.159 Y71.306 E.02455
G1 X143.84 Y138.987 E3.63821
G1 X143.84 Y139.634 E.02459
G1 X76.159 Y71.953 E3.63821
G1 X76.159 Y72.599 E.02455
